!!!!SEGMENT: pl-wtm--r-1708_stefani-jozef--mazur-no-31.krn
!!!cenid: 18xx:2072
!!!COM: Stefani, Józef
!!!COM-rismID: pe30024097
!!!CDT: 1800/04/16-1876/03/19
!!!CNT: Polish
!!!OTL: Mazur No 31
!!!PDT:
!!!AGN: Secular; Mazurka
!!!SMS-siglum: PL-Wtm
!!!SMS-shelfmark: R 1708
!!!SMS-shelfwork: W
!!!SMS-variant:
!!!SMS-altvar:
!!!NIFC-rismSourceID: 1001128755
!!!NIFC-islandoraID: pl-wtm:28192
!!!URL-pdf-islandora: https://repozytorium.nifc.pl/islandora/object/pl-wtm%3A28192/datastream/PDF/view
!!!URL-scan: https://polish.musicsources.pl/pl/lokalizacje/galeria/rekopisy/6446 @EN{Scan on Polish Music Herritage in Open Access Website} @PL{Skany w portalu Dziedzictwo Muzyki Polskiej w otwartym dostępie}
!!!ONB-nifc: UWAGA: Na końcu rękopisu notatki do nieznanego utworu
!!!AIN: 1 cbass 1 cello 1 clars 2 cor 5 empty 1 fagot 1 flt 1 oboe 1 picco 1 timpa 1 trngl 1 tromp 1 viola
!!!key:
**kern	**dynam	**kern	**dynam	**kern	**dynam	**kern	**dynam	**kern	**dynam	**kern	**dynam	**kern	**dynam	**kern	**dynam	**kern	**dynam	**kern	**dynam	**kern	**dynam	**kern	**dynam	**kern	**dynam	**kern	**dynam	**kern	**dynam	**kern	**dynam	**kern	**dynam	**kern	**dynam
*	*	*	*	*	*	*group2	*	*group2	*	*	*	*	*	*group1	*	*group1	*	*group1	*	*	*	*	*	*	*	*	*	*	*	*	*	*	*	*	*
*	*	*	*	*	*	*I""Violini	*	*I""Violini	*	*	*	*	*	*I""Tromboni	*	*I""Tromboni	*	*I""Tromboni	*	*	*	*	*	*	*	*	*	*	*	*	*	*	*	*	*
*part18	*part18	*part17	*part16	*part16	*part14	*part15	*part15	*part14	*part14	*part13	*part13	*part12	*part10	*part11	*	*part10	*	*part9	*part9	*part8	*part8	*part7	*part7	*part6	*part6	*part5	*part5	*part4	*part4	*part3	*part3	*part2	*part2	*part1	*part1
*staff18	*	*staff17	*	*staff16	*	*staff15	*	*staff14	*	*staff13	*	*staff12	*	*staff11	*	*staff10	*	*staff9	*	*staff8	*	*staff7	*	*staff6	*	*staff5	*	*staff4	*	*staff3	*	*staff2	*	*staff1	*
*Icbass	*	*Icello	*	*Iviola	*	*Iempty	*	*Iempty	*	*Itrngl	*	*Itimpa	*	*Iempty	*	*Iempty	*	*Iempty	*	*Itromp	*	*Ifagot	*	*Icor	*	*Icor	*	*Iclars	*	*Ioboe	*	*Ipicco	*	*Iflt	*
*I"C: Basſi	*	*I"Violoncelli	*	*I"Viole	*	*	*	*	*	*I"Triangolo G. C. e Piatti	*	*I"E. h. Timpani	*	*	*	*	*	*	*	*I"in C Trombe	*	*I"Fagotti	*	*I"Corni in a	*	*I"Corni in E	*	*I"in a Clarinetti	*	*I"Oboe	*	*I"Picolo	*	*I"Flauto	*
*>[A,B,B,C,C,D,E,E,F,F]	*>[A,B,B,C,C,D,E,E,F,F]	*>[A,B,B,C,C,D,E,E,F,F]	*>[A,B,B,C,C,D,E,E,F,F]	*>[A,B,B,C,C,D,E,E,F,F]	*>[A,B,B,C,C,D,E,E,F,F]	*>[A,B,B,C,C,D,E,E,F,F]	*>[A,B,B,C,C,D,E,E,F,F]	*>[A,B,B,C,C,D,E,E,F,F]	*>[A,B,B,C,C,D,E,E,F,F]	*>[A,B,B,C,C,D,E,E,F,F]	*>[A,B,B,C,C,D,E,E,F,F]	*>[A,B,B,C,C,D,E,E,F,F]	*>[A,B,B,C,C,D,E,E,F,F]	*>[A,B,B,C,C,D,E,E,F,F]	*	*>[A,B,B,C,C,D,E,E,F,F]	*	*>[A,B,B,C,C,D,E,E,F,F]	*>[A,B,B,C,C,D,E,E,F,F]	*>[A,B,B,C,C,D,E,E,F,F]	*>[A,B,B,C,C,D,E,E,F,F]	*>[A,B,B,C,C,D,E,E,F,F]	*>[A,B,B,C,C,D,E,E,F,F]	*>[A,B,B,C,C,D,E,E,F,F]	*>[A,B,B,C,C,D,E,E,F,F]	*>[A,B,B,C,C,D,E,E,F,F]	*>[A,B,B,C,C,D,E,E,F,F]	*>[A,B,B,C,C,D,E,E,F,F]	*>[A,B,B,C,C,D,E,E,F,F]	*>[A,B,B,C,C,D,E,E,F,F]	*>[A,B,B,C,C,D,E,E,F,F]	*>[A,B,B,C,C,D,E,E,F,F]	*>[A,B,B,C,C,D,E,E,F,F]	*>[A,B,B,C,C,D,E,E,F,F]	*>[A,B,B,C,C,D,E,E,F,F]
*>A	*>A	*>A	*>A	*>A	*>A	*>A	*>A	*>A	*>A	*>A	*>A	*>A	*>A	*>A	*	*>A	*	*>A	*>A	*>A	*>A	*>A	*>A	*>A	*>A	*>A	*>A	*>A	*>A	*>A	*>A	*>A	*>A	*>A	*>A
*clefF4	*	*clefF4	*	*clefC3	*	*clefG2	*	*clefG2	*	*clefF4	*	*clefF4	*	*clefF4	*	*clefC4	*	*clefC3	*	*clefG2	*	*clefF4	*	*clefG2	*	*clefG2	*	*clefG2	*	*clefG2	*	*clefG2	*	*clefG2	*
*	*	*	*	*	*	*	*	*	*	*	*	*	*	*	*	*	*	*	*	*	*	*	*	*ITrd2c3	*	*ITrd-2c-4	*	*ITrd2c3	*	*	*	*ITrd0c0	*	*	*
*k[f#c#g#d#]	*	*k[f#c#g#d#]	*	*k[f#c#g#d#]	*	*k[f#c#g#d#]	*	*k[f#c#g#d#]	*	*k[]	*	*k[]	*	*k[f#c#g#d#]	*	*k[f#c#g#d#]	*	*k[f#c#g#d#]	*	*k[f#c#g#d#]	*	*k[f#c#g#d#]	*	*k[f#c#g#]	*	*k[f#c#g#d#]	*	*k[f#c#g#d#]	*	*k[f#c#g#d#]	*	*k[f#c#g#d#]	*	*k[f#c#g#d#]	*
*E:	*	*E:	*	*E:	*	*E:	*	*E:	*	*E:	*	*E:	*	*E:	*	*E:	*	*E:	*	*E:	*	*E:	*	*E:	*	*	*	*E:	*	*E:	*	*E:	*	*E:	*
*M3/8	*	*M3/8	*	*M3/8	*	*M3/8	*	*M3/8	*	*M3/8	*	*M3/8	*	*M3/8	*	*M3/8	*	*M3/8	*	*M3/8	*	*M3/8	*	*M3/8	*	*M3/8	*	*M3/8	*	*M3/8	*	*M3/8	*	*M3/8	*
=1	=1	=1	=1	=1	=1	=1	=1	=1	=1	=1	=1	=1	=1	=1	=1	=1	=1	=1	=1	=1	=1	=1	=1	=1	=1	=1	=1	=1	=1	=1	=1	=1	=1	=1	=1
*	*	*	*	*	*	*	*	*	*	*^	*	*	*	*	*	*	*	*	*	*	*	*	*	*^	*	*	*	*^	*	*	*	*	*	*	*
*	*	*	*	*	*	*	*	*	*	*tremolo	*	*	*	*	*	*	*	*	*	*	*	*	*	*	*	*	*	*	*	*	*	*	*	*	*	*	*	*
!	!LO:DY:rj	!	!	!LO:TX:a:t=Col b&colon;//	!LO:DY:rj	!LO:TX:b:t=Col I°//	!	!	!LO:DY:rj	!	!	!	!	!	!	!	!	!	!	!	!	!LO:DY:rj	!	!LO:DY:rj	!	!	!	!	!LO:DY:rj	!LO:TX:b:i:t=due	!	!	!	!LO:DY:rj	!LO:TX:a:t=Col Flauto	!LO:DY:rj	!LO:TX:a:i:t=Mazur Nr 24.:problem="24." skreślone ołówkiem, dopisane "31."	!LO:DY:rj
16.E\LL|	f	4.ryy	.	16.E/LL|yy	fy	16.g#LLyy 16.B/yy	.	16.g#LL 16.B/	f	32Ree/LLL	8Ra\	.	16.E\LL	.	16.E\LL	.	16.G#/LL	.	16.B/LL	.	16.g#LL 16.G#/	f	16.eLL 16.E\	f	16.bLL 16.e\	8rAyy	.	16.gg#LL 16.ee\	f	16.g#/LL	16.g#\LL	.	16.gg#LL 16.ee\|	f	16.g#\LL|yy	fy	16.gg#\LL|	f
.	.	.	.	.	.	.	.	.	.	32Ree/	.	.	.	.	.	.	.	.	.	.	.	.	.	.	.	.	.	.	.	.	.	.	.	.	.	.	.	.
.	.	.	.	.	.	.	.	.	.	32Ree/	.	.	.	.	.	.	.	.	.	.	.	.	.	.	.	.	.	.	.	.	.	.	.	.	.	.	.	.
32E\JJk|	.	.	.	32E/JJk|yy	.	32g#JJkyy 32B/yy	.	32g#JJk 32B/	.	32Ree/JJ	.	.	32E\JJk	.	32E\JJk	.	32G#/JJk	.	32B/JJk	.	32g#JJk 32G#/	.	32eJJk 32E\	.	32bJJk 32e\	.	.	32gg#JJk 32ee\	.	32g#/JJk	32g#\JJk	.	32gg#JJk 32ee\|	.	32g#\JJk|yy	.	32gg#\JJk|	.
*	*	*	*	*	*	*	*	*	*	*Xtremolo	*	*	*	*	*	*	*	*	*	*	*	*	*	*	*	*	*	*	*	*	*	*	*	*	*	*	*	*
8D#/L|	.	.	.	8D#/L|yy	.	8bLyy 8f#yy 8B/yy	.	8bL 8f# 8B/	.	8Ree/	8rEE	.	8BB/L	.	8D#/L	.	8F#/L	.	8B/L	.	8bL 8B/	.	8d#L 8D#\	.	8b/L	8b\L	.	8ff#L 8b/	.	8b/L	8b\L	.	8bbL 8ff#\|	.	8b\L|yy	.	8bb\L|	.
8BB/J|	.	.	.	8BB/J|yy	.	8dd#Jyy 8f#yy 8B/yy	.	8dd#J 8f# 8B/	.	8Ree/J	8rEE	.	8BB/J	.	8BB/J	.	8F#/J	.	8d#/J	.	8ff#J 8f#/	.	8BJ 8BB\	.	8b/J	8b\J	.	8ff#J 8b/	.	8dd#/J	8dd#\J	.	8bbJ 8ff#\|	.	8dd#\J|yy	.	8ddd#\J|	.
*	*	*	*	*	*	*	*	*	*	*	*	*	*	*	*	*	*	*	*	*	*	*	*	*	*v	*v	*	*	*	*v	*v	*	*	*	*	*	*	*
=2	=2	=2	=2	=2	=2	=2	=2	=2	=2	=2	=2	=2	=2	=2	=2	=2	=2	=2	=2	=2	=2	=2	=2	=2	=2	=2	=2	=2	=2	=2	=2	=2	=2	=2	=2	=2
*	*	*	*	*	*	*	*	*	*	*	*	*	*	*	*	*	*	*	*	*	*	*	*	*	*	*	*^	*	*	*	*	*	*	*	*	*
*	*	*	*	*	*	*	*	*	*	*rep	*	*	*	*	*	*	*	*	*	*	*	*	*	*	*	*	*	*	*	*	*	*	*	*	*	*	*
*	*	*	*	*	*	*	*	*	*	*tremolo	*	*	*	*	*	*	*	*	*	*	*	*	*	*	*	*	*	*	*	*	*	*	*	*	*	*	*
16.AA#X/LL|	.	4.ryy	.	16.AA#X/LL|yy	.	16.ff#LLyy 16.cc#yy 16.f#/yy	.	16.ff#LL 16.cc# 16.f#/	.	32Ree/LLL	8Ra\	.	4.r	.	16.AA#X/LL	.	16.F#/LL	.	16.c#\LL	.	16.ff#LL 16.f#\	.	16.A#XLL 16.AA#X\	.	16.cc#LL 16.a#X\	.	16.ff#/LL	16.ff#\LL	.	16.ff#\LL	.	16.ccc#LL 16.ff#\	.	16.ff#\LL|yy	.	16.fff#\LL|	.
.	.	.	.	.	.	.	.	.	.	32Ree/	.	.	.	.	.	.	.	.	.	.	.	.	.	.	.	.	.	.	.	.	.	.	.	.	.	.	.
.	.	.	.	.	.	.	.	.	.	32Ree/	.	.	.	.	.	.	.	.	.	.	.	.	.	.	.	.	.	.	.	.	.	.	.	.	.	.	.
32AA#/JJk|	.	.	.	32AA#/JJk|yy	.	32ff#/JJkyy	.	32ff#/JJk	.	32Ree/JJ	.	.	.	.	32AA#/JJk	.	32F#/JJk	.	32c#\JJk	.	32ff#JJk 32f#\	.	32A#JJk 32AA#\	.	32cc#JJk 32a#\	.	32ff#/JJk	32ff#\JJk	.	32ff#\JJk	.	32ccc#JJk 32ff#\	.	32ff#\JJk|yy	.	32fff#\JJk|	.
*	*	*	*	*	*	*	*	*	*	*Xtremolo	*	*	*	*	*	*	*	*	*	*	*	*	*	*	*	*	*	*	*	*	*	*	*	*	*	*	*
8FF#/L|	.	.	.	8FF#/L|yy	.	8cc#L 8f#/	.	8cc#L 8f#/	.	8Ree/	8rEE	.	.	.	8FF#/L	.	8F#/L	.	8c#\L	.	8cc#L 8c#/	.	8F#L 8FF#/	.	8cc#L 8a#\	.	8ff#/L	8ff#\L	.	8cc#\L	.	8ccc#L 8ff#\	.	8cc#\L|yy	.	8ccc#\L|	.
!	!	!	!	!	!	!	!	!LO:TX:b:t=P:problem=dźwięk f# przekreślony	!	!	!	!	!	!	!	!	!	!	!	!	!	!	!	!	!	!	!	!	!	!	!	!	!	!	!	!	!
8AA#/J|	.	.	.	8AA#/J|yy	.	8f#/J	.	8cc##XJ 8f#/	.	8Ree/J	8rEE	.	.	.	8AA#/J	.	8F#/J	.	8c##X\J	.	8cc##XJ 8c##X/	.	8A#J 8AA#/	.	8cc#J 8a#\	.	8ff#/J	8ff#\J	.	8cc##X\J	.	8ccc##XJ 8ff#\	.	8cc##X\J|yy	.	8ccc##X\J|	.
*	*	*	*	*	*	*	*	*	*	*Xrep	*	*	*	*	*	*	*	*	*	*	*	*	*	*	*	*	*	*	*	*	*	*	*	*	*	*	*
=3	=3	=3	=3	=3	=3	=3	=3	=3	=3	=3	=3	=3	=3	=3	=3	=3	=3	=3	=3	=3	=3	=3	=3	=3	=3	=3	=3	=3	=3	=3	=3	=3	=3	=3	=3	=3	=3
*	*	*	*	*	*	*	*	*	*	*	*	*	*	*	*	*	*	*	*	*	*	*	*	*	*^	*	*	*	*	*	*	*	*	*	*	*	*
*	*	*	*	*	*	*	*	*	*	*rep	*	*	*	*	*	*	*	*	*	*	*	*	*	*	*	*	*	*	*	*	*	*	*	*	*	*	*	*
*	*	*	*	*	*	*	*	*	*	*tremolo	*	*	*	*	*	*	*	*	*	*	*	*	*	*	*	*	*	*	*	*	*	*	*	*	*	*	*	*
!	!	!	!	!	!	!LO:TX:b:t=P:problem=dźwięk dd# przekreślony	!	!LO:TX:b:t=P:problem=dźwięk f# przekreślony	!	!	!	!	!	!	!	!	!	!	!	!	!	!	!	!	!	!	!	!	!	!	!	!	!	!	!	!	!	!
16.BB/LL|	.	4.ryy	.	16.BB/LL|yy	.	16.dd#LL 16.f# 16.B/	.	16.dd#LL 16.f#/	.	32Ree/LLL	8Ra\	.	16.BB/LL	.	16.BB/LL	.	16.F#/LL	.	16.d#\LL	.	16.dd#LL 16.d#/	.	16.BLL 16.BB\	.	16.b/LL	16.b\LL	.	16.ff#/LL	16.ff#\LL	.	16.dd#\LL	.	16.bbLL 16.ff#\	.	16.dd#\LL|yy	.	16.ddd#\LL|	.
.	.	.	.	.	.	.	.	.	.	32Ree/	.	.	.	.	.	.	.	.	.	.	.	.	.	.	.	.	.	.	.	.	.	.	.	.	.	.	.	.
.	.	.	.	.	.	.	.	.	.	32Ree/	.	.	.	.	.	.	.	.	.	.	.	.	.	.	.	.	.	.	.	.	.	.	.	.	.	.	.	.
32D#/JJk|	.	.	.	32D#/JJk|yy	.	32f#JJk 32B/	.	32b/JJk	.	32Ree/JJ	.	.	32BB/JJk	.	32D#/JJk	.	32F#/JJk	.	32B\JJk	.	32bJJk 32B/	.	32d#JJk 32D#\	.	32b/JJk	32b\JJk	.	32ff#/JJk	32ff#\JJk	.	32b\JJk	.	32bbJJk 32ff#\	.	32b\JJk|yy	.	32bb\JJk|	.
*	*	*	*	*	*	*	*	*	*	*Xtremolo	*	*	*	*	*	*	*	*	*	*	*	*	*	*	*	*	*	*	*	*	*	*	*	*	*	*	*	*
8E\L|	.	.	.	8E/L|yy	.	8f#L 8c#/	.	8a#X/L	.	8Ree/	8rEE	.	8E/L	.	8E/L	.	8F#/L	.	8A#X/L	.	8a#XL 8A#X/	.	8eL 8E\	.	8cc#/L	8a#X\L	.	8ff#/L	8ff#\L	.	8a#X\L	.	8aa#XL 8ff#\	.	8a#X\L|yy	.	8aa#X\L|	.
8D#\J|	.	.	.	8D#/J|yy	.	8f#J 8B/	.	8b/J	.	8Ree/J	8rEE	.	8BB/J	.	8D#/J	.	8F#/J	.	8B/J	.	8bJ 8B/	.	8d#J 8D#\	.	8b/J	8b\J	.	8ff#/J	8ff#\J	.	8b\J	.	8bbJ 8ff#\	.	8b\J|yy	.	8bb\J|	.
*	*	*	*	*	*	*	*	*	*	*Xrep	*	*	*	*	*	*	*	*	*	*	*	*	*	*	*	*	*	*	*	*	*	*	*	*	*	*	*	*
=4	=4	=4	=4	=4	=4	=4	=4	=4	=4	=4	=4	=4	=4	=4	=4	=4	=4	=4	=4	=4	=4	=4	=4	=4	=4	=4	=4	=4	=4	=4	=4	=4	=4	=4	=4	=4	=4	=4
*	*	*	*	*	*	*	*	*	*	*	*	*	*	*	*^	*	*	*	*	*	*^	*	*^	*	*	*	*	*	*	*	*	*	*	*	*	*	*	*
16F#\|	.	4.ryy	.	16F#/	.	16f# 16A#X/	.	16cc#\	.	16Ree/	8rEE	.	4.r	.	16F#/	16F#\	.	16A#X\	.	16c#\	.	16cc# 16c#/	8rcyy	.	16F#/	16F#\	.	16cc#/	16a#X\	.	16ff#/	16ff#\	.	16cc#\	.	16aa#X 16ff#\	.	16cc#\|yy	.	16ccc#\|	.
16r	.	.	.	16r	.	16r	.	16r	.	16rc	.	.	.	.	16r	16rEEyy	.	16r	.	16r	.	16r	.	.	16r	16rEEyy	.	16r	16ryy	.	16r	16reyy	.	16r	.	16r	.	16ryy	.	16r	.
4FF#/|	.	.	.	4c# 4F#/	.	4f# 4A#/	.	4ff# 4cc# 4f#\	.	4Ree/	4Ra\	.	.	.	4F#/	4F#\	.	4A#\	.	4c#\	.	4f#/	4f#\	.	4F# 4FF#/	4ryy	.	4cc#/	4a#\	.	4ff#/	4ff#\	.	4ff#^\	.	4aa# 4ff#\	.	4ff#^<\|yy	.	4fff#^<\|	.
*	*	*	*	*	*	*	*	*	*	*	*	*	*	*	*	*	*	*	*	*	*	*v	*v	*	*	*	*	*	*	*	*	*	*	*	*	*	*	*	*	*	*
*	*	*	*	*	*	*	*	*	*	*	*	*	*	*	*	*	*	*	*	*	*	*	*	*v	*v	*	*	*	*	*	*	*	*	*	*	*	*	*	*	*
!!LO:PB:g=original
=5	=5	=5	=5	=5	=5	=5	=5	=5	=5	=5	=5	=5	=5	=5	=5	=5	=5	=5	=5	=5	=5	=5	=5	=5	=5	=5	=5	=5	=5	=5	=5	=5	=5	=5	=5	=5	=5	=5	=5
*	*	*	*	*	*	*	*	*	*	*	*	*	*	*	*	*	*	*	*	*	*	*	*	*	*	*	*	*	*	*	*	*^	*	*^	*	*	*	*	*
16E\	.	4.ryy	.	16E/	.	16.g#LL 16.c#/	.	16.gg#LL 16.cc#\|	.	8rc	8rEE	.	4.r	.	16.E\LL	8ryy	.	16.c#\LL	.	16.g#\LL	.	16.g#/LL	.	16.E\LL	.	16.cc#LL 16.a\	8ryy	.	16.gg#LL 16.ee\	8ryy	.	16.gg#LL 16.cc#\	8rAyy	.	16.gg#LL 16.cc#\	8rcyy	.	16.gg#\LL|	.	16.ggg#\LL	.
16r	.	.	.	16r	.	.	.	.	.	.	.	.	.	.	.	.	.	.	.	.	.	.	.	.	.	.	.	.	.	.	.	.	.	.	.	.	.	.	.	.	.
.	.	.	.	.	.	32g#JJk 32c#/	.	32gg#JJk 32cc#\|	.	.	.	.	.	.	32E\JJk	.	.	32c#\JJk	.	32g#\JJk	.	32g#/JJk	.	32eJJk 32E\	.	32cc#JJk 32a\	.	.	32gg#JJk 32ee\	.	.	32gg#JJk 32cc#\	.	.	32gg#JJk 32cc#\	.	.	32gg#\JJk|	.	32ggg#\JJk	.
*	*	*	*	*	*	*	*	*	*	*tremolo	*	*	*	*	*	*	*	*	*	*	*	*	*	*	*	*	*	*	*	*	*	*	*	*	*	*	*	*	*	*	*
4E^\	.	.	.	4e\	.	4a#X 4c#/	.	4cc# 4f#/	.	32Ree/LLL	4Ra\	.	.	.	4F#/	4E\	.	4A#X\	.	4c#\	.	4c#/	.	4e 4E\	.	4cc#/	4a#X\	.	4ff#/	4ff#\	.	4cc#/	4a#X\	.	4cc#/	4a#X\	.	4cc#\|	.	4ccc#\	.
.	.	.	.	.	.	.	.	.	.	32Ree/	.	.	.	.	.	.	.	.	.	.	.	.	.	.	.	.	.	.	.	.	.	.	.	.	.	.	.	.	.	.	.
.	.	.	.	.	.	.	.	.	.	32Ree/	.	.	.	.	.	.	.	.	.	.	.	.	.	.	.	.	.	.	.	.	.	.	.	.	.	.	.	.	.	.	.
.	.	.	.	.	.	.	.	.	.	32Ree/	.	.	.	.	.	.	.	.	.	.	.	.	.	.	.	.	.	.	.	.	.	.	.	.	.	.	.	.	.	.	.
.	.	.	.	.	.	.	.	.	.	32Ree/	.	.	.	.	.	.	.	.	.	.	.	.	.	.	.	.	.	.	.	.	.	.	.	.	.	.	.	.	.	.	.
.	.	.	.	.	.	.	.	.	.	32Ree/	.	.	.	.	.	.	.	.	.	.	.	.	.	.	.	.	.	.	.	.	.	.	.	.	.	.	.	.	.	.	.
.	.	.	.	.	.	.	.	.	.	32Ree/	.	.	.	.	.	.	.	.	.	.	.	.	.	.	.	.	.	.	.	.	.	.	.	.	.	.	.	.	.	.	.
.	.	.	.	.	.	.	.	.	.	32Ree/JJJ	.	.	.	.	.	.	.	.	.	.	.	.	.	.	.	.	.	.	.	.	.	.	.	.	.	.	.	.	.	.	.
*	*	*	*	*	*	*	*	*	*	*	*	*	*	*	*	*	*	*	*	*	*	*	*	*	*	*	*	*	*	*	*	*v	*v	*	*	*	*	*	*	*	*
*	*	*	*	*	*	*	*	*	*	*	*	*	*	*	*	*	*	*	*	*	*	*	*	*	*	*	*	*	*	*	*	*	*	*v	*v	*	*	*	*	*
=6	=6	=6	=6	=6	=6	=6	=6	=6	=6	=6	=6	=6	=6	=6	=6	=6	=6	=6	=6	=6	=6	=6	=6	=6	=6	=6	=6	=6	=6	=6	=6	=6	=6	=6	=6	=6	=6	=6	=6
*	*	*	*	*	*	*	*	*	*	*rep	*rep	*	*	*	*	*	*	*	*	*	*	*	*	*	*	*	*	*	*	*	*	*	*	*	*	*	*	*	*
16D#\	.	4.ryy	.	16d#\	.	16.bLL 16.f# 16.B/	.	16.ff#LL 16.b\|	.	8rc	8rEE	.	4.r	.	16.F#LL 16.D#\	8ryy	.	16.B\LL	.	16.f#\LL	.	16.f#/LL	.	16.d#LL 16.D#\	.	16.b/LL	16.b\LL	.	16.ff#/LL	16.ff#\LL	.	16.ff#LL 16.b\	.	16.ff#LL 16.b\	.	16.ff#\LL	.	16.fff#\LL	.
16r	.	.	.	16r	.	.	.	.	.	.	.	.	.	.	.	.	.	.	.	.	.	.	.	.	.	.	.	.	.	.	.	.	.	.	.	.	.	.	.
.	.	.	.	.	.	32bJJk 32f#/	.	32ff#JJk 32b\|	.	.	.	.	.	.	32F#JJk 32D#\	.	.	32B\JJk	.	32f#\JJk	.	32f#/JJk	.	32d#JJk 32D#\	.	32b/JJk	32b\JJk	.	32ff#/JJk	32ff#\JJk	.	32ff#JJk 32b\	.	32ff#JJk 32b\	.	32ff#\JJk	.	32fff#\JJk	.
!	!	!	!	!	!	!	!	!	!	!	!	!	!	!	!LO:TX:a:t=P:problem=dopisane ołówkiem 4G#/ 4G\	!	!	!	!	!	!	!	!	!LO:SIC:v:s=4e 4E\:t=poprawione ołówkiem	!	!	!	!	!	!	!	!	!	!	!	!	!	!	!
4D#^\	.	.	.	4d#\	.	4g# 4B/	.	4b\	.	32Ree/LLL	4Ra\	.	.	.	4F#/	4D#\	.	4B\	.	4B\	.	4B/	.	4d# 4D#\	.	4b/	4b\	.	4ff#/	4ff#\	.	4dd# 4f#\	.	4b 4f#/	.	4b\	.	4bb\	.
.	.	.	.	.	.	.	.	.	.	32Ree/	.	.	.	.	.	.	.	.	.	.	.	.	.	.	.	.	.	.	.	.	.	.	.	.	.	.	.	.	.
.	.	.	.	.	.	.	.	.	.	32Ree/	.	.	.	.	.	.	.	.	.	.	.	.	.	.	.	.	.	.	.	.	.	.	.	.	.	.	.	.	.
.	.	.	.	.	.	.	.	.	.	32Ree/	.	.	.	.	.	.	.	.	.	.	.	.	.	.	.	.	.	.	.	.	.	.	.	.	.	.	.	.	.
.	.	.	.	.	.	.	.	.	.	32Ree/	.	.	.	.	.	.	.	.	.	.	.	.	.	.	.	.	.	.	.	.	.	.	.	.	.	.	.	.	.
.	.	.	.	.	.	.	.	.	.	32Ree/	.	.	.	.	.	.	.	.	.	.	.	.	.	.	.	.	.	.	.	.	.	.	.	.	.	.	.	.	.
.	.	.	.	.	.	.	.	.	.	32Ree/	.	.	.	.	.	.	.	.	.	.	.	.	.	.	.	.	.	.	.	.	.	.	.	.	.	.	.	.	.
.	.	.	.	.	.	.	.	.	.	32Ree/JJJ	.	.	.	.	.	.	.	.	.	.	.	.	.	.	.	.	.	.	.	.	.	.	.	.	.	.	.	.	.
*	*	*	*	*	*	*	*	*	*	*Xtremolo	*	*	*	*	*	*	*	*	*	*	*	*	*	*	*	*	*	*	*	*	*	*	*	*	*	*	*	*	*
*	*	*	*	*	*	*	*	*	*	*Xrep	*Xrep	*	*	*	*	*	*	*	*	*	*	*	*	*	*	*	*	*	*	*	*	*	*	*	*	*	*	*	*
*	*	*	*	*	*	*	*	*	*	*	*	*	*	*	*v	*v	*	*	*	*	*	*	*	*	*	*	*	*	*	*	*	*	*	*	*	*	*	*	*
=7	=7	=7	=7	=7	=7	=7	=7	=7	=7	=7	=7	=7	=7	=7	=7	=7	=7	=7	=7	=7	=7	=7	=7	=7	=7	=7	=7	=7	=7	=7	=7	=7	=7	=7	=7	=7	=7	=7
*	*	*	*	*	*	*	*	*	*	*	*	*	*	*	*	*	*	*	*	*	*	*	*	*	*	*	*	*	*	*	*	*	*Xtuplet	*	*	*	*	*
!	!	!	!	!	!	!	!	!LO:TUP:a:problem=klamra łukowa	!	!	!	!	!	!	!	!	!	!	!	!	!	!	!	!	!	!	!	!	!	!	!	!	!	!	!LO:TUP:a:problem=klamra łukowa	!	!	!
16E\	.	4.ryy	.	16g# 16c#\	.	16e 16c#/	.	24cc#\LL	.	4.rGG	4.r	.	4.r	.	16E\	.	16G#/	.	16c#\	.	4.r	.	16e 16E\	.	16cc#/	16g#\	.	16gg#/	16ee\	.	4.r	.	24cc#\LL	.	24cc#\LL	.	4.r	.
.	.	.	.	.	.	.	.	24dd#\	.	.	.	.	.	.	.	.	.	.	.	.	.	.	.	.	.	.	.	.	.	.	.	.	24dd#X\	.	24dd#\	.	.	.
16r	.	.	.	16r	.	16r	.	.	.	.	.	.	.	.	16r	.	16r	.	16r	.	.	.	16r	.	16r	16ryy	.	16r	16reyy	.	.	.	.	.	.	.	.	.
.	.	.	.	.	.	.	.	24ee\JJ	.	.	.	.	.	.	.	.	.	.	.	.	.	.	.	.	.	.	.	.	.	.	.	.	24ee\JJ	.	24ee\JJ	.	.	.
8E\L	.	.	.	8g#L 8c#\	.	8eL 8c#/	.	8g#/L	.	.	.	.	.	.	8E\L	.	8G#/L	.	8c#\L	.	.	.	8E\L	.	8cc#L 8g#\	4ryy	.	8gg#/L	8ee\L	.	.	.	8g#/L	.	8g#/L	.	.	.
8F#\J	.	.	.	8f#J 8c#\	.	8eJ 8c#/	.	8a#X/J	.	.	.	.	.	.	8F#\J	.	8c#/J	.	8e\J	.	.	.	8F#\J	.	8cc#J 8a#X\	.	.	8ff#/J	8ff#\J	.	.	.	8a#X/J	.	8a#X/J	.	.	.
*	*	*	*	*	*	*	*	*	*	*	*	*	*	*	*	*	*	*	*	*	*	*	*	*	*	*	*	*v	*v	*	*	*	*	*	*	*	*	*
=8	=8	=8	=8	=8	=8	=8	=8	=8	=8	=8	=8	=8	=8	=8	=8	=8	=8	=8	=8	=8	=8	=8	=8	=8	=8	=8	=8	=8	=8	=8	=8	=8	=8	=8	=8	=8	=8
*	*	*	*	*	*	*	*	*	*	*	*	*	*	*	*	*	*	*	*	*	*	*	*^	*	*	*	*	*	*	*	*	*	*	*	*	*	*
16BB/	.	4.ryy	.	16f# 16B\	.	16d#/	.	(32cc#\KLL	.	8r	8ryy	.	8r	.	16F# 16BB/	.	16B\	.	16d#\	.	4.r	.	16B/	16BB/	.	16b/	16b\	.	16ff# 16b/	.	8r	.	32cc#\KLL	.	(32cc#\KLL	.	4.r	.
.	.	.	.	.	.	.	.	16b\JJ)	.	.	.	.	.	.	.	.	.	.	.	.	.	.	.	.	.	.	.	.	.	.	.	.	16b\JJ	.	16b\JJ)	.	.	.
16r	.	.	.	16r	.	16r	.	.	.	.	.	.	.	.	16r	.	16r	.	16r	.	.	.	16r	16rEEyy	.	16r	16rAyy	.	16r	.	.	.	.	.	.	.	.	.
.	.	.	.	.	.	.	.	32r	.	.	.	.	.	.	.	.	.	.	.	.	.	.	.	.	.	.	.	.	.	.	.	.	32r	.	32r	.	.	.
8BB^/	.	.	.	8f# 8B\	.	8dd# 8f# 8B/	.	8bb 8b\	.	8Ree/	8Ra\	.	8BB/	.	8F# 8BB/	.	8B\	.	8d#\	.	.	.	4B\	8BB\	.	8b/	8b\	.	8ff#^ 8b/	.	8ff# 8b^\	.	8bb 8dd#^\	.	8bb\	.	.	.
8r	.	.	.	8r	.	8r	.	8r	.	8r	8ryy	.	8r	.	8r	.	8r	.	8r	.	.	.	.	8r	.	8r	8rAyy	.	8r	.	8r	.	8r	.	8r	.	.	.
*	*	*	*	*	*	*	*	*	*	*	*	*	*	*	*	*	*	*	*	*	*	*	*	*	*	*v	*v	*	*	*	*	*	*	*	*	*	*	*
=9!|:	=9!|:	=9!|:	=9!|:	=9!|:	=9!|:	=9!|:	=9!|:	=9!|:	=9!|:	=9!|:	=9!|:	=9!|:	=9!|:	=9!|:	=9!|:	=9!|:	=9!|:	=9!|:	=9!|:	=9!|:	=9!|:	=9!|:	=9!|:	=9!|:	=9!|:	=9!|:	=9!|:	=9!|:	=9!|:	=9!|:	=9!|:	=9!|:	=9!|:	=9!|:	=9!|:	=9!|:	=9!|:
*>B	*>B	*>B	*>B	*>B	*>B	*>B	*>B	*>B	*>B	*>B	*>B	*>B	*>B	*>B	*>B	*	*>B	*	*>B	*>B	*>B	*>B	*>B	*>B	*>B	*>B	*>B	*>B	*>B	*>B	*>B	*>B	*>B	*>B	*>B	*>B	*>B
*	*	*	*	*	*	*	*	*	*	*	*	*	*	*	*	*	*	*	*	*	*	*	*	*	*	*	*	*	*	*	*	*^	*	*	*	*	*
!	!	!	!LO:DY:rj	!	!	!	!LO:DY:a	!	!	!	!	!	!	!	!	!	!	!	!	!	!	!	!	!	!LO:DY:a:rj	!	!	!	!	!	!	!	!	!	!	!	!	!
8BB/	mf	4.B^<TT\	mf	8r	.	8r	mf	4.r	.	8rc	4.rGG	.	4.r	.	4.r	.	4.r	.	4.r	.	16.d#LL 16.B'>/	.	4.BTT/	8BB\	p	4.r	.	8r	.	16.d#LL 16.B/	.	16.b/LL	4.r	.	4.r	.	16.dd#'\LL	.
.	.	.	.	.	.	.	.	.	.	.	.	.	.	.	.	.	.	.	.	.	32eK 32c#'>/	.	.	.	.	.	.	.	.	32eK 32c#/	.	32cc#/K	.	.	.	.	32ee'\K	.
*	*	*	*	*	*	*	*	*	*	*Xtremolo	*	*	*	*	*	*	*	*	*	*	*	*	*	*	*	*	*	*	*	*	*	*	*	*	*	*	*	*
!	!	!	!	!	!	!	!	!	!	!	!	!	!	!	!	!	!	!	!	!	!	!	!	!	!	!	!	!	!LO:DY:rj	!	!	!	!	!	!	!	!	!
8r	.	.	.	8f#L 8B\	.	8aL 8B/	.	.	.	8Ree/L	.	.	.	.	.	.	.	.	.	.	16f# 16d#'>/	.	.	8rEE	.	.	.	8ff#L 8b/	p	16f# 16d#/	.	16dd#/	.	.	.	.	16ff#'\	.
.	.	.	.	.	.	.	.	.	.	.	.	.	.	.	.	.	.	.	.	.	16g# 16e'>/	.	.	.	.	.	.	.	.	16g# 16e/	.	16ee/	.	.	.	.	16gg#'\	.
8r	.	.	.	8f#J 8B\	.	8aJ 8B/	.	.	.	8Ree/J	.	.	.	.	.	.	.	.	.	.	16a 16f#'>/	.	.	8rEE	.	.	.	8ff#J 8b/	.	16a 16f#/	.	16ff#/	.	.	.	.	16aa'\	.
.	.	.	.	.	.	.	.	.	.	.	.	.	.	.	.	.	.	.	.	.	16cc#JJ 16a'>/	.	.	.	.	.	.	.	.	16cc#JJ 16a/	.	16aa/JJ	.	.	.	.	16ccc#'\JJ	.
=10	=10	=10	=10	=10	=10	=10	=10	=10	=10	=10	=10	=10	=10	=10	=10	=10	=10	=10	=10	=10	=10	=10	=10	=10	=10	=10	=10	=10	=10	=10	=10	=10	=10	=10	=10	=10	=10	=10
*	*	*	*	*	*	*	*	*	*	*	*	*	*	*	*	*	*	*	*	*	*^	*	*	*	*	*^	*	*	*	*^	*	*	*	*	*	*	*	*
!	!	!	!	!	!	!	!	!	!	!	!	!	!	!	!	!	!	!	!	!	!	!	!	!	!	!	!	!	!LO:DY:rj:t=f.	!	!	!	!	!	!	!	!	!	!	!	!
8E\L	.	4.B^<TT\	.	8r	.	8r	.	8r	.	8rc	8rEE	.	8r	.	8r	.	8r	.	8r	.	(16cc#LL 16a/	8rc	.	4.BTT/	8E\L	.	8rff	8rAyy	f	8r	.	(<16cc#LL 16a/	8r	.	(16aa/LL	8rc	.	4.r	.	(16ccc#\LL	.
.	.	.	.	.	.	.	.	.	.	.	.	.	.	.	.	.	.	.	.	.	16bJJ 16g#/)	.	.	.	.	.	.	.	.	.	.	16bJJ 16g#/)	.	.	16gg#/JJ	.	.	.	.	16bb\JJ)	.
*	*	*	*	*	*	*	*	*	*	*tremolo	*	*	*	*	*	*	*	*	*	*	*	*	*	*	*	*	*	*	*	*	*	*	*	*	*	*	*	*	*	*	*
!	!	!	!	!	!LO:DY:a	!	!LO:DY:a	!	!	!	!	!	!	!	!	!	!	!	!	!	!	!	!	!	!	!	!	!LO:TX:a:t=P:problem=przekreślony obiegnik	!	!	!	!	!	!	!	!	!	!	!	!	!
8E\J	sf	.	.	8eL 8B\	sf	8g#L 8B/	sf	8ee 8b 8e/	.	32Ree/LLL	8Ra\	.	8E\	.	8E\	.	8G#/	sf	8e\	sf	8.ee/L	8.g#\L	.	.	8E\J	.	8e/	8es$SS>\	.	8gg#L 8ee\	sf	8.ee^/L	8.g#\L	.	8.gg#/L)	8ee\	.	.	.	8.eee^<\L	.
.	.	.	.	.	.	.	.	.	.	32Ree/	.	.	.	.	.	.	.	.	.	.	.	.	.	.	.	.	.	.	.	.	.	.	.	.	.	.	.	.	.	.	.
.	.	.	.	.	.	.	.	.	.	32Ree/	.	.	.	.	.	.	.	.	.	.	.	.	.	.	.	.	.	.	.	.	.	.	.	.	.	.	.	.	.	.	.
.	.	.	.	.	.	.	.	.	.	32Ree/JJ	.	.	.	.	.	.	.	.	.	.	.	.	.	.	.	.	.	.	.	.	.	.	.	.	.	.	.	.	.	.	.
8r	.	.	.	8eJ 8B\	.	8g#J 8B/	.	8r	.	8Ree/J	8rEE	.	8r	.	8r	.	8r	.	8r	.	.	.	.	.	8rEE	.	8r	8ryy	.	8gg#J 8ee\	.	.	.	.	.	8rc	.	.	.	.	.
*	*	*	*	*	*	*	*	*	*	*Xtremolo	*	*	*	*	*	*	*	*	*	*	*	*	*	*	*	*	*	*	*	*	*	*	*	*	*	*	*	*	*	*	*
.	.	.	.	.	.	.	.	.	.	.	.	.	.	.	.	.	.	.	.	.	16g#/Jk	16e\Jk	.	.	.	.	.	.	.	.	.	16g#/Jk	16e\Jk	.	16ee/Jk	.	.	.	.	16gg#\Jk	.
*	*	*	*	*	*	*	*	*	*	*	*	*	*	*	*	*	*	*	*	*	*	*	*	*	*	*	*	*	*	*	*	*v	*v	*	*	*	*	*	*	*	*
!!LO:PB:g=original
=11	=11	=11	=11	=11	=11	=11	=11	=11	=11	=11	=11	=11	=11	=11	=11	=11	=11	=11	=11	=11	=11	=11	=11	=11	=11	=11	=11	=11	=11	=11	=11	=11	=11	=11	=11	=11	=11	=11	=11	=11
8BB/	.	4.B^<TT\	.	8r	.	8r	.	8r	.	8rc	8rEE	.	8r	.	8r	.	8r	.	8r	.	(16bLL 16g#/	8rc	.	4.BTT/	8BB\	.	8r	8ryy	.	8r	.	(>16bLL 16g#/	.	(16gg#/LL	8r	.	4.r	.	(16bb\LL	.
.	.	.	.	.	.	.	.	.	.	.	.	.	.	.	.	.	.	.	.	.	16aJJ 16f#/)	.	.	.	.	.	.	.	.	.	.	16aJJ 16f#/)	.	16ff#/JJ)	.	.	.	.	16aa\JJ)	.
*	*	*	*	*	*	*	*	*	*	*tremolo	*	*	*	*	*	*	*	*	*	*	*	*	*	*	*	*	*	*	*	*	*	*	*	*	*	*	*	*	*	*
8r	.	.	.	8d#\L	.	8f#L 8B/	.	8dd# 8f#/	sf	32Ree/LLL	8Ra\	.	8BB/	.	8B 8BB\	.	8A/	sf	8f#\	sf	8.cc#L 8.a/	8d#\	.	.	8r	.	8b/	8a\	.	8ff#L 8b/	sf	8.cc#L 8.a/	.	8.aaL 8.dd#/	8b\	.	.	.	8.ccc#\L	.
.	.	.	.	.	.	.	.	.	.	32Ree/	.	.	.	.	.	.	.	.	.	.	.	.	.	.	.	.	.	.	.	.	.	.	.	.	.	.	.	.	.	.
.	.	.	.	.	.	.	.	.	.	32Ree/	.	.	.	.	.	.	.	.	.	.	.	.	.	.	.	.	.	.	.	.	.	.	.	.	.	.	.	.	.	.
.	.	.	.	.	.	.	.	.	.	32Ree/JJ	.	.	.	.	.	.	.	.	.	.	.	.	.	.	.	.	.	.	.	.	.	.	.	.	.	.	.	.	.	.
*	*	*	*	*	*	*	*	*	*	*Xtremolo	*	*	*	*	*	*	*	*	*	*	*	*	*	*	*	*	*	*	*	*	*	*	*	*	*	*	*	*	*	*
8r	.	.	.	8f#J 8B\	.	8aJ 8B/	.	8r	.	8Ree/J	8rEE	.	8r	.	8r	.	8r	.	8r	.	.	8rc	.	.	8r	.	8r	8ryy	.	8ff#J 8b/	.	.	.	.	8r	.	.	.	.	.
.	.	.	.	.	.	.	.	.	.	.	.	.	.	.	.	.	.	.	.	.	16d#Jk 16B/	.	.	.	.	.	.	.	.	.	.	16d#Jk 16B/	.	16b/Jk	.	.	.	.	16dd#\Jk	.
.	.	(16qqA#X/LL	.	.	.	.	.	.	f	.	.	.	.	.	.	.	.	.	.	.	.	.	.	16qqA#X/LL	.	.	.	.	.	.	.	.	.	.	.	.	.	.	.	.
.	.	16qqB/JJ)	.	.	.	.	.	.	.	.	.	.	.	.	.	.	.	.	.	.	.	.	.	16qqB/JJ	.	.	.	.	.	.	.	.	.	.	.	.	.	.	.	.
*	*	*	*	*	*	*	*	*	*	*	*	*	*	*	*	*	*	*	*	*	*	*	*	*	*	*	*v	*v	*	*	*	*	*	*	*	*	*	*	*	*
=12	=12	=12	=12	=12	=12	=12	=12	=12	=12	=12	=12	=12	=12	=12	=12	=12	=12	=12	=12	=12	=12	=12	=12	=12	=12	=12	=12	=12	=12	=12	=12	=12	=12	=12	=12	=12	=12	=12	=12
*	*	*	*	*	*	*	*	*	*	*	*	*	*	*	*	*	*	*	*	*	*	*	*	*	*	*	*	*	*^	*	*	*	*	*	*	*	*	*	*
!	!LO:DY:rj	!	!	!	!	!	!LO:DY:rj	!	!	!	!	!	!	!LO:DY:rj	!	!	!	!LO:DY:rj	!	!	!	!	!LO:DY:rj	!	!	!LO:DY:rj	!	!	!	!	!LO:DY:rj	!	!	!	!	!LO:DY:a:rj	!	!LO:DY:rj	!	!
16.E/LL	f	16.e\LL	.	16.e\LL	.	16.g#LL 16.B/|>	f	16.eeLL 16.g#\|	.	16.Ree/LL	16Ra\	.	16.E/LL	f	16.BLL 16.E\	.	16.G#/LL	f	16.e\LL	.	16.e/LL	16.G#\LL	f	16.e/LL	16.E\LL	f	16.bLL 16.e/|>	.	16.eeLL 16.g#/	8reyy	f	16.eLL 16.G#/	.	16.ee/LL	16.ee\LL	f	16.ee\LL	f	16.ee'\LL	.
.	.	.	.	.	.	.	.	.	.	.	16rEE	.	.	.	.	.	.	.	.	.	.	.	.	.	.	.	.	.	.	.	.	.	.	.	.	.	.	.	.	.
32BB/JJk	.	32B\JJk	.	32d#X\JJk	.	32f#JJk 32B/|>	.	32ff#JJk 32b\|	.	32Ree/JJk	.	.	32BB/JJk	.	32BJJk 32BB\	.	32F#/JJk	.	32d#\JJk	.	32f#/JJk	32B\JJk	.	32d#X/JJk	32BB\JJk	.	32b/JJk|>	.	32ff#JJk 32b/	.	.	32f#JJk 32B/	.	32ff#/JJk	32dd#\JJk	.	32ff#\JJk	.	32ff#'\JJk	.
4EE/	.	4E\	.	4e\	.	4g# 4B/|>	.	4gg# 4ee\|	.	4Ree/	4Ra\	.	4E/	.	4B 4E\	.	4G#/	.	4e\	.	4g#/	4e\	.	4e/	4E\	.	4b 4f#/	.	4gg#/	4ee\	.	4g# 4e/	.	4gg#/	4ee\	.	4gg#\	.	4gg#'\	.
*	*	*	*	*	*	*	*	*	*	*	*	*	*	*	*	*	*	*	*	*	*	*	*	*	*	*	*	*	*v	*v	*	*	*	*v	*v	*	*	*	*	*
=13	=13	=13	=13	=13	=13	=13	=13	=13	=13	=13	=13	=13	=13	=13	=13	=13	=13	=13	=13	=13	=13	=13	=13	=13	=13	=13	=13	=13	=13	=13	=13	=13	=13	=13	=13	=13	=13	=13
*	*	*	*	*	*	*	*	*	*	*	*	*	*	*	*	*	*	*	*	*	*	*	*	*	*	*	*	*	*	*	*^	*	*	*	*	*	*	*
!	!	!	!	!	!	!	!	!	!	!	!	!	!	!	!	!	!	!	!	!	!	!	!	!	!	!LO:DY:rj	!	!	!	!	!	!	!LO:HP:a	!	!	!	!	!	!LO:HP:a
8AA/	mf	4.c#^<TT\	.	8r	.	8r	.	4.r	.	8rc	4.rGG	.	4.r	.	4.r	.	4.r	.	4.r	.	16.f#/LL	4.rc	.	4.c#^<TT/	8AA\	p	4.r	.	8r	.	16.f#/LL	4.rA	<	4.r	.	16.ff#\LL	.	16.ff#'\LL	<
.	.	.	.	.	.	.	.	.	.	.	.	.	.	.	.	.	.	.	.	.	32g#/K	.	<	.	.	.	.	.	.	.	32g#/K	.	.	.	.	32gg#\K	<	32gg#'\K	.
!	!	!	!	!	!	!	!	!	!	!	!	!	!	!	!	!	!	!	!	!	!	!	!	!	!	!	!	!	!	!LO:DY:rj	!	!	!	!	!	!	!	!	!
8r	.	.	.	8A/L	.	8f#L 8c#/	.	.	.	8Ree/L	.	.	.	.	.	.	.	.	.	.	16a/	.	.	.	8rEE	.	.	.	8aaL 8ff#\	p	16a/	.	.	.	.	16aa\	.	16aa'\	.
.	.	.	.	.	.	.	.	.	.	.	.	.	.	.	.	.	.	.	.	.	16b/	.	.	.	.	.	.	.	.	.	16b/	.	.	.	.	16bb\	.	16bb'\	.
8r	.	.	.	8A/J	.	8f#J 8c#/	.	.	.	8Ree/J	.	.	.	.	.	.	.	.	.	.	16cc#/	.	.	.	8rEE	.	.	.	8aaJ 8ff#\	.	16cc#/	.	.	.	.	16ccc#\	.	16ccc#'\	.
.	.	.	.	.	.	.	.	.	.	.	.	.	.	.	.	.	.	.	.	.	16dd#/JJ	.	[	.	.	.	.	.	.	.	16dd#/JJ	.	[	.	.	16ddd#\JJ	[[	16ddd#'\JJ	[[
*	*	*	*	*	*	*	*	*	*	*	*	*	*	*	*	*	*	*	*	*	*	*	*	*	*	*	*	*	*	*	*v	*v	*	*	*	*	*	*	*
=14	=14	=14	=14	=14	=14	=14	=14	=14	=14	=14	=14	=14	=14	=14	=14	=14	=14	=14	=14	=14	=14	=14	=14	=14	=14	=14	=14	=14	=14	=14	=14	=14	=14	=14	=14	=14	=14	=14
*	*	*	*	*rep	*	*rep	*	*	*	*	*	*	*	*	*	*	*	*	*	*	*	*	*	*	*	*	*	*	*rep	*	*	*	*	*	*	*	*	*
!	!	!	!	!	!	!	!	!	!	!	!	!	!	!	!	!	!	!	!	!	!	!	!	!	!	!	!	!	!	!	!	!	!	!	!	!	!	!LO:HP:a
8AA/L	.	4.c#^<TT\	.	8r	.	8r	.	8r	.	8rc	8rEE	.	4.r	.	8r	.	8r	.	8r	.	(<16ff#LL 16dd#/	8rc	.	4.c#^<TT/	8AA\	.	8r	.	8r	.	16ff#LL 16dd#/	>	8r	.	(16fff#\LL	>	(16fff#\LL	>
.	.	.	.	.	.	.	.	.	.	.	.	.	.	.	.	.	.	.	.	.	16eeJJ 16cc#/)	.	.	.	.	.	.	.	.	.	16eeJJ 16cc#/	]]	.	.	16eee\JJ)	.	16eee\JJ)	.
*	*	*	*	*	*	*	*	*	*	*tremolo	*	*	*	*	*	*	*	*	*	*	*	*	*	*	*	*	*	*	*	*	*	*	*	*	*	*	*	*
8AA/J	sf	.	.	8A/L	.	8f#L 8c#/	sf	8ff# 8cc# 8f#\	.	32Ree/LLL	8Ra\	.	.	.	8A 8AA\	sf	8c#\	sf	8f#\	sf	8.cc#L 8.a/	8f#\	.	.	8rEE	.	8cc# 8a\	.	8aaL 8ff#\	.	8.cc#L 8.a/	.	8ff# 8cc#\	.	8.ccc#\L	.	8.ccc#'\L	.
.	.	.	.	.	.	.	.	.	.	32Ree/	.	.	.	.	.	.	.	.	.	.	.	.	.	.	.	.	.	.	.	.	.	.	.	.	.	.	.	.
.	.	.	.	.	.	.	.	.	.	32Ree/	.	.	.	.	.	.	.	.	.	.	.	.	.	.	.	.	.	.	.	.	.	.	.	.	.	.	.	.
.	.	.	.	.	.	.	.	.	.	32Ree/JJ	.	.	.	.	.	.	.	.	.	.	.	.	.	.	.	.	.	.	.	.	.	.	.	.	.	.	.	.
*	*	*	*	*	*	*	*	*	*	*Xtremolo	*	*	*	*	*	*	*	*	*	*	*	*	*	*	*	*	*	*	*	*	*	*	*	*	*	*	*	*
8r	.	.	.	8A/J	.	8f#J 8c#/	.	8r	.	8Ree/J	8rEE	.	.	.	8r	.	8r	.	8r	.	.	8rc	.	.	8rEE	.	8r	.	8aaJ 8ff#\	.	.	.	8r	.	.	.	.	.
.	.	.	.	.	.	.	.	.	.	.	.	.	.	.	.	.	.	.	.	.	16aJk 16f#/	.	.	.	.	.	.	.	.	.	16aJk 16f#/	.	.	.	16aa\Jk	]	16aa\Jk|	]
.	.	(16qqB#X/LL	.	.	.	.	.	.	f	.	.	.	.	.	.	.	.	.	.	.	.	.	.	16qqB#X/LL	.	.	.	.	.	.	.	.	.	.	.	.	.	.
.	.	16qqc#/JJ)	.	.	.	.	.	.	.	.	.	.	.	.	.	.	.	.	.	.	.	.	.	16qqc#/JJ	.	.	.	.	.	.	.	.	.	.	.	.	.	.
*	*	*	*	*Xrep	*	*Xrep	*	*	*	*	*	*	*	*	*	*	*	*	*	*	*	*	*	*	*	*	*	*	*Xrep	*	*	*	*	*	*	*	*	*
*	*	*	*	*	*	*	*	*	*	*	*	*	*	*	*	*	*	*	*	*	*v	*v	*	*	*	*	*	*	*	*	*	*	*	*	*	*	*	*
=15	=15	=15	=15	=15	=15	=15	=15	=15	=15	=15	=15	=15	=15	=15	=15	=15	=15	=15	=15	=15	=15	=15	=15	=15	=15	=15	=15	=15	=15	=15	=15	=15	=15	=15	=15	=15	=15
*	*	*	*	*	*	*	*	*	*	*	*	*	*	*	*	*	*	*	*	*	*	*	*	*	*	*^	*	*^	*	*^	*	*	*	*	*	*	*
*	*	*Xtuplet	*	*	*	*	*	*	*	*tremolo	*	*	*	*	*	*	*	*	*	*	*Xtuplet	*	*Xtuplet	*	*	*	*	*	*Xtuplet	*	*	*Xtuplet	*Xtuplet	*	*	*	*Xtuplet	*	*Xtuplet	*
!	!LO:DY:rj	!	!LO:DY:rj	!	!	!	!LO:DY:a:rj	!LO:TUP:a	!	!	!	!LO:DY:rj	!	!LO:DY:rj	!	!	!	!LO:DY:rj	!	!LO:DY:rj	!	!	!	!	!LO:DY:rj	!	!	!	!	!	!LO:DY:a:rj	!	!	!	!	!LO:DY:rj	!	!LO:DY:a:rj	!	!
16BB/	f	24B\LL	f	16e 16B\	.	16g# 16B/	f	24g#'\LL	.	32Ree/LLL	8Ra\L	f	16BB/	f	16B 16BB\	.	16e\	f	16g#\	f	24b/LL	.	24BLL 24BB'\	8rEEyy	f	16b/	16g#\	.	24bbLL 24b'\	8ryy	f	24g#/LL	24e\LL	.	24bLL 24g#/	f	24gg#\LL	f	24gg#'\LL	.
.	.	.	.	.	.	.	.	.	.	32Ree/	.	.	.	.	.	.	.	.	.	.	.	.	.	.	.	.	.	.	.	.	.	.	.	.	.	.	.	.	.	.
.	.	24G#\	.	.	.	.	.	24b'\	.	.	.	.	.	.	.	.	.	.	.	.	24g#/	.	24G#'\	.	.	.	.	.	24gg#'\	.	.	24b/	24g#\	.	24ee 24b/	.	24bb\	.	24bb'\	.
16r	.	.	.	16r	.	16r	.	.	.	32Ree/	.	.	16r	.	16r	.	16r	.	16r	.	.	.	.	.	.	16r	16rAyy	.	.	.	.	.	.	.	.	.	.	.	.	.
.	.	24E\JJ	.	.	.	.	.	24ee'\JJ	.	.	.	.	.	.	.	.	.	.	.	.	24e/JJ	.	24E'\JJ	.	.	.	.	.	24ee'\JJ	.	.	24ee/JJ	24b\JJ	.	24gg#JJ 24ee/	.	24eee\JJ	.	24eee'\JJ	.
.	.	.	.	.	.	.	.	.	.	32Ree/JJ	.	.	.	.	.	.	.	.	.	.	.	.	.	.	.	.	.	.	.	.	.	.	.	.	.	.	.	.	.	.
*	*	*	*	*	*	*	*	*	*	*Xtremolo	*	*	*	*	*	*	*	*	*	*	*	*	*	*	*	*	*	*	*	*	*	*	*	*	*	*	*	*	*	*
16BB/	.	16BB/	.	16e 16B\	.	16g# 16B/	.	16gg#'\	.	8Ree/	8r	.	16BB/	.	16B 16BB\	.	16e\	.	16g#\	.	16B/	.	16BB/	16BB\	.	16b/	16g#\	.	16b/	16b\	.	16gg#/	16ee\	.	16bb 16gg#\	.	16gg#'\	.	16ggg#'\	.
16r	.	16r	.	16r	.	16r	.	16r	.	.	.	.	16r	.	16r	.	16r	.	16r	.	16r	.	16r	8.rEEyy	.	16r	16rAyy	.	16r	16ryy	.	16rb	16re	.	16r	.	16r	.	16r	.
8BB/	.	8BB/	.	8d#\	.	(>8a [8B/	.	(8ff# 8b'\	.	8Ree/J	8Ra\J	.	8BBt/	.	8B 8BB^\	.	(8d#^\	.	(8a\	.	8b 8d#/	.	8B 8BB\	.	.	8b/	8a\	.	8ff# 8b/	8ryy	.	(8ff#/	8dd#\	.	8aa 8ff#^\	.	8bb^\	.	(8fff#'\	.
*	*	*	*	*	*	*	*	*	*	*	*	*	*	*	*	*	*	*	*	*	*	*	*v	*v	*	*	*	*	*v	*v	*	*	*	*	*	*	*	*	*	*
*	*	*	*	*	*	*	*	*	*	*	*	*	*	*	*	*	*	*	*	*	*	*	*	*	*v	*v	*	*	*	*	*	*	*	*	*	*	*	*
=16	=16	=16	=16	=16	=16	=16	=16	=16	=16	=16	=16	=16	=16	=16	=16	=16	=16	=16	=16	=16	=16	=16	=16	=16	=16	=16	=16	=16	=16	=16	=16	=16	=16	=16	=16	=16	=16
16E\	.	16E\	.	16e\	.	16g#) 16B/]	.	16ee\)	.	16Ree/	16Ra\	.	16E\	.	16B 16E\	.	16e\)	.	16g#\)	.	16e/	.	16e 16E\	.	16b 16e/	.	16ee 16g#/	.	16ee/)	16ee\	.	16gg# 16ee\	.	16ee\	.	16eee\)	.
16r	.	16r	.	16r	.	16r	.	16r	.	16rc	16rBB	.	16r	.	16r	.	16r	.	16r	.	16r	.	16r	.	16r	.	16r	.	16rff	16rAyy	.	16r	.	16r	.	16r	.
8EE/	.	8EE/	.	8b 8e\	.	8gg# 8b\	.	8ddd#\	.	8Ree/	8Ra\	.	8E\	.	8B 8E^\	.	8e^\	.	8g#\	.	8e/	.	8E 8EE/	.	8b 8e/	.	8ee 8g#/	.	8ee/	4rAyy	.	8gg# 8ee\	.	8eee\	.	8eee\	.
!LO:TX:b:t=P:problem=dopisane ołówkiem "Fine"	!	!	!	!	!	!	!	!	!	!	!	!	!	!	!	!	!	!	!	!	!	!	!	!	!	!	!	!	!	!	!	!	!	!	!	!LO:TX:a:t=P:problem=dopisana ołówkiem fermata na kresce taktowej	!
8r	.	8r	.	8r	.	8r	.	8r	.	8r	8rEEyy	.	8r	.	8r	.	8r	.	8r	.	8r	.	8r	.	8r	.	8r	.	8rff	.	.	8r	.	8r	.	8r	.
*	*	*	*	*	*	*	*	*	*	*v	*v	*	*	*	*	*	*	*	*	*	*	*	*	*	*	*	*	*	*v	*v	*	*	*	*	*	*	*
!!LO:PB:g=original
=17:|!	=17:|!	=17:|!	=17:|!	=17:|!	=17:|!	=17:|!	=17:|!	=17:|!	=17:|!	=17:|!	=17:|!	=17:|!	=17:|!	=17:|!	=17:|!	=17:|!	=17:|!	=17:|!	=17:|!	=17:|!	=17:|!	=17:|!	=17:|!	=17:|!	=17:|!	=17:|!	=17:|!	=17:|!	=17:|!	=17:|!	=17:|!	=17:|!	=17:|!	=17:|!	=17:|!
*>C	*>C	*>C	*>C	*>C	*>C	*>C	*>C	*>C	*>C	*>C	*>C	*>C	*>C	*>C	*	*>C	*	*>C	*>C	*>C	*>C	*>C	*>C	*>C	*>C	*>C	*>C	*>C	*>C	*>C	*>C	*>C	*>C	*>C	*>C
*k[dnf#c#g#]	*	*k[dnf#c#g#]	*	*k[dnf#c#g#]	*	*k[dnf#c#g#]	*	*k[dnf#c#g#]	*	*k[]	*	*k[]	*	*k[dnf#c#g#]	*	*k[dnf#c#g#]	*	*k[dnf#c#g#]	*	*k[dnf#c#g#]	*	*k[dnf#c#g#]	*	*k[f#c#g#]	*	*k[f#c#g#]	*	*k[f#c#g#]	*	*k[dnf#c#g#]	*	*k[dnf#c#g#]	*	*k[dnf#c#g#]	*
*A:	*	*A:	*	*A:	*	*A:	*	*A:	*	*A:	*	*A:	*	*A:	*	*A:	*	*A:	*	*A:	*	*A:	*	*A:	*	*A:	*	*A:	*	*A:	*	*A:	*	*A:	*
*	*	*	*	*	*	*	*	*	*	*^	*	*	*	*	*	*	*	*	*	*	*	*	*	*	*	*	*	*	*	*	*	*	*	*	*
!LO:TX:b:t=pizz	!	!	!	!	!	!	!	!	!	!	!	!	!	!	!	!	!	!	!	!	!	!	!	!	!	!	!LO:TX:t=P:problem=przy kluczu brak bemola	!	!	!	!	!	!	!	!LO:TX:a:t=P:problem=dopisane ołówkiem "Trio"	!
!	!	!	!	!	!	!	!LO:DY:rj	!	!	!	!	!	!	!	!	!	!	!	!	!	!	!	!	!	!	!	!	!	!	!	!	!	!	!	!LO:TX:a:t=1:problem=odnośnik zapisany ołówkiem	!
8AA/	.	16.c#LL 16.E 16.AA\	.	16.A/LL	.	16.aLL 16.e 16.c#/	mf	16.cc#LL 16.e 16.A/	.	16.Ree/LL	4.rEE	.	4.r	.	4.r	.	4.r	.	4.r	.	16.aLL 16.c#/	.	16.c#LL 16.A\	.	16.eLL 16.A/	.	4.ryy	.	4.r	.	16.cc#LL 16.a\	.	4.r	.	4.r	.
.	.	32c#JJk 32E\	.	32A/JJk	.	32a/JJk	.	32cc#JJk 32e/	.	32Ree/JJk	.	.	.	.	.	.	.	.	.	.	32aJJk 32c#/	.	32c#JJk 32A\	.	32eJJk 32A/	.	.	.	.	.	32cc#JJk 32a\	.	.	.	.	.
8r	.	8c#L 8E\	.	8A/L	.	8a/L	.	8cc#L 8e/	.	8Ree/L	.	.	.	.	.	.	.	.	.	.	8aL 8c#/	.	8c#L 8A\	.	8eL 8A/	.	.	.	.	.	8cc#L 8a\	.	.	.	.	.
8r	.	8c#J 8E\	.	8A/J	.	8a/J	.	8cc#J 8e/	.	8Ree/J	.	.	.	.	.	.	.	.	.	.	8aJ 8c#/	.	8c#J 8A\	.	8eJ 8A/	.	.	.	.	.	8cc#J 8a\	.	.	.	.	.
=18	=18	=18	=18	=18	=18	=18	=18	=18	=18	=18	=18	=18	=18	=18	=18	=18	=18	=18	=18	=18	=18	=18	=18	=18	=18	=18	=18	=18	=18	=18	=18	=18	=18	=18	=18	=18
*	*	*	*	*	*	*	*	*	*	*tremolo	*	*	*	*	*	*	*	*	*	*	*	*	*	*	*	*	*	*	*	*	*	*	*	*	*	*
!	!	!	!	!	!	!	!	!	!	!	!	!	!	!	!	!	!	!	!	!	!	!	!	!	!	!	!	!	!	!	!	!	!	!	!LO:TX:a:t=2:problem=odnośnik zapisany ołówkiem	!
8AA/	.	4e 4E\	.	4c#/	.	4cc#\	.	4ee 4e/	.	8Ree/L	4.rEE	.	4.r	.	4.r	.	4.r	.	4.r	.	4cc# 4e/	.	4c# 4A\	.	4e 4A/	.	4.ryy	.	4.r	.	4ee 4cc#\	.	4.r	.	4.r	.
!LO:TX:b:t=l'arco	!	!	!	!	!	!	!	!	!	!	!	!	!	!	!	!	!	!	!	!	!	!	!	!	!	!	!	!	!	!	!	!	!	!	!	!
8r	.	.	.	.	.	.	.	.	.	8Ree/	.	.	.	.	.	.	.	.	.	.	.	.	.	.	.	.	.	.	.	.	.	.	.	.	.	.
8r	.	8c# 8E\	.	8A/	.	8a\	.	8cc# 8e/	.	8Ree/J	.	.	.	.	.	.	.	.	.	.	8a 8c#/	.	8c# 8A\	.	8e 8A/	.	.	.	.	.	8cc# 8a\	.	.	.	.	.
=19	=19	=19	=19	=19	=19	=19	=19	=19	=19	=19	=19	=19	=19	=19	=19	=19	=19	=19	=19	=19	=19	=19	=19	=19	=19	=19	=19	=19	=19	=19	=19	=19	=19	=19	=19	=19
*	*	*	*	*Xtuplet	*	*Xtuplet	*	*Xtuplet	*	*	*	*	*	*	*	*	*	*	*	*	*	*	*	*	*tremolo	*	*	*	*	*	*	*	*	*	*	*
!	!	!	!	!	!	!	!	!	!	!	!	!LO:DY:rj	!	!	!	!LO:DY:rj	!	!LO:DY:a:rj	!	!LO:DY:rj	!	!	!	!	!	!LO:DY:rj	!	!LO:DY:rj	!	!	!LO:TUP:a:problem=klamra łukowa,kropka zamiast numeru	!LO:DY:a:rj	!	!	!LO:TX:a:t=3:problem=odnośnik zapisany ołówkiem	!
8AA/	f	24d\LL	.	24f#\LL	.	24f#/LL	.	24dd\LL	f	32Ree/LLL	8Ra\	f	8r	.	16A 16AA\	f	16F#/	f	16d\	f	16dd 16f#/	.	16d 16F#\	.	8aL 8A/	f	8ff#\L	f	8a\L	.	24dd\LL	f	4.r	.	4.r	.
.	.	.	.	.	.	.	.	.	<	32Ree/	.	.	.	.	.	.	.	.	.	.	.	.	.	.	.	.	.	.	.	.	.	.	.	.	.	.
.	.	24e\	.	24e\	.	24e/	.	24ee\	.	.	.	.	.	.	.	.	.	.	.	.	.	.	.	.	.	.	.	.	.	.	24ee 24cc#\	.	.	.	.	.
.	.	.	.	.	.	.	.	.	.	32Ree/	.	.	.	.	16r	.	16r	.	16r	.	16r	.	16r	.	.	.	.	.	.	.	.	.	.	.	.	.
.	.	24f#\JJ	.	24d\JJ	.	24d/JJ	.	24ff#\JJ	.	.	.	.	.	.	.	.	.	.	.	.	.	.	.	.	.	.	.	.	.	.	24ff#JJ 24dd\	.	.	.	.	.
.	.	.	.	.	.	.	.	.	.	32Ree/JJ	.	.	.	.	.	.	.	.	.	.	.	.	.	.	.	.	.	.	.	.	.	.	.	.	.	.
*	*	*	*	*	*	*	*	*	*	*Xtremolo	*	*	*	*	*	*	*	*	*	*	*	*	*	*	*	*	*	*	*	*	*	*	*	*	*	*
8r	.	8e\L	.	8c#\	.	8c#/	.	8ee\	.	8Ree/	8rEE	.	8E\	.	8AL 8AA\	.	8E/L	.	8c#\L	.	8cc#L 8e/	.	8c#L 8E\	.	8a 8A/	.	8ee\	.	8a\	.	8eeL 8cc#\	.	.	.	.	.
.	.	.	.	.	.	.	.	.	[ >	.	.	.	.	.	.	.	.	.	.	.	.	.	.	.	.	.	.	.	.	.	.	.	.	.	.	.
8AA/	.	8d#X\J	.	8B#X\	.	8B#X/	.	8dd#X\	]]	8Ree/J	8Ra\	.	8r	.	8AJ 8AA\	.	8D#X/J	.	8B#X\J	.	8b#XJ 8d#X/	.	8B#XJ 8F#\	.	8aJ 8A/	.	8ff#J 8dd\	.	8a\J	.	8dd#XJ 8b#X\	.	.	.	.	.
*	*	*	*	*	*	*	*	*	*	*	*	*	*	*	*	*	*	*	*	*	*	*	*	*	*Xtremolo	*	*	*	*	*	*	*	*	*	*	*
=20	=20	=20	=20	=20	=20	=20	=20	=20	=20	=20	=20	=20	=20	=20	=20	=20	=20	=20	=20	=20	=20	=20	=20	=20	=20	=20	=20	=20	=20	=20	=20	=20	=20	=20	=20	=20
*	*	*	*	*	*	*	*	*	*	*	*	*	*	*	*	*	*	*	*	*	*	*	*	*	*	*	*^	*	*	*	*	*	*	*	*	*
*	*	*	*	*	*	*	*	*	*	*tremolo	*	*	*	*	*	*	*	*	*	*	*	*	*	*	*	*	*	*	*	*	*	*	*	*	*	*	*
!	!	!	!	!	!	!	!	!	!	!	!	!	!	!	!	!	!	!	!	!	!	!	!	!	!	!	!	!	!	!	!	!LO:S:s=2:note:problem=note-level slur	!	!	!	!LO:TX:a:t=4:problem=odnośnik zapisany ołówkiem	!
8AA/	.	(4e\	.	(>4c# 4E/	.	(4c#/	.	(4ee\	.	(32Ree/LLL	8Ra\	.	8E\	.	4A 4AA\	.	4E/	.	4c#\	.	4cc# 4e/	.	4c# 4E\	.	4a 4A/	.	4ee/	4ee\	.	(4a\	.	(4ee (>4cc#\	.	4.r	.	4.r	.
.	.	.	.	.	.	.	.	.	.	32Ree/	.	.	.	.	.	.	.	.	.	.	.	.	.	.	.	.	.	.	.	.	.	.	.	.	.	.	.
.	.	.	.	.	.	.	.	.	.	32Ree/	.	.	.	.	.	.	.	.	.	.	.	.	.	.	.	.	.	.	.	.	.	.	.	.	.	.	.
.	.	.	.	.	.	.	.	.	.	32Ree/JJ	.	.	.	.	.	.	.	.	.	.	.	.	.	.	.	.	.	.	.	.	.	.	.	.	.	.	.
*	*	*	*	*	*	*	*	*	*	*Xtremolo	*	*	*	*	*	*	*	*	*	*	*	*	*	*	*	*	*	*	*	*	*	*	*	*	*	*	*
8r	.	.	.	.	.	.	.	.	.	8Ree/)	8rEE	.	8r	.	.	.	.	.	.	.	.	.	.	.	.	.	.	.	.	.	.	.	.	.	.	.	.
8r	.	8c#\)	.	8A 8E/)	.	8A/)	.	8cc#\)	.	8Ree/J	8rEE	.	8r	.	8A 8AA\	.	8E/	.	8c#\	.	8a 8c#/	.	8c# 8E\	.	8a 8A/	.	8ee/	8ee\	.	8cc# 8a\)	.	8cc#) 8a\)	.	.	.	.	.
*	*	*	*	*	*	*	*	*	*	*	*	*	*	*	*	*	*	*	*	*	*	*	*	*	*	*	*v	*v	*	*	*	*	*	*	*	*	*
=21	=21	=21	=21	=21	=21	=21	=21	=21	=21	=21	=21	=21	=21	=21	=21	=21	=21	=21	=21	=21	=21	=21	=21	=21	=21	=21	=21	=21	=21	=21	=21	=21	=21	=21	=21	=21
*	*	*	*	*	*	*	*	*	*	*	*	*	*	*	*	*	*	*	*	*	*	*	*	*	*	*	*	*	*^	*	*	*	*	*	*	*
!	!	!	!	!	!	!	!	!	!	!	!	!	!	!	!	!	!	!	!	!	!	!	!	!	!	!	!	!	!	!	!	!	!	!	!	!LO:TX:a:t=5:problem=odnośnik zapisany ołówkiem	!
8E\	p	4.ryy	.	8r	.	8r	.	8r	.	8r	8ryy	.	8r	.	8r	.	8r	.	8r	.	8r	.	8r	.	8r	.	8r	.	(32ee/LLL	4ryy	.	8r	.	32eee\LLL	.	(32eee\LLL	.
.	.	.	.	.	.	.	.	.	.	.	.	.	.	.	.	.	.	.	.	.	.	.	.	.	.	.	.	.	32dd/	.	.	.	.	32ddd\	.	32ddd\	.
.	.	.	.	.	.	.	.	.	.	.	.	.	.	.	.	.	.	.	.	.	.	.	.	.	.	.	.	.	32b/	.	.	.	.	32bb\	.	32bb\	.
.	.	.	.	.	.	.	.	.	.	.	.	.	.	.	.	.	.	.	.	.	.	.	.	.	.	.	.	.	32g#/JJJ	.	.	.	.	32gg#\JJJ	.	32gg#\JJJ	.
!	!	!	!	!	!	!	!LO:DY:rj	!	!	!	!	!	!	!	!	!	!	!	!	!	!	!	!	!LO:DY:rj	!	!	!	!	!	!	!	!	!	!	!	!	!
8r	.	.	.	8eL 8d\	.	8g#L 8B/	p	8r	.	8r	8rEEyy	.	8r	.	8r	.	8r	.	8r	.	8r	.	8BL 8G#\	p	8r	.	8eeL 8e/	.	16e/)	.	.	8r	.	16ee\	.	16ee\)	.
.	.	.	.	.	.	.	.	.	.	.	.	.	.	.	.	.	.	.	.	.	.	.	.	.	.	.	.	.	16rff	.	.	.	.	16r	.	16r	.
8E\	sf	.	.	8eJ 8d\	sf	8g#J 8B/	sf	8gg# 8b 8e\	sf	8Ree/	8Ra\	.	8E\	.	8B 8E\	sf	8d\	.	8g#\	sf	8ee 8e/	.	8BJ 8G#\	.	8b 8e\	.	8eeJ 8e/	.	8ee/	8g#\	.	8gg# 8dd\	.	8eee\	.	8eee\	.
!!LO:PB:g=original
=22	=22	=22	=22	=22	=22	=22	=22	=22	=22	=22	=22	=22	=22	=22	=22	=22	=22	=22	=22	=22	=22	=22	=22	=22	=22	=22	=22	=22	=22	=22	=22	=22	=22	=22	=22	=22	=22
!	!	!	!	!	!	!	!	!	!	!	!	!	!	!	!	!	!	!	!	!	!	!	!	!	!	!	!	!	!	!	!	!	!	!LO:TX:a:t=Col Flauto	!	!	!
8AA/	.	4.ryy	.	8r	.	8r	.	8r	.	8r	8ryy	.	8r	.	8r	.	8r	.	8r	.	8r	.	8r	.	8r	.	8r	.	(<32ff#/LLL	8rA	.	8r	.	(y>32ff#\LLLyy	.	(32fff#\LLL	.
.	.	.	.	.	.	.	.	.	.	.	.	.	.	.	.	.	.	.	.	.	.	.	.	.	.	.	.	.	32ee/	.	.	.	.	32ee\yy	.	32eee\	.
.	.	.	.	.	.	.	.	.	.	.	.	.	.	.	.	.	.	.	.	.	.	.	.	.	.	.	.	.	32cc#/	.	.	.	.	32cc#\yy	.	32ccc#\	.
.	.	.	.	.	.	.	.	.	.	.	.	.	.	.	.	.	.	.	.	.	.	.	.	.	.	.	.	.	32a/JJJ	.	.	.	.	32a\JJJyy	.	32aa\JJJ	.
8r	.	.	.	8eL 8A\	.	8aL 8c#/	.	8r	.	8r	8rEEyy	.	8r	.	8r	.	8r	.	8r	.	8r	.	8c#L 8A\	.	8r	.	8eeL 8e/	.	16e/)	8rA	.	8r	.	16e\)yy	.	16ee\)	.
.	.	.	.	.	.	.	.	.	.	.	.	.	.	.	.	.	.	.	.	.	.	.	.	.	.	.	.	.	16rff	.	.	.	.	16ryy	.	16r	.
8r	.	.	.	8eJ 8A\	.	8aJ 8c#^/	.	8aa 8cc# 8e\	.	8Ree/	8Ra\	.	8E\	.	8A 8AA\	.	8c#\	.	8e\	sf	8ee 8e\	.	8c#J 8A\	sf	8a 8c#/	.	8eeJ 8e/	sf	8ee/	8a\	.	8aa 8cc#\	.	8ee'^<\yy	.	8eee'^<\	.
=23	=23	=23	=23	=23	=23	=23	=23	=23	=23	=23	=23	=23	=23	=23	=23	=23	=23	=23	=23	=23	=23	=23	=23	=23	=23	=23	=23	=23	=23	=23	=23	=23	=23	=23	=23	=23	=23
*	*	*	*	*	*	*tremolo	*	*	*	*	*	*	*	*	*	*	*	*	*	*	*	*	*	*	*	*	*	*	*	*	*	*	*	*	*	*	*
!LO:TX:t=P:problem=mixed beam	!LO:DY:rj	!	!LO:DY:a:rj	!	!LO:DY:a:rj	!	!	!	!LO:DY:rj	!	!	!	!	!	!	!	!	!	!	!	!	!	!LO:TX:t=P:problem=mixed beam	!	!	!	!	!LO:DY:rj	!	!	!LO:DY:rj	!	!	!	!LO:DY:rj	!	!LO:DY:rj
8BB/L	f	4.ryy	f	8d#X\L	f	8aL 8B/	.	(32ccc#\LLL	f	8Ree/L	8Ra\	.	8BB/L	.	[4.B (<4.BB\	.	(4.A/	.	(4.d#X\	.	4.r	.	8B\L	.	(>4.a [4.B/	.	(>4.ff# 4.b/	f	(32cc#/LLL	32cc#\LLL	f	(4.aa (>4.ff#\	f	(y32cc#\LLLyy	fy	(32ccc#\LLL	f
.	.	.	.	.	.	.	.	32bb\	.	.	.	.	.	.	.	.	.	.	.	.	.	.	.	.	.	.	.	.	32b/	32b\	.	.	.	32b\yy	.	32bb\	.
.	.	.	.	.	.	.	.	32aa\	.	.	.	.	.	.	.	.	.	.	.	.	.	.	.	.	.	.	.	.	32a/	32a\	.	.	.	32a\yy	.	32aa\	.
.	.	.	.	.	.	.	.	32ff#\JJJ	.	.	.	.	.	.	.	.	.	.	.	.	.	.	.	.	.	.	.	.	32f#/JJJ	32f#\JJJ	.	.	.	32f#\JJJyy	.	32ff#\JJJ	.
*	*	*	*	*	*	*	*	*	*	*tremolo	*	*	*tremolo	*	*	*	*	*	*	*	*	*	*	*	*	*	*	*	*	*	*	*	*	*	*	*	*
8B\	.	.	.	8f# 8B\	.	8a 8B/	.	16dd#X\)	.	32Ree/LL	8rEE	.	32BB/LL	.	.	.	.	.	.	.	.	.	8B\	.	.	.	.	.	16d#X/)	16d#\	.	.	.	16d#X\)yy	.	16dd#X\)	.
.	.	.	.	.	.	.	.	.	.	32Ree/	.	.	32BB/	.	.	.	.	.	.	.	.	.	.	.	.	.	.	.	.	.	.	.	.	.	.	.	.
.	.	.	.	.	.	.	.	16r	.	32Ree/	.	.	32BB/	.	.	.	.	.	.	.	.	.	.	.	.	.	.	.	16rff	16ryy	.	.	.	16ryy	.	16r	.
.	.	.	.	.	.	.	.	.	.	32Ree/JJ	.	.	32BB/JJ	.	.	.	.	.	.	.	.	.	.	.	.	.	.	.	.	.	.	.	.	.	.	.	.
*	*	*	*	*	*	*	*	*	*	*Xtremolo	*	*	*Xtremolo	*	*	*	*	*	*	*	*	*	*	*	*	*	*	*	*	*	*	*	*	*	*	*	*
!	!	!	!	!	!	!	!	!	!	!	!	!	!	!	!	!	!	!	!	!	!	!	!	!	!	!	!	!	!LO:S:s=2:note:problem=note-level slur	!	!	!	!	!	!	!	!
8BB/J	.	.	.	8f#J 8B\	.	8aJ 8B/	.	(8bb 8dd#\	.	8Ree/J	8rEE	.	8BB/J	.	.	.	.	.	.	.	.	.	8BB/J	.	.	.	.	.	(8dd (>8f#/	8ryy	.	.	.	(y8b\yy	.	(8bb\	.
*	*	*	*	*	*	*Xtremolo	*	*	*	*	*	*	*	*	*	*	*	*	*	*	*	*	*	*	*	*	*	*	*	*	*	*	*	*	*	*	*
*	*	*	*	*	*	*	*	*	*	*	*	*	*	*	*	*	*	*	*	*	*	*	*	*	*	*	*	*	*v	*v	*	*	*	*	*	*	*
=24	=24	=24	=24	=24	=24	=24	=24	=24	=24	=24	=24	=24	=24	=24	=24	=24	=24	=24	=24	=24	=24	=24	=24	=24	=24	=24	=24	=24	=24	=24	=24	=24	=24	=24	=24	=24
*	*	*	*	*	*	*	*	*	*	*	*	*	*	*	*	*	*	*	*	*	*	*	*	*	*	*	*^	*	*	*	*	*	*	*	*	*
16E\	.	4.ryy	.	16e 16B\	.	16g# 16B/	.	16ee\)	.	16Ree/	8rEE	.	16E\	.	16B] 16E\)	.	16G#/)	.	16e\)	.	8r	.	16E\	.	16g# 16B/])	.	16ee/)	16b\	.	16ee) 16g#/)	.	16gg#) 16ee\)	.	16e\)yy	.	16ee\)	.
16r	.	.	.	16r	.	16r	.	16r	.	16r	.	.	16r	.	16r	.	16r	.	16r	.	.	.	16r	.	16r	.	16r	16reyy	.	16r	.	16r	.	16ryy	.	16r	.
8E\	.	.	.	8B 8E/	.	8gg# 8b\	.	8eee 8ee\	.	8Ree/	8Ra\	.	8E\	.	8B 8E\	.	8G#/	.	8e\	.	8ee 8e\	.	8E 8EE/	.	8g# 8B/	.	8ee/	8b\	.	8ee 8g#\	.	8gg# 8ee\	.	8ee\yy	.	8eee\	.
8r	.	.	.	8r	.	8r	.	8r	.	8r	8rEEyy	.	8r	.	8r	.	8r	.	8r	.	8r	.	8r	.	8r	.	8r	8reyy	.	8r	.	8r	.	8ryy	.	8r	.
*	*	*	*	*	*	*	*	*	*	*v	*v	*	*	*	*	*	*	*	*	*	*	*	*	*	*	*	*v	*v	*	*	*	*	*	*	*	*	*
=25:|!	=25:|!	=25:|!	=25:|!	=25:|!	=25:|!	=25:|!	=25:|!	=25:|!	=25:|!	=25:|!	=25:|!	=25:|!	=25:|!	=25:|!	=25:|!	=25:|!	=25:|!	=25:|!	=25:|!	=25:|!	=25:|!	=25:|!	=25:|!	=25:|!	=25:|!	=25:|!	=25:|!	=25:|!	=25:|!	=25:|!	=25:|!	=25:|!	=25:|!	=25:|!	=25:|!
*>D	*>D	*>D	*>D	*>D	*>D	*>D	*>D	*>D	*>D	*>D	*>D	*>D	*>D	*>D	*	*>D	*	*>D	*>D	*>D	*>D	*>D	*>D	*>D	*>D	*>D	*>D	*>D	*>D	*>D	*>D	*>D	*>D	*>D	*>D
*k[f#]	*	*k[f#]	*	*k[f#]	*	*k[f#]	*	*k[f#]	*	*k[f#]	*	*k[f#]	*	*k[f#]	*	*k[f#]	*	*k[f#]	*	*k[f#]	*	*k[f#]	*	*k[f#]	*	*k[f#]	*	*k[f#]	*	*k[f#]	*	*k[f#]	*	*k[f#]	*
*G:	*	*G:	*	*G:	*	*G:	*	*G:	*	*G:	*	*G:	*	*G:	*	*G:	*	*G:	*	*G:	*	*G:	*	*G:	*	*G:	*	*G:	*	*G:	*	*G:	*	*G:	*
*	*	*	*	*	*	*	*	*	*	*^	*	*	*	*	*	*	*	*	*	*	*	*	*	*	*	*	*	*	*	*	*	*	*	*	*
*	*	*	*	*tremolo	*	*tremolo	*	*	*	*	*	*	*	*	*	*	*	*	*	*	*	*	*	*	*	*	*	*	*	*	*	*	*	*	*	*
!	!	!	!	!	!	!	!	!	!	!	!	!	!	!	!	!	!	!	!	!	!	!	!	!	!	!	!	!	!LO:TX:t=P:problem=instrumenty transponujące zapisane nieklarownie, nazwa co innego, oznaczenie tonacji co innego. W porozumieniu z NIFC zostawione tak, jak jest, bez ingerowania	!	!	!	!	!	!	!
!	!	!	!	!LO:TX:t=P:problem=krzyżyk c#	!	!	!	!LO:TX:t=P:problem=krzyżyk f#	!LO:DY:rj	!	!	!LO:DY:a:rj	!LO:TX:t=P:problem=krzyżyk C#	!	!LO:TX:t=P:problem=krzyżyk C#	!	!	!	!	!	!LO:TX:t=P:problem=krzyżyk a#	!	!LO:TX:t=P:problem=krzyżyk C#	!LO:DY:rj	!LO:TX:t=P:problem=krzyżyk f#	!	!LO:TX:t=P:problem=krzyżyk f#	!LO:DY:a:rj	!LO:TX:t=P:problem=krzyżyk f#	!	!LO:TX:t=P:problem=krzyżyk f#	!	!LO:TX:t=P:problem=krzyżyk f#	!	!LO:TX:t=P:problem=krzyżyk f#	!
8E\	mf	8E\	.	8BL 8G/	.	8eL 8d/	.	(32ff#\KLL	mf	8Ree/L	4.rEE	p	4.r	.	4.r	.	4.r	.	4.r	.	4.r	.	4.dn 4.G\	p	4.r	.	4.ee 4.e/	p	4.r	.	4.r	.	(32ff#\KLL	.	4.r	.
.	.	.	.	.	.	.	.	16.ee\JJ)	.	.	.	.	.	.	.	.	.	.	.	.	.	.	.	.	.	.	.	.	.	.	.	.	16.ee\JJ)	.	.	.
*	*	*	*	*	*	*	*	*rep	*	*	*	*	*	*	*	*	*	*	*	*	*	*	*	*	*	*	*	*	*	*	*	*	*rep	*	*	*
8r	.	8r	.	8B 8G/	.	8e 8d/	.	(32ff#\KLL	.	8Ree/	.	.	.	.	.	.	.	.	.	.	.	.	.	.	.	.	.	.	.	.	.	.	(32ff#\KLL	.	.	.
.	.	.	.	.	.	.	.	16.ee\JJ)	.	.	.	.	.	.	.	.	.	.	.	.	.	.	.	.	.	.	.	.	.	.	.	.	16.ee\JJ)	.	.	.
*	*	*	*	*	*	*	*	*Xrep	*	*	*	*	*	*	*	*	*	*	*	*	*	*	*	*	*	*	*	*	*	*	*	*	*Xrep	*	*	*
*	*	*	*	*	*	*	*	*rep	*	*	*	*	*	*	*	*	*	*	*	*	*	*	*	*	*	*	*	*	*	*	*	*	*rep	*	*	*
8r	.	8r	.	8BJ 8G/	.	8eJ 8d/	.	(32ff#\KLL	.	8Ree/J	.	.	.	.	.	.	.	.	.	.	.	.	.	.	.	.	.	.	.	.	.	.	(32ff#\KLL	.	.	.
.	.	.	.	.	.	.	.	16.ee\JJ)	sfz	.	.	.	.	.	.	.	.	.	.	.	.	.	.	.	.	.	.	.	.	.	.	.	16.ee\JJ)	.	.	.
*	*	*	*	*Xtremolo	*	*Xtremolo	*	*Xrep	*	*	*	*	*	*	*	*	*	*	*	*	*	*	*	*	*	*	*	*	*	*	*	*	*Xrep	*	*	*
=26	=26	=26	=26	=26	=26	=26	=26	=26	=26	=26	=26	=26	=26	=26	=26	=26	=26	=26	=26	=26	=26	=26	=26	=26	=26	=26	=26	=26	=26	=26	=26	=26	=26	=26	=26	=26
*	*	*	*	*	*	*	*	*	*	*	*	*	*	*	*	*	*	*	*	*	*	*	*	*	*	*	*	*	*^	*	*^	*	*	*	*	*
*	*	*	*	*	*	*	*	*	*	*	*	*	*	*	*	*	*	*	*	*	*	*	*	*	*	*	*	*	*	*	*	*	*	*	*	*	*tuplet	*
!	!	!	!	!	!	!	!	!	!	!	!	!	!	!	!	!	!	!	!	!	!	!	!	!	!	!	!	!	!	!	!	!	!	!	!	!	!LO:TUP:a	!
8AA/	sfz	24cLL 24E 24AA'\	.	8A/L	.	8eL 8c/	sfz	24ccLL 24e 24A'/	.	8Ree/L	8Ra\	.	16AA/	.	16E 16AA\	sf	16A\	sf	16c\	sf	24c'/LL	.	16cKL 16A\	sf	16aKL 16A/	.	16eeKL 16e/	.	24cc/LL	24cc\LL	sf	24cc'/LL	24cc\LL	.	8r	.	24ccc'\LL	.
.	.	24d'\	.	.	.	.	.	24dd'/	.	.	.	.	.	.	.	.	.	.	.	.	24d'/	.	.	.	.	.	.	.	24dd/	24dd\	.	24dd'/	24dd\	.	.	.	24ddd'\	.
.	.	.	.	.	.	.	.	.	.	.	.	.	16r	.	16r	.	16r	.	16r	.	.	.	16r	.	16r	.	16r	.	.	.	.	.	.	.	.	.	.	.
.	.	24f#'\JJ	.	.	.	.	.	24ff#JJ 24dd'/	.	.	.	.	.	.	.	.	.	.	.	.	24f#JJ 24d'/	.	.	.	.	.	.	.	24ff#/JJ	24dd\JJ	.	24ff#'/JJ	24dd\JJ	.	.	.	24fff#'\JJ	.
*	*	*	*	*	*	*	*	*	*	*tremolo	*	*	*	*	*	*	*	*	*	*	*	*	*	*	*	*	*	*	*	*	*	*	*	*	*	*	*	*
!	!	!	!	!	!	!	!	!	!	!	!	!	!	!	!	!	!	!	!	!	!	!	!	!	!	!	!	!	!	!	!	!	!	!	!LO:N:vis=2	!	!	!
8r	.	(8e\L	.	8A/	.	8e 8c/	.	(8eeL 8cc\	.	32Ree/LL	8rEE	.	8AA/L	.	8EL 8AA\	.	8A\L	.	8c\L	.	(>8eL 8c/	.	8c 8A\	.	8a 8A/	.	8ee 8e/	.	8ee/L	8cc\L	.	(8ee/L	8cc\L	.	4r	.	(8eee\L	.
.	.	.	.	.	.	.	.	.	.	32Ree/	.	.	.	.	.	.	.	.	.	.	.	.	.	.	.	.	.	.	.	.	.	.	.	.	.	.	.	.
.	.	.	.	.	.	.	.	.	.	32Ree/	.	.	.	.	.	.	.	.	.	.	.	.	.	.	.	.	.	.	.	.	.	.	.	.	.	.	.	.
.	.	.	.	.	.	.	.	.	.	32Ree/JJ	.	.	.	.	.	.	.	.	.	.	.	.	.	.	.	.	.	.	.	.	.	.	.	.	.	.	.	.
*	*	*	*	*	*	*	*	*	*	*Xtremolo	*	*	*	*	*	*	*	*	*	*	*	*	*	*	*	*	*	*	*	*	*	*	*	*	*	*	*	*
8r	.	16c\Jk)	.	8A/J	.	8eJ 8c/	.	16ccJk 16a\)	.	8Ree/J	8rEE	.	8AA/J	.	8EJ 8AA\	.	8A\J	.	8c\J	.	16cJk 16A/)	.	8cJ 8A\	.	8aJ 8A/	.	8eeJ 8e/	.	8cc/J	16a\Jk	.	16cc/Jk)	16a\Jk	.	.	.	16ccc\Jk)	.
.	.	16r	.	.	.	.	.	16r	.	.	.	.	.	.	.	.	.	.	.	.	16r	.	.	.	.	.	.	.	.	16r	.	16raa	16rcyy	.	.	.	16r	.
*	*	*	*	*	*	*	*	*	*	*	*	*	*	*	*	*	*	*	*	*	*	*	*	*	*	*	*	*	*v	*v	*	*	*	*	*	*	*	*
*	*	*	*	*	*	*	*	*	*	*	*	*	*	*	*	*	*	*	*	*	*	*	*	*	*	*	*	*	*	*	*v	*v	*	*	*	*	*
!!LO:PB:g=original
=27	=27	=27	=27	=27	=27	=27	=27	=27	=27	=27	=27	=27	=27	=27	=27	=27	=27	=27	=27	=27	=27	=27	=27	=27	=27	=27	=27	=27	=27	=27	=27	=27	=27	=27	=27	=27
*	*	*	*	*tremolo	*	*tremolo	*	*	*	*tremolo	*	*	*	*	*	*	*	*	*	*	*	*	*	*	*	*	*	*	*	*	*	*	*	*	*	*
8E\	.	8E\	.	8BL 8G/	.	8eL 8d/	.	(32ff#\KLL	.	8Ree/L	4.rEE	.	4.r	.	4.r	.	4.r	.	4.r	.	4.r	.	4.d 4.G\	.	4.r	.	4.ee 4.e/	.	4.r	.	4.r	.	(32ff#\KLL	.	4.r	.
.	.	.	.	.	.	.	.	16.ee\JJ)	.	.	.	.	.	.	.	.	.	.	.	.	.	.	.	.	.	.	.	.	.	.	.	.	16.ee\JJ)	.	.	.
*	*	*	*	*	*	*	*	*rep	*	*	*	*	*	*	*	*	*	*	*	*	*	*	*	*	*	*	*	*	*	*	*	*	*rep	*	*	*
8r	.	8r	.	8B 8G/	.	8e 8d/	.	(32ff#\KLL	.	8Ree/	.	.	.	.	.	.	.	.	.	.	.	.	.	.	.	.	.	.	.	.	.	.	(32ff#\KLL	.	.	.
.	.	.	.	.	.	.	.	16.ee\JJ)	.	.	.	.	.	.	.	.	.	.	.	.	.	.	.	.	.	.	.	.	.	.	.	.	16.ee\JJ)	.	.	.
*	*	*	*	*	*	*	*	*Xrep	*	*	*	*	*	*	*	*	*	*	*	*	*	*	*	*	*	*	*	*	*	*	*	*	*Xrep	*	*	*
*	*	*	*	*	*	*	*	*rep	*	*	*	*	*	*	*	*	*	*	*	*	*	*	*	*	*	*	*	*	*	*	*	*	*rep	*	*	*
8r	.	8r	.	8BJ 8G/	.	8eJ 8d/	.	(32ff#\KLL	.	8Ree/J	.	.	.	.	.	.	.	.	.	.	.	.	.	.	.	.	.	.	.	.	.	.	(32ff#\KLL	.	.	.
.	.	.	.	.	.	.	.	16.ee\JJ)	.	.	.	.	.	.	.	.	.	.	.	.	.	.	.	.	.	.	.	.	.	.	.	.	16.ee\JJ)	.	.	.
*	*	*	*	*Xtremolo	*	*Xtremolo	*	*Xrep	*	*Xtremolo	*	*	*	*	*	*	*	*	*	*	*	*	*	*	*	*	*	*	*	*	*	*	*Xrep	*	*	*
=28	=28	=28	=28	=28	=28	=28	=28	=28	=28	=28	=28	=28	=28	=28	=28	=28	=28	=28	=28	=28	=28	=28	=28	=28	=28	=28	=28	=28	=28	=28	=28	=28	=28	=28	=28	=28
*	*	*	*	*	*	*	*	*	*	*	*	*	*	*	*	*	*	*	*	*	*	*	*	*	*	*	*	*	*	*	*	*	*	*	*Xtuplet	*
!	!	!	!	!	!	!	!	!	!LO:DY:a	!	!	!	!	!	!	!	!	!	!	!	!	!	!	!	!	!	!	!	!	!	!	!	!	!	!	!
8AA/	sf	24cLL 24E 24AA\|	.	8A/L	.	8eL 8c/	sfz	24ccLL 24e 24A'/	sfz	8Ree/	8Ra\	.	16E\	.	16E 16AA/	.	16A\	.	16c\	sf	24ccLL 24c'/	.	16cKL 16A\	sf	16aKL 16A/	.	16eeKL 16e/	sf	24cc'\LL	.	24cccLL 24cc'\	.	4.r	.	24ccc'\LL	sf
.	.	24G\|	.	.	.	.	.	24g'/	.	.	.	.	.	.	.	.	.	.	.	.	24g 24G'/	.	.	.	.	.	.	.	24g'\	.	24gg 24g'\	.	.	.	24gg'\	.
.	.	.	.	.	.	.	.	.	.	.	.	.	16r	.	16r	.	16r	.	16r	.	.	.	16r	.	16r	.	16r	.	.	.	.	.	.	.	.	.
.	.	24A\JJ|	.	.	.	.	.	24a'/JJ	.	.	.	.	.	.	.	.	.	.	.	.	24aJJ 24A'/	.	.	.	.	.	.	.	24a'\JJ	.	24aaJJ 24a'\	.	.	.	24aa'\JJ	.
*	*	*	*	*	*	*	*	*	*	*tremolo	*	*	*	*	*	*	*	*	*	*	*	*	*	*	*	*	*	*	*	*	*	*	*	*	*	*
8r	.	(8F#\L	.	8A/	.	8e 8c/	.	(8f#/L	.	32Ree/LLL	8rEE	.	4E\	.	4E 4AA/	.	4A\	.	4c\	.	8f#/L	.	[8c 8A\	.	[8a [8A/	.	[8ee [8e/	.	(8f#/L	.	(>8ff#L 8f#/	.	.	.	(8ff#\L	.
.	.	.	.	.	.	.	.	.	.	32Ree/	.	.	.	.	.	.	.	.	.	.	.	.	.	.	.	.	.	.	.	.	.	.	.	.	.	.
.	.	.	.	.	.	.	.	.	.	32Ree/	.	.	.	.	.	.	.	.	.	.	.	.	.	.	.	.	.	.	.	.	.	.	.	.	.	.
.	.	.	.	.	.	.	.	.	.	32Ree/	.	.	.	.	.	.	.	.	.	.	.	.	.	.	.	.	.	.	.	.	.	.	.	.	.	.
8r	.	16E\Jk)	.	8A/J	.	8eJ 8c/	.	16e/Jk)	.	32Ree/	8rEE	.	.	.	.	.	.	.	.	.	16e/Jk	.	8c]J 8A\	.	8a]J 8A/]	.	8ee]J 8e/]	.	16e/Jk)	.	16eeJk 16e/)	.	.	.	16ee\Jk)	.
.	.	.	.	.	.	.	.	.	.	32Ree/	.	.	.	.	.	.	.	.	.	.	.	.	.	.	.	.	.	.	.	.	.	.	.	.	.	.
.	.	16r	.	.	.	.	.	16r	.	32Ree/	.	.	.	.	.	.	.	.	.	.	16r	.	.	.	.	.	.	.	16r	.	16r	.	.	.	16r	.
.	.	.	.	.	.	.	.	.	.	32Ree/JJJ	.	.	.	.	.	.	.	.	.	.	.	.	.	.	.	.	.	.	.	.	.	.	.	.	.	.
=29	=29	=29	=29	=29	=29	=29	=29	=29	=29	=29	=29	=29	=29	=29	=29	=29	=29	=29	=29	=29	=29	=29	=29	=29	=29	=29	=29	=29	=29	=29	=29	=29	=29	=29	=29	=29
*	*	*	*	*tremolo	*	*tremolo	*	*	*	*	*	*	*	*	*	*	*	*	*	*	*	*	*	*	*	*	*	*	*	*	*	*	*	*	*	*
8E\	.	8E\	.	8BL 8G/	.	8eL 8d/	.	(32ff#\KLL	.	8Ree/L	4.rEE	.	4.r	.	4.r	.	4.r	.	4.r	.	4.r	.	4.d 4.G\	.	4.r	.	4.ee 4.e/	.	4.r	.	4.r	.	(32ff#\KLL	.	4.r	.
.	.	.	.	.	.	.	.	16.ee\JJ)	.	.	.	.	.	.	.	.	.	.	.	.	.	.	.	.	.	.	.	.	.	.	.	.	16.ee\JJ)	.	.	.
*	*	*	*	*	*	*	*	*rep	*	*	*	*	*	*	*	*	*	*	*	*	*	*	*	*	*	*	*	*	*	*	*	*	*rep	*	*	*
8r	.	8r	.	8B 8G/	.	8e 8d/	.	(32ff#\KLL	.	8Ree/	.	.	.	.	.	.	.	.	.	.	.	.	.	.	.	.	.	.	.	.	.	.	(32ff#\KLL	.	.	.
.	.	.	.	.	.	.	.	16.ee\JJ)	.	.	.	.	.	.	.	.	.	.	.	.	.	.	.	.	.	.	.	.	.	.	.	.	16.ee\JJ)	.	.	.
*	*	*	*	*	*	*	*	*Xrep	*	*	*	*	*	*	*	*	*	*	*	*	*	*	*	*	*	*	*	*	*	*	*	*	*Xrep	*	*	*
*	*	*	*	*	*	*	*	*rep	*	*	*	*	*	*	*	*	*	*	*	*	*	*	*	*	*	*	*	*	*	*	*	*	*rep	*	*	*
8r	.	8r	.	8BJ 8G/	.	8eJ 8d/	.	(32ff#\KLL	.	8Ree/J	.	.	.	.	.	.	.	.	.	.	.	.	.	.	.	.	.	.	.	.	.	.	(32ff#\KLL	.	.	.
.	.	.	.	.	.	.	.	16.ee\JJ)	.	.	.	.	.	.	.	.	.	.	.	.	.	.	.	.	.	.	.	.	.	.	.	.	16.ee\JJ)	.	.	.
*	*	*	*	*Xtremolo	*	*Xtremolo	*	*Xrep	*	*Xtremolo	*	*	*	*	*	*	*	*	*	*	*	*	*	*	*	*	*	*	*	*	*	*	*Xrep	*	*	*
=30	=30	=30	=30	=30	=30	=30	=30	=30	=30	=30	=30	=30	=30	=30	=30	=30	=30	=30	=30	=30	=30	=30	=30	=30	=30	=30	=30	=30	=30	=30	=30	=30	=30	=30	=30	=30
!	!	!	!	!	!	!	!	!	!	!	!	!	!	!	!	!	!	!	!	!	!	!	!	!	!	!LO:DY:rj	!	!	!	!	!	!LO:DY:rj	!	!	!	!
8AA/	sf	24cLL 24E 24AA'\	.	8A/L	.	8eL 8c/	sfz	24ccLL 24e 24A'/	.	8Ree/L	8Ra\	.	16E\	.	16E 16AA/	.	16A\	.	16c\	sf	24c'/LL	.	16cKL 16A\	.	16aKL 16A/	sf	16eeKL 16e/	.	24cc'\LL	sf	24cc'\LL	sf	8r	.	24ccc'\LL	sf
.	.	24d'\	.	.	.	.	.	24dd'/	.	.	.	.	.	.	.	.	.	.	.	.	24d'/	.	.	.	.	.	.	.	24dd'\	.	24dd'\	.	.	.	24ddd'\	.
.	.	.	.	.	.	.	.	.	.	.	.	.	16r	.	16r	.	16r	.	16r	.	.	.	16r	.	16r	.	16r	.	.	.	.	.	.	.	.	.
.	.	24f#'\JJ	.	.	.	.	.	24ff#'/JJ	.	.	.	.	.	.	.	.	.	.	.	.	24f#JJ 24d'/	.	.	.	.	.	.	.	24ff#JJ 24dd'\	.	24ff#JJ 24dd'\	.	.	.	24fff#'\JJ	.
*	*	*	*	*	*	*	*	*	*	*tremolo	*	*	*	*	*	*	*	*	*	*	*	*	*	*	*	*	*	*	*	*	*	*	*	*	*	*
8r	.	(8e\L	.	8A/	.	8e 8c/	.	(8ee\L	.	32Ree/LL	8rEE	.	8E\L	.	8EL 8AA/	.	8A\L	.	8c\L	.	(>8eL 8c/	.	8c 8A\	.	8a 8A/	.	8ee 8e/	.	(8eeL 8cc\	.	(8eeL 8cc\	.	4r	.	(8eee\L	.
.	.	.	.	.	.	.	.	.	.	32Ree/	.	.	.	.	.	.	.	.	.	.	.	.	.	.	.	.	.	.	.	.	.	.	.	.	.	.
.	.	.	.	.	.	.	.	.	.	32Ree/	.	.	.	.	.	.	.	.	.	.	.	.	.	.	.	.	.	.	.	.	.	.	.	.	.	.
.	.	.	.	.	.	.	.	.	.	32Ree/JJ	.	.	.	.	.	.	.	.	.	.	.	.	.	.	.	.	.	.	.	.	.	.	.	.	.	.
*	*	*	*	*	*	*	*	*	*	*Xtremolo	*	*	*	*	*	*	*	*	*	*	*	*	*	*	*	*	*	*	*	*	*	*	*	*	*	*
8r	.	16c\Jk)	.	8A/J	.	8eJ 8c/	.	16cc\Jk)	.	8Ree/J	8rEE	.	8E\J	.	8EJ 8AA/	.	8A\J	.	8c\J	.	16cJk 16A/)	.	8cJ 8A\	.	8aJ 8A/	.	8eeJ 8e/	.	16ccJk 16a\)	.	16ccJk 16a\)	.	.	.	16ccc\Jk)	.
.	.	16r	.	.	.	.	.	16r	.	.	.	.	.	.	.	.	.	.	.	.	16r	.	.	.	.	.	.	.	16r	.	16r	.	.	.	16r	.
=31	=31	=31	=31	=31	=31	=31	=31	=31	=31	=31	=31	=31	=31	=31	=31	=31	=31	=31	=31	=31	=31	=31	=31	=31	=31	=31	=31	=31	=31	=31	=31	=31	=31	=31	=31	=31
*	*	*	*	*	*	*	*	*	*	*	*	*	*	*	*	*	*	*	*	*	*	*	*^	*	*^	*	*	*	*	*	*	*	*	*	*	*
*tremolo	*	*	*	*tremolo	*	*tremolo	*	*	*	*	*	*	*tremolo	*	*	*	*	*	*	*	*	*	*	*	*	*	*	*	*	*	*	*	*	*	*	*	*	*
!	!LO:DY:rj	!	!	!	!	!	!LO:DY:rj	!	!	!	!	!	!	!	!	!	!	!	!	!LO:DY:a:rj	!	!	!	!	!	!	!	!	!	!LO:DY:rj	!	!	!	!LO:DY:rj	!	!	!	!
8BB/L	f	16.B\LL	.	8BL 8F#/	.	8aL 8B/	f	16.dd#X'\LL	.	8Ree/L	8Ra\L	.	8BB/L	.	4.BB/	.	4.A\	.	4.B/	f	16.d#XLL 16.B/	.	4B/	4B\	.	4.b/	4.a\	.	4.ff# 4.b/	f	16.d#XLL 16.B/	.	16.dd#XLL 16.b\	f	16.dd#X\LL|	f	4.r	.
.	.	32c\K	.	.	.	.	.	32ee'\K	.	.	.	.	.	.	.	.	.	.	.	.	32eK 32c/	.	.	.	.	.	.	.	.	.	32eK 32c/	.	32eeK 32cc\	.	32ee\K|	.	.	.
*	*	*	*	*	*	*	*	*	*	*tremolo	*	*	*	*	*	*	*	*	*	*	*	*	*	*	*	*	*	*	*	*	*	*	*	*	*	*	*	*
8BB/	.	16d#X\	.	8B 8F#/	.	8a 8B/	.	16ff#'\	.	32Ree/LL	8r	.	8BB/	.	.	.	.	.	.	.	16f# 16d#X/	.	.	.	.	.	.	.	.	.	16f# 16d#/	.	16ff# 16dd#X\	.	16ff#'\|	.	.	.
.	.	.	.	.	.	.	.	.	.	32Ree/	.	.	.	.	.	.	.	.	.	.	.	.	.	.	.	.	.	.	.	.	.	.	.	.	.	.	.	.
.	.	16e\	.	.	.	.	.	16gg'\	.	32Ree/	.	.	.	.	.	.	.	.	.	.	16g 16e/	.	.	.	.	.	.	.	.	.	16g 16e/	.	16gg 16ee\	.	16gg'\|	.	.	.
.	.	.	.	.	.	.	.	.	.	32Ree/JJ	.	.	.	.	.	.	.	.	.	.	.	.	.	.	.	.	.	.	.	.	.	.	.	.	.	.	.	.
*	*	*	*	*	*	*	*	*	*	*Xtremolo	*	*	*	*	*	*	*	*	*	*	*	*	*	*	*	*	*	*	*	*	*	*	*	*	*	*	*	*
8BB/J	.	16f#\	.	8BJ 8F#/	.	8aJ 8B/	.	16aa'\	.	8Ree/J	8Ra\J	.	8BB/J	.	.	.	.	.	.	.	16a 16f#/	.	8B 8BB\	8rEEyy	.	.	.	.	.	.	16a 16f#/	.	16aa 16ff#\	.	16aa'\|	.	.	.
.	.	16d#\JJ	.	.	.	.	.	16bb'\JJ	.	.	.	.	.	.	.	.	.	.	.	.	16bJJ 16d#X/	.	.	.	.	.	.	.	.	.	16bJJ 16d#/	.	16bbJJ 16b\	.	16bb'\JJ|	.	.	.
*Xtremolo	*	*	*	*Xtremolo	*	*Xtremolo	*	*	*	*	*	*	*Xtremolo	*	*	*	*	*	*	*	*	*	*	*	*	*	*	*	*	*	*	*	*	*	*	*	*	*
*	*	*	*	*	*	*	*	*	*	*	*	*	*	*	*	*	*	*	*	*	*	*	*v	*v	*	*	*	*	*	*	*	*	*	*	*	*	*	*
*	*	*	*	*	*	*	*	*	*	*	*	*	*	*	*	*	*	*	*	*	*	*	*	*	*v	*v	*	*	*	*	*	*	*	*	*	*	*
!!LO:PB:g=original
=32	=32	=32	=32	=32	=32	=32	=32	=32	=32	=32	=32	=32	=32	=32	=32	=32	=32	=32	=32	=32	=32	=32	=32	=32	=32	=32	=32	=32	=32	=32	=32	=32	=32	=32	=32	=32
*	*	*	*	*	*	*	*	*	*	*	*	*	*	*	*	*	*	*	*	*	*^	*	*	*	*	*	*	*	*	*	*	*	*	*	*	*
16E\	.	4.ryy	.	16B 16E/	.	16g 16B/	.	16ee\	.	16Ree/	16Ra\	.	16E\	.	16E\	.	16G/	.	16B\	.	16e/	16e\	.	16e 16E\	.	16b 16e/	.	16ee 16g/	.	16g 16e/	.	16ee\	.	16ee\	.	4.r	.
16r	.	.	.	16r	.	16r	.	16r	.	16rc	16rEE	.	16r	.	16r	.	16r	.	16r	.	16r	16rcyy	.	16r	.	16r	.	16r	.	16r	.	16r	.	16r	.	.	.
8E\	.	.	.	8B 8E/	.	8g 8B/	.	8eee 8ee\	.	8Ree/	8Ra\	.	8E\	.	8E\	.	8G/	.	8B\	.	8e/	8e\	.	8E 8EE/	.	8b 8e/	.	8ee 8g/	.	8g 8e/	.	8gg 8ee\	.	8eee\	.	.	.
8r	.	.	.	8r	.	8r	.	8r	.	8rc	8rEE	.	8r	.	8r	.	8r	.	8r	.	8r	8rcyy	.	8r	.	8r	.	8r	.	8r	.	8r	.	8r	.	.	.
*	*	*	*	*	*	*	*	*	*	*	*	*	*	*	*	*	*	*	*	*	*v	*v	*	*	*	*	*	*	*	*	*	*	*	*	*	*	*
=33!|:	=33!|:	=33!|:	=33!|:	=33!|:	=33!|:	=33!|:	=33!|:	=33!|:	=33!|:	=33!|:	=33!|:	=33!|:	=33!|:	=33!|:	=33!|:	=33!|:	=33!|:	=33!|:	=33!|:	=33!|:	=33!|:	=33!|:	=33!|:	=33!|:	=33!|:	=33!|:	=33!|:	=33!|:	=33!|:	=33!|:	=33!|:	=33!|:	=33!|:	=33!|:	=33!|:	=33!|:
*>E	*>E	*>E	*>E	*>E	*>E	*>E	*>E	*>E	*>E	*>E	*>E	*>E	*>E	*>E	*>E	*	*>E	*	*>E	*>E	*>E	*>E	*>E	*>E	*>E	*>E	*>E	*>E	*>E	*>E	*>E	*>E	*>E	*>E	*>E	*>E
!LO:TX:t=P:problem=mixed beam	!LO:DY:rj	!	!	!	!	!	!	!	!LO:DY:rj	!	!	!	!	!	!	!	!	!	!	!	!	!	!	!	!	!	!	!	!	!	!	!LO:DY:a:t=fo	!	!	!	!
16B\LL|	f	4.ryy	.	16B\LL	.	16B/	.	16B/|	f	16.rc	8Ra\	.	16.r	.	16.r	.	16.r	.	16.r	.	16.r	.	16BLL 16BB\	.	16.r	.	16.r	.	16.r	.	16.r	f	16.r	.	16.r	.
32r	.	.	.	32r	.	32r	.	32r	.	.	.	.	.	.	.	.	.	.	.	.	.	.	32r	.	.	.	.	.	.	.	.	.	.	.	.	.
!	!	!	!	!	!	!	!	!	!	!	!	!	!	!	!	!LO:DY:rj:t=ffo	!	!	!	!LO:DY:rj:t=ffo	!	!	!	!	!	!	!	!LO:DY:rj	!	!	!	!	!	!	!LO:TX:a:t=1.	!LO:DY:rj:t=ffo
32BB/JJk|	.	.	.	32f#JJk 32B\	.	32dd#X 32f#\	.	32bb 32dd#X\|	.	32Ree/KKL	.	.	32BB/KKL	.	32B 32BB\	ff	32B\KKL	.	32d#X\KKL	ff	32dd#X 32f#/	.	32BJJk 32BB\	.	32b\KKL	.	32ff#KKL 32b/	ff	32ff#KKL 32dd#X 32a\	.	32bbKKL 32dd#X\	.	32bb\KKL	.	32ddd#X\KKL	ff
8B\L|	.	.	.	8f#L 8B\	.	8dd# 8f#\	.	8bb 8dd#\|	.	8Ree/J	8rEE	.	8BB/J	.	8BL 8BB\	.	8B\J	.	8d#\J	.	8dd# 8f#/	.	8BL 8BB\	.	8b\J	.	8ff#J 8b/	.	8ff#J 8dd#\	.	8bbJ 8dd#\	.	8bb\J	.	8ddd#\J	.
8A\J|	.	.	.	8f#J 8B\	.	8dd# 8f# 8B/	.	8dd# 8f# 8B/	.	8rc	8rEE	.	8r	.	8AJ 8AA\	.	8r	.	8r	.	8r	.	8AJ 8AA\	.	8r	.	8r	.	8r	.	8r	.	8r	.	8r	.
=34	=34	=34	=34	=34	=34	=34	=34	=34	=34	=34	=34	=34	=34	=34	=34	=34	=34	=34	=34	=34	=34	=34	=34	=34	=34	=34	=34	=34	=34	=34	=34	=34	=34	=34	=34	=34
*	*	*	*	*	*	*	*	*	*	*	*tremolo	*	*	*	*	*	*	*	*	*	*	*	*	*	*	*	*	*	*	*	*	*	*	*	*	*
16.G\LL|	.	4.ryy	.	16.gLL 16.B 16.E\	.	16ee\LL	.	16eeLL 16b 16d\|	.	16Ree/LL	8Ra\L	.	16E\LL	.	16GLL 16GG\	.	16B\LL	.	16e\LL	.	16eeLL 16e\	.	16GLL 16GG\	.	16b\LL	.	16eeLL 16g/	.	16ee\LL	.	16bbLL 16ee\	.	16ee\LL	.	16eee\LL	.
.	.	.	.	.	.	32r	.	32r	.	32r	.	.	32r	.	32r	.	32r	.	32r	.	32r	.	32r	.	32r	.	32r	.	32r	.	32r	.	32r	.	32r	.
!	!	!	!	!	!	!	!	!	!	!	!	!	!	!	!	!	!	!	!	!	!	!	!	!	!	!	!	!	!	!	!	!	!	!	!LO:TX:a:t=2.	!
32F#\JJk|	.	.	.	32f#\JJk	.	32dd#X\JJk	.	32ff#\JJk|	.	32Ree/JJk	.	.	32BB\JJk	.	32F#JJk 32FF#\	.	32B\JJk	.	32d#X\JJk	.	32dd#XJJk 32f#\	.	32F#JJk 32FF#\	.	32b\JJk	.	32ff#JJk 32b/	.	32ff#\JJk	.	32bbJJk 32dd#X\	.	32ff#\JJk	.	32ddd#X\JJk	.
8E\L|	.	.	.	8e\L	.	8ee\L	.	8gg\L|	.	8Ree/L	8Ra\	.	8E\L	.	8EL 8EE\	.	8B\L	.	8e\L	.	8eeL 8g\	.	8EL 8EE\	.	8b\L	.	8ggL 8ee\	.	8gg\L	.	8bbL 8ee\	.	8gg\L	.	8eee\L	.
8G\J|	.	.	.	8g\J	.	8bJ 8e\	.	8ee\J|	.	8Ree/J	8Ra\J	.	8E\J	.	8GJ 8GG\	.	8B\J	.	8e\J	.	8eeJ 8e\	.	8GJ 8GG\	.	8b\J	.	8eeJ 8g\	.	8ee\J	.	8bbJ 8ee\	.	8ee\J	.	8eee\J	.
*	*	*	*	*	*	*	*	*	*	*	*Xtremolo	*	*	*	*	*	*	*	*	*	*	*	*	*	*	*	*	*	*	*	*	*	*	*	*	*
=35	=35	=35	=35	=35	=35	=35	=35	=35	=35	=35	=35	=35	=35	=35	=35	=35	=35	=35	=35	=35	=35	=35	=35	=35	=35	=35	=35	=35	=35	=35	=35	=35	=35	=35	=35	=35
!LO:TX:t=P:problem=mixed beam	!	!	!	!	!	!	!	!LO:TX:t=P:problem=mixed beam	!	!	!	!	!	!	!	!	!	!	!	!	!	!	!	!	!	!	!	!	!	!	!	!	!	!	!	!
16B\LL	.	4.ryy	.	16B\LL	.	16B/LL	.	16B/LL	.	16.rc	8Ra\	.	16.r	.	16.r	.	16.r	.	16.r	.	16.r	.	16BLL 16BB\	.	16.r	.	16.r	.	16.r	.	16.r	.	16.r	.	16.r	.
32r	.	.	.	32r	.	32r	.	32r	.	.	.	.	.	.	.	.	.	.	.	.	.	.	32r	.	.	.	.	.	.	.	.	.	.	.	.	.
32BB/JJk	.	.	.	32f#JJk 32B\	.	32dd#XJJk 32f#/	.	32bbJJk 32dd\	.	32Ree/KKL	.	.	32BB/KKL	.	32BKKL 32BB\	.	32B\KKL	.	32d#X\KKL	.	32dd#X 32f#/	.	32BJK 32BB\	.	32b\KKL	.	32ff#KKL 32b/	.	32ff#KKL 32dd#X\	.	32bbKKL 32dd#X\	.	32bb\KKL	.	32ddd#X'\KKL	.
!LO:TX:t=P:problem=mixed beam	!	!	!	!	!	!	!	!	!	!	!	!	!	!	!	!	!	!	!	!	!	!	!	!	!	!	!	!	!	!	!	!	!	!	!	!
8BB/L	.	.	.	8f#L 8B\	.	8dd# 8f#/	.	8bb 8dd\	.	8Ree/J	8rEE	.	8BB/J	.	8BJ 8BB\	.	8B\J	.	8d#\J	.	8dd# 8f#/	.	8BJ 8BB\	.	8b\J	.	8ff#J 8b/	.	8ff#J 8dd#\	.	8bbJ 8dd#\	.	8bb\J	.	8ddd#'\J	.
8B\J	.	.	.	8f#J 8B\	.	8dd# 8f# 8B/	.	8dd 8f# 8B/	.	8rc	8rEE	.	8r	.	8r	.	8r	.	8r	.	8r	.	8r	.	8r	.	8r	.	8r	.	8r	.	8r	.	8r	.
=36	=36	=36	=36	=36	=36	=36	=36	=36	=36	=36	=36	=36	=36	=36	=36	=36	=36	=36	=36	=36	=36	=36	=36	=36	=36	=36	=36	=36	=36	=36	=36	=36	=36	=36	=36	=36
*	*	*	*	*	*	*	*	*	*	*	*	*	*	*	*	*	*	*	*	*	*	*	*	*	*^	*	*	*	*	*	*^	*	*	*	*	*
*	*	*	*	*tremolo	*	*	*	*	*	*tremolo	*tremolo	*	*tremolo	*	*tremolo	*	*	*	*	*	*	*	*tremolo	*	*	*	*	*	*	*	*	*	*	*	*	*	*	*
!LO:TX:t=P:problem=mixed beam	!	!	!	!	!	!	!	!	!	!	!	!	!	!	!	!	!	!	!	!	!	!	!	!	!	!	!	!	!	!	!	!	!	!	!	!	!	!
8E\L	.	4.ryy	.	8e\L	.	16.eeLL 16.b 16.e\	.	16.eeLL 16.b 16.g\	.	8Ree/L	8Ra\L	.	8E\L	.	8EL 8EE/	.	16.G\LL	.	16.e\LL	.	16.eeLL 16.g/	.	8EL 8EE/	.	8e/L	8e\L	.	8eeL 8e/	.	16.eeLL 16.g\	.	16.gg/LL	8ee\L	.	16.eee\LL	.	16.eee'\LL	.
.	.	.	.	.	.	32a\K	.	32cc\K	.	.	.	.	.	.	.	.	32A\K	.	32c\K	.	32ccK 32a/	.	.	.	.	.	.	.	.	32ccK 32a\	.	32aa/K	.	.	32ccc\K	.	32ccc'\K	.
8EE/	.	.	.	8e\	.	16.g\	.	16.b\	.	8Ree/	8Ra\	.	8E\	.	8E 8EE/	.	16.G\	.	16.B\	.	16.b 16.g/	.	8E 8EE/	.	8e/	8e\	.	8ee 8e/	.	16.b 16.g\	.	16.gg/	8ee\	.	16.bb\	.	16.bb'\	.
.	.	.	.	.	.	32a\JK	.	32cc\JK	.	.	.	.	.	.	.	.	32A\JK	.	32c\JK	.	32ccJK 32a/	.	.	.	.	.	.	.	.	32ccJK 32a\	.	32aa/JK	.	.	32ccc\JK	.	32ccc'\JK	.
8E\J	.	.	.	8e\J	.	8g\J	.	8b\J	.	8Ree/J	8Ra\J	.	8E\J	.	8EJ 8EE/	.	8G\J	.	8B\J	.	8bJ 8g/	.	8EJ 8EE/	.	8e/J	8e\J	.	8eeJ 8e/	.	8bJ 8g\	.	8gg/J	8ee\J	.	8bb\J	.	8bb'\J	.
*	*	*	*	*Xtremolo	*	*	*	*	*	*Xtremolo	*Xtremolo	*	*Xtremolo	*	*Xtremolo	*	*	*	*	*	*	*	*Xtremolo	*	*	*	*	*	*	*	*	*	*	*	*	*	*	*
*	*	*	*	*	*	*	*	*	*	*	*	*	*	*	*	*	*	*	*	*	*	*	*	*	*v	*v	*	*	*	*	*	*v	*v	*	*	*	*	*
!!LO:PB:g=original
=37	=37	=37	=37	=37	=37	=37	=37	=37	=37	=37	=37	=37	=37	=37	=37	=37	=37	=37	=37	=37	=37	=37	=37	=37	=37	=37	=37	=37	=37	=37	=37	=37	=37	=37	=37	=37
!LO:TX:t=P:problem=mixed beam	!LO:DY:rj	!	!	!	!	!	!	!LO:TX:t=P:problem=mixed beam	!	!	!	!	!	!	!	!	!	!	!	!	!	!	!	!	!	!	!	!	!	!	!	!	!	!	!LO:TX:t=P:problem=takty 37-38 zapisane odnośnikiem 1-2 do wcześniejszej strony (wszystkie głosy oprócz vl 1 i cb)	!
16B\LL|	f	4.ryy	.	16B\LLyy	.	16B/yy	.	16B/LL	.	16.rcyy	8Ra\yy	.	16.ryy	.	16.ryy	.	16.ryy	.	16.ryy	.	16.ryy	.	16BLLyy 16BB\yy	.	16.ryy	.	16.ryy	.	16.ryy	.	16.ryy	.	16.ryy	.	16.ryy	.
32r	.	.	.	32ryy	.	32ryy	.	32r	.	.	.	.	.	.	.	.	.	.	.	.	.	.	32ryy	.	.	.	.	.	.	.	.	.	.	.	.	.
!	!	!	!	!	!	!	!	!	!	!	!	!	!	!	!	!LO:DY:rj:t=ffo	!	!	!	!LO:DY:rj:t=ffo	!	!	!	!	!	!	!	!LO:DY:rj	!	!	!	!	!	!	!LO:TX:a:t=1.	!
32BB/JJk|	.	.	.	32f#JJkyy 32B\yy	.	32dd#Xyy 32f#\yy	.	32bbJJk 32dd#X\	.	32Ree/KKLyy	.	.	32BB/KKLyy	.	32Byy 32BB\yy	ffy	32B\KKLyy	.	32d#X\KKLyy	ffy	32dd#Xyy 32f#/yy	.	32BJJkyy 32BB\yy	.	32b\KKLyy	.	32ff#KKLyy 32b/yy	ffy	32ff#KKLyy 32dd#Xyy 32a\yy	.	32bbKKLyy 32dd#X\yy	.	32bb\KKLyy	ffy	32ddd#X\KKLyy	ffy
8B\L|	.	.	.	8f#Lyy 8B\yy	.	8dd#yy 8f#\yy	.	8bb 8dd#\	.	8Ree/Jyy	8rEEyy	.	8BB/Jyy	.	8BLyy 8BB\yy	.	8B\Jyy	.	8d#\Jyy	.	8dd#yy 8f#/yy	.	8BLyy 8BB\yy	.	8b\Jyy	.	8ff#Jyy 8b/yy	.	8ff#Jyy 8dd#\yy	.	8bbJyy 8dd#\yy	.	8bb\Jyy	.	8ddd#\Jyy	.
8A\J|	.	.	.	8f#Jyy 8B\yy	.	8dd#yy 8f#yy 8B/yy	.	8dd# 8f# 8B/	.	8rcyy	8rEEyy	.	8ryy	.	8AJyy 8AA\yy	.	8ryy	.	8ryy	.	8ryy	.	8AJyy 8AA\yy	.	8ryy	.	8ryy	.	8ryy	.	8ryy	.	8ryy	.	8ryy	.
=38	=38	=38	=38	=38	=38	=38	=38	=38	=38	=38	=38	=38	=38	=38	=38	=38	=38	=38	=38	=38	=38	=38	=38	=38	=38	=38	=38	=38	=38	=38	=38	=38	=38	=38	=38	=38
*	*	*	*	*	*	*	*	*	*	*	*tremoloy	*	*	*	*	*	*	*	*	*	*	*	*	*	*	*	*	*	*	*	*	*	*	*	*	*
16.G\LL|	.	4.ryy	.	16.gLLyy 16.Byy 16.E\yy	.	16ee\LLyy	.	16.eeLL 16.b 16.d\	.	16Ree/LLyy	8Ra\Lyy	.	16E\LLyy	.	16GLLyy 16GG\yy	.	16B\LLyy	.	16e\LLyy	.	16eeLLyy 16e\yy	.	16GLLyy 16GG\yy	.	16b\LLyy	.	16eeLLyy 16g/yy	.	16ee\LLyy	.	16bbLLyy 16ee\yy	.	16ee\LLyy	.	16eee\LLyy	.
.	.	.	.	.	.	32ryy	.	.	.	32ryy	.	.	32ryy	.	32ryy	.	32ryy	.	32ryy	.	32ryy	.	32ryy	.	32ryy	.	32ryy	.	32ryy	.	32ryy	.	32ryy	.	32ryy	.
!	!	!	!	!	!	!	!	!	!	!	!	!	!	!	!	!	!	!	!	!	!	!	!	!	!	!	!	!	!	!	!	!	!	!	!LO:TX:a:t=2.	!
32F#\JJk|	.	.	.	32f#\JJkyy	.	32dd#X\JJkyy	.	32ff#\JJk	.	32Ree/JJkyy	.	.	32BB\JJkyy	.	32F#JJkyy 32FF#\yy	.	32B\JJkyy	.	32d#X\JJkyy	.	32dd#XJJkyy 32f#\yy	.	32F#JJkyy 32FF#\yy	.	32b\JJkyy	.	32ff#JJkyy 32b/yy	.	32ff#\JJkyy	.	32bbJJkyy 32dd#X\yy	.	32ff#\JJkyy	.	32ddd#X\JJkyy	.
8E\L|	.	.	.	8e\Lyy	.	8ee\Lyy	.	8gg\L	.	8Ree/Lyy	8Ra\yy	.	8E\Lyy	.	8ELyy 8EE\yy	.	8B\Lyy	.	8e\Lyy	.	8eeLyy 8g\yy	.	8ELyy 8EE\yy	.	8b\Lyy	.	8ggLyy 8ee\yy	.	8gg\Lyy	.	8bbLyy 8ee\yy	.	8gg\Lyy	.	8eee\Lyy	.
8G\J|	.	.	.	8g\Jyy	.	8bJyy 8e\yy	.	8ee\J	.	8Ree/Jyy	8Ra\Jyy	.	8E\Jyy	.	8GJyy 8GG\yy	.	8B\Jyy	.	8e\Jyy	.	8eeJyy 8e\yy	.	8GJyy 8GG\yy	.	8b\Jyy	.	8eeJyy 8g\yy	.	8ee\Jyy	.	8bbJyy 8ee\yy	.	8ee\Jyy	.	8eee\Jyy	.
*	*	*	*	*	*	*	*	*	*	*	*Xtremolo	*	*	*	*	*	*	*	*	*	*	*	*	*	*	*	*	*	*	*	*	*	*	*	*	*
=39	=39	=39	=39	=39	=39	=39	=39	=39	=39	=39	=39	=39	=39	=39	=39	=39	=39	=39	=39	=39	=39	=39	=39	=39	=39	=39	=39	=39	=39	=39	=39	=39	=39	=39	=39	=39
*	*	*	*	*	*	*	*	*	*	*	*	*	*	*	*	*	*	*	*	*	*	*	*	*	*^	*	*	*	*	*	*	*	*	*	*	*
*	*	*	*	*	*	*	*	*	*	*tremolo	*Xtremolo	*	*tremolo	*	*	*	*	*	*	*	*	*	*	*	*	*	*	*	*	*	*	*	*	*	*	*	*
!LO:TX:t=P:problem=mixed beam	!	!	!	!	!	!	!	!	!	!	!	!	!	!	!	!	!	!	!	!	!	!	!	!	!	!	!	!	!	!	!	!	!	!LO:TX:a:t=Col V°. I°.//	!	!LO:TX:a:t=Col V°. I°.//	!
8B\L	<	4.ryy	.	24f#LL 24B\	.	24bLL 24a/	.	24dd#X'\LL	.	32Ree/LLL	8Ra\L	.	32BB/LLL	<	4.BB	<	4.F#/	<	4.B/	<	4.a 4.f#/	.	8BL 8BB\	.	4.b/	4.a\	.	4.ff# 4.b/	.	24d#X'/LL	.	4.aa 4.ff#\	.	24d#X'/LLyy	.	24dd#X'\LLyy	.
.	.	.	.	.	.	.	.	.	.	32Ree/	.	.	32BB/	.	.	.	.	.	.	.	.	.	.	.	.	.	.	.	.	.	.	.	.	.	.	.	.
.	.	.	.	24f# 24B\	.	24b 24a/	.	24ee'\	.	.	.	.	.	.	.	.	.	.	.	.	.	.	.	.	.	.	.	.	.	24e'/	.	.	.	24e'/yy	.	24ee'\yy	.
.	.	.	.	.	.	.	.	.	.	32Ree/	.	.	32BB/	.	.	.	.	.	.	.	.	.	.	.	.	.	.	.	.	.	.	.	.	.	.	.	.
!	!	!	!	!	!	!	!	!	!	!	!	!	!	!	!	!	!	!	!	!	!	!	!	!	!	!	!	!	!	!LO:TX:b:i:t=due	!	!	!	!	!	!	!
.	.	.	.	24f#JJ 24B\	.	24bJJ 24a/	.	24ff#'\JJ	.	.	.	.	.	.	.	.	.	.	.	.	.	.	.	.	.	.	.	.	.	24f#'/JJ	.	.	.	24f#'/JJyy	.	24ff#'\JJyy	.
.	.	.	.	.	.	.	.	.	.	32Ree/	.	.	32BB/	.	.	.	.	.	.	.	.	.	.	.	.	.	.	.	.	.	.	.	.	.	.	.	.
*	*	*	*	*rep	*	*rep	*	*	*	*	*	*	*	*	*	*	*	*	*	*	*	*	*	*	*	*	*	*	*	*	*	*	*	*	*	*	*
8B\	.	.	.	24f#LL 24B\	.	24bLL 24a/	.	24gg'\LL	<	32Ree/	8Ra\	.	32BB/	.	.	.	.	.	.	.	.	.	8B 8BB\	.	.	.	.	.	.	24g'/LL	.	.	.	24g'/LLyy	.	24gg'\LLyy	.
.	.	.	.	.	.	.	.	.	.	32Ree/	.	.	32BB/	.	.	.	.	.	.	.	.	.	.	.	.	.	.	.	.	.	.	.	.	.	.	.	.
.	.	.	.	24f# 24B\	.	24b 24a/	.	24aa'\	.	.	.	.	.	.	.	.	.	.	.	.	.	.	.	.	.	.	.	.	.	24a'/	<	.	.	24a'/yy	.	24aa'\yy	.
.	.	.	.	.	.	.	.	.	.	32Ree/	.	.	32BB/	.	.	.	.	.	.	.	.	.	.	.	.	.	.	.	.	.	.	.	.	.	.	.	.
.	.	.	.	24f#JJ 24B\	.	24bJJ 24a/	.	24bb'\JJ	.	.	.	.	.	.	.	.	.	.	.	.	.	.	.	.	.	.	.	.	.	24b'/JJ	.	.	.	24b'/JJyy	.	24bb'\JJyy	.
.	.	.	.	.	.	.	.	.	.	32Ree/	.	.	32BB/	.	.	.	.	.	.	.	.	.	.	.	.	.	.	.	.	.	.	.	.	.	.	.	.
*	*	*	*	*Xrep	*	*Xrep	*	*	*	*	*	*	*	*	*	*	*	*	*	*	*	*	*	*	*	*	*	*	*	*	*	*	*	*	*	*	*
*	*	*	*	*rep	*	*rep	*	*	*	*	*	*	*	*	*	*	*	*	*	*	*	*	*	*	*	*	*	*	*	*	*	*	*	*	*	*	*
8BB/J	.	.	.	24f#LL 24B\	.	24bLL 24a/	.	24ccc'\LL	.	32Ree/	8Ra\J	.	32BB/	.	.	.	.	.	.	.	.	.	8BB\J	.	.	.	.	.	.	24cc'/LL	.	.	.	24cc'\LLyy	.	24ccc'\LLyy	.
.	.	.	.	.	.	.	.	.	.	32Ree/	.	.	32BB/	.	.	.	.	.	.	.	.	.	.	.	.	.	.	.	.	.	.	.	.	.	.	.	.
.	.	.	.	24f# 24B\	.	24b 24a/	.	24dddn'\	.	.	.	.	.	.	.	.	.	.	.	.	.	.	.	.	.	.	.	.	.	24dd'/	.	.	.	24ddn'\yy	.	24dddn'\yy	.
.	.	.	.	.	.	.	.	.	.	32Ree/	.	.	32BB/	.	.	.	.	.	.	.	.	.	.	.	.	.	.	.	.	.	.	.	.	.	.	.	.
.	.	.	.	24f#JJ 24B\	.	24bJJ 24a/	.	24ddd#X'\JJ	.	.	.	.	.	.	.	.	.	.	.	.	.	.	.	.	.	.	.	.	.	24dd#X'/JJ	.	.	.	24dd#X'\JJyy	.	24ddd#X'\JJyy	.
.	[	.	.	.	.	.	.	.	[	32Ree/JJJ	.	.	32BB/JJJ	[	.	[	.	[	.	[	.	.	.	.	.	.	.	.	.	.	[[	.	.	.	.	.	.
*	*	*	*	*Xrep	*	*Xrep	*	*	*	*Xtremolo	*	*	*Xtremolo	*	*	*	*	*	*	*	*	*	*	*	*	*	*	*	*	*	*	*	*	*	*	*	*
*	*	*	*	*	*	*	*	*	*	*	*	*	*	*	*	*	*	*	*	*	*	*	*	*	*v	*v	*	*	*	*	*	*	*	*	*	*	*
=40	=40	=40	=40	=40	=40	=40	=40	=40	=40	=40	=40	=40	=40	=40	=40	=40	=40	=40	=40	=40	=40	=40	=40	=40	=40	=40	=40	=40	=40	=40	=40	=40	=40	=40	=40	=40
*	*	*	*	*	*	*	*	*	*	*	*	*	*	*	*	*	*	*	*	*	*	*	*	*	*	*	*	*	*^	*	*	*	*	*	*	*
16E\	.	4.ryy	.	16e\	.	16b 16g/	.	16eee\	.	16Ree/	16Ra\	.	16E\	.	16E\	.	16G/	.	16B/	[ [	16g 16e/	.	16E\	.	16b 16e/	.	16gg 16ee\	.	16ee/	16ee\	.	16gg 16ee\	.	16ee\yy	.	16eee\yy	.
16r	.	.	.	16r	.	16r	.	16r	.	16rc	16rEE	.	16r	.	16r	.	16r	.	16r	.	16r	.	16r	.	16r	.	16r	.	16rff	16rAyy	.	16r	.	16ryy	.	16ryy	.
!LO:TX:b:i:t=sec	!	!	!	!	!	!	!	!LO:TX:b:i:t=sec	!	!	!	!	!	!	!	!	!	!	!	!	!	!	!	!	!	!	!	!	!	!	!	!	!	!	!	!LO:TX:b:t=sec	!
8E\	.	.	.	8B 8E/	.	8ee 8b 8g\	.	8ee\	.	8Ree/	8Ra\	.	8E\	.	8E\	.	8G/	.	8B/	.	8ee 8e\	.	8E 8EE/	.	8b 8e/	.	8gg 8ee\	.	8b 8e/	8rAyy	.	8gg 8ee\	.	8e/yy	.	8ee\yy	.
8r	.	.	.	8r	.	8r	.	8r	.	8rc	8rEE	.	8r	.	8r	.	8r	.	8r	.	8r	.	8r	.	8r	.	8r	.	8rff	8rAyy	.	8r	.	8ryy	.	8ryy	.
*	*	*	*	*	*	*	*	*	*	*v	*v	*	*	*	*	*	*	*	*	*	*	*	*	*	*	*	*	*	*v	*v	*	*	*	*	*	*	*
=41	=41	=41	=41	=41	=41	=41	=41	=41	=41	=41	=41	=41	=41	=41	=41	=41	=41	=41	=41	=41	=41	=41	=41	=41	=41	=41	=41	=41	=41	=41	=41	=41	=41	=41	=41
*k[f#c#g#]	*	*k[f#c#g#]	*	*k[f#c#g#]	*	*k[f#c#g#]	*	*k[f#c#g#]	*	*k[f#c#g#]	*	*k[f#c#g#]	*	*k[f#c#g#]	*	*k[f#c#g#]	*	*k[f#c#g#]	*	*k[f#c#g#]	*	*k[f#c#g#]	*	*k[f#c#g#]	*	*k[f#c#g#]	*	*k[f#c#g#]	*	*k[f#c#g#]	*	*k[dnf#c#g#]	*	*k[dnf#c#g#]	*
*A:	*	*A:	*	*A:	*	*A:	*	*A:	*	*A:	*	*A:	*	*A:	*	*A:	*	*A:	*	*A:	*	*A:	*	*A:	*	*A:	*	*A:	*	*A:	*	*A:	*	*A:	*
*	*	*	*	*	*	*	*	*	*	*^	*	*	*	*	*	*	*	*	*	*	*	*	*	*	*	*	*	*	*	*	*	*	*	*	*
!LO:TX:b:t=pizz.	!	!	!	!	!	!	!LO:DY:rj	!	!	!	!	!	!	!	!LO:TX:a:t=1:problem=dopisane ołówkiem	!	!	!	!	!	!	!	!	!	!	!	!	!	!	!	!	!	!	!	!LO:TX:t=P:problem=takty 41-45 zapisane odnośnikami 1-5 do wcześniejszych taktów (zapis ołówkiem)	!
8AA/yy	.	16.c#LLyy 16.Eyy 16.AA\yy	.	16.A/LLyy	.	16.aLLyy 16.eyy 16.c#/yy	mfy	16.cc#LL 16.e 16.A/	.	16.Ree/LLyy	4.rEEyy	.	4.ryy	.	4.ryy	.	4.ryy	.	4.ryy	.	16.aLLyy 16.c#/yy	.	16.c#LLyy 16.A\yy	.	16.eLLyy 16.A/yy	.	4.ryy	.	4.ryy	.	16.cc#LLyy 16.a\yy	.	4.ryy	.	4.ryy	.
.	.	32c#JJkyy 32E\yy	.	32A/JJkyy	.	32a/JJkyy	.	32cc#JJk 32e/	.	32Ree/JJkyy	.	.	.	.	.	.	.	.	.	.	32aJJkyy 32c#/yy	.	32c#JJkyy 32A\yy	.	32eJJkyy 32A/yy	.	.	.	.	.	32cc#JJkyy 32a\yy	.	.	.	.	.
8ryy	.	8c#Lyy 8E\yy	.	8A/Lyy	.	8a/Lyy	.	8cc#L 8e/	.	8Ree/Lyy	.	.	.	.	.	.	.	.	.	.	8aLyy 8c#/yy	.	8c#Lyy 8A\yy	.	8eLyy 8A/yy	.	.	.	.	.	8cc#Lyy 8a\yy	.	.	.	.	.
8ryy	.	8c#Jyy 8E\yy	.	8A/Jyy	.	8a/Jyy	.	8cc#J 8e/	.	8Ree/Jyy	.	.	.	.	.	.	.	.	.	.	8aJyy 8c#/yy	.	8c#Jyy 8A\yy	.	8eJyy 8A/yy	.	.	.	.	.	8cc#Jyy 8a\yy	.	.	.	.	.
!!LO:PB:g=original
=42	=42	=42	=42	=42	=42	=42	=42	=42	=42	=42	=42	=42	=42	=42	=42	=42	=42	=42	=42	=42	=42	=42	=42	=42	=42	=42	=42	=42	=42	=42	=42	=42	=42	=42	=42	=42
*	*	*	*	*	*	*	*	*	*	*tremoloy	*	*	*	*	*	*	*	*	*	*	*	*	*	*	*	*	*	*	*	*	*	*	*	*	*	*
!	!	!	!	!	!	!	!	!	!	!	!	!	!	!	!LO:TX:a:t=2:problem=dopisane ołówkiem	!	!	!	!	!	!	!	!	!	!	!	!	!	!	!	!	!	!	!	!	!
8AA/yy	.	4eyy 4E\yy	.	4c#/yy	.	4cc#\yy	.	(>4ee 4e/	.	8Ree/Lyy	4.rEEyy	.	4.ryy	.	4.ryy	.	4.ryy	.	4.ryy	.	4cc#yy 4e/yy	.	4c#yy 4A\yy	.	4eyy 4A/yy	.	4.ryy	.	4.ryy	.	4eeyy 4cc#\yy	.	4.r	.	4.r	.
!LO:TX:b:t=l'arco	!	!	!	!	!	!	!	!	!	!	!	!	!	!	!	!	!	!	!	!	!	!	!	!	!	!	!	!	!	!	!	!	!	!	!	!
8ryy	.	.	.	.	.	.	.	.	.	8Ree/yy	.	.	.	.	.	.	.	.	.	.	.	.	.	.	.	.	.	.	.	.	.	.	.	.	.	.
8ryy	.	8c#yy 8E\yy	.	8A/yy	.	8a\yy	.	8cc# 8e/)	.	8Ree/Jyy	.	.	.	.	.	.	.	.	.	.	8ayy 8c#/yy	.	8c#yy 8A\yy	.	8eyy 8A/yy	.	.	.	.	.	8cc#yy 8a\yy	.	.	.	.	.
=43	=43	=43	=43	=43	=43	=43	=43	=43	=43	=43	=43	=43	=43	=43	=43	=43	=43	=43	=43	=43	=43	=43	=43	=43	=43	=43	=43	=43	=43	=43	=43	=43	=43	=43	=43	=43
*	*	*	*	*	*	*	*	*tuplet	*	*	*	*	*	*	*	*	*	*	*	*	*	*	*	*	*tremoloy	*	*	*	*	*	*	*	*	*	*	*
!	!	!	!	!	!	!	!	!LO:TUP:a:problem=klamra łukowa	!	!	!	!LO:DY:rj	!	!	!LO:TX:a:t=3:problem=dopisane ołówkiem	!LO:DY:rj	!	!LO:DY:a:rj	!	!LO:DY:rj	!	!	!	!	!	!LO:DY:rj	!	!LO:DY:rj	!	!	!LO:TUP:a:problem=klamra łukowa, kropka zamiast numeru	!LO:DY:a:rj	!	!	!	!
8AA/yy	fy	24d\LLyy	.	24f#\LLyy	.	24f#/LLyy	.	24dd\LL	sf	32Ree/LLLyy	8Ra\yy	fy	8ryy	.	16Ayy 16AA\yy	fy	16F#/yy	fy	16d\yy	fy	16ddyy 16f#/yy	.	16dyy 16F#\yy	.	8aLyy 8A/yy	fy	8ff#\Lyy	fy	8a\Lyy	.	24dd\LLyy	fy	4.r	.	4.r	.
.	.	.	.	.	.	.	.	.	.	32Ree/yy	.	.	.	.	.	.	.	.	.	.	.	.	.	.	.	.	.	.	.	.	.	.	.	.	.	.
.	.	24e\yy	.	24e\yy	.	24e/yy	.	24ee\	.	.	.	.	.	.	.	.	.	.	.	.	.	.	.	.	.	.	.	.	.	.	24eeyy 24cc#\yy	.	.	.	.	.
.	.	.	.	.	.	.	.	.	.	32Ree/yy	.	.	.	.	16ryy	.	16ryy	.	16ryy	.	16ryy	.	16ryy	.	.	.	.	.	.	.	.	.	.	.	.	.
.	.	24f#\JJyy	.	24d\JJyy	.	24d/JJyy	.	24ff#\JJ	.	.	.	.	.	.	.	.	.	.	.	.	.	.	.	.	.	.	.	.	.	.	24ff#JJyy 24dd\yy	.	.	.	.	.
.	.	.	.	.	.	.	.	.	.	32Ree/JJJyy	.	.	.	.	.	.	.	.	.	.	.	.	.	.	.	.	.	.	.	.	.	.	.	.	.	.
*	*	*	*	*	*	*	*	*	*	*Xtremolo	*	*	*	*	*	*	*	*	*	*	*	*	*	*	*	*	*	*	*	*	*	*	*	*	*	*
8ryy	.	8e\Lyy	.	8c#\yy	.	8c#/yy	.	8ee\L	.	8Ree/yy	8rEEyy	.	8E\yy	.	8ALyy 8AA\yy	.	8E/Lyy	.	8c#\Lyy	.	8cc#Lyy 8e/yy	.	8c#Lyy 8E\yy	.	8ayy 8A/yy	.	8ee\yy	.	8a\yy	.	8eeLyy 8cc#\yy	.	.	.	.	.
8AA/yy	.	8d#X\Jyy	.	8B#X\yy	.	8B#X/yy	.	8dd#X'\J	.	8Ree/yy	8Ra\yy	.	8ryy	.	8AJyy 8AA\yy	.	8D#X/Jyy	.	8B#X\Jyy	.	8b#XJyy 8d#X/yy	.	8B#XJyy 8F#\yy	.	8aJyy 8A/yy	.	8ff#Jyy 8dd\yy	.	8a\Jyy	.	8dd#XJyy 8b#X\yy	.	.	.	.	.
*	*	*	*	*	*	*	*	*	*	*	*	*	*	*	*	*	*	*	*	*	*	*	*	*	*Xtremolo	*	*	*	*	*	*	*	*	*	*	*
=44	=44	=44	=44	=44	=44	=44	=44	=44	=44	=44	=44	=44	=44	=44	=44	=44	=44	=44	=44	=44	=44	=44	=44	=44	=44	=44	=44	=44	=44	=44	=44	=44	=44	=44	=44	=44
*	*	*	*	*	*	*	*	*	*	*	*	*	*	*	*	*	*	*	*	*	*	*	*	*	*	*	*^	*	*	*	*	*	*	*	*	*
*	*	*	*	*	*	*	*	*	*	*tremolo	*	*	*	*	*	*	*	*	*	*	*	*	*	*	*	*	*	*	*	*	*	*	*	*	*	*	*
!	!	!	!	!	!	!	!	!	!	!	!	!	!	!	!LO:TX:a:t=4:problem=dopisane ołówkiem	!	!	!	!	!	!	!	!	!	!	!	!	!	!	!	!	!LO:S:s=2:note:problem=note-level slur	!	!	!	!	!
8AA/yy	.	(y4e\yy	.	(y4>c#yy 4E/yy	.	(y4c#/yy	.	(4ee\	.	(y32Ree/LLLyy	8Ra\yy	.	8E\yy	.	4Ayy 4AA\yy	.	4E/yy	.	4c#\yy	.	4cc#yy 4e/yy	.	4c#yy 4E\yy	.	4ayy 4A/yy	.	4ee/yy	4ee\yy	.	(y4a\yy	.	(y4eeyy (y>4cc#\yy	.	4.r	.	4.r	.
.	.	.	.	.	.	.	.	.	.	32Ree/yy	.	.	.	.	.	.	.	.	.	.	.	.	.	.	.	.	.	.	.	.	.	.	.	.	.	.	.
.	.	.	.	.	.	.	.	.	.	32Ree/yy	.	.	.	.	.	.	.	.	.	.	.	.	.	.	.	.	.	.	.	.	.	.	.	.	.	.	.
.	.	.	.	.	.	.	.	.	.	32Ree/JJyy	.	.	.	.	.	.	.	.	.	.	.	.	.	.	.	.	.	.	.	.	.	.	.	.	.	.	.
*	*	*	*	*	*	*	*	*	*	*Xtremolo	*	*	*	*	*	*	*	*	*	*	*	*	*	*	*	*	*	*	*	*	*	*	*	*	*	*	*
8ryy	.	.	.	.	.	.	.	.	.	8Ree/)yy	8rEEyy	.	8ryy	.	.	.	.	.	.	.	.	.	.	.	.	.	.	.	.	.	.	.	.	.	.	.	.
8ryy	.	8c#\)yy	.	8Ayy 8E/)yy	.	8A/)yy	.	8cc#\)	.	8Ree/Jyy	8rEEyy	.	8ryy	.	8Ayy 8AA\yy	.	8E/yy	.	8c#\yy	.	8ayy 8c#/yy	.	8c#yy 8E\yy	.	8ayy 8A/yy	.	8ee/yy	8ee\yy	.	8cc#yy 8a\)yy	.	8cc#)yy 8a\)yy	.	.	.	.	.
*	*	*	*	*	*	*	*	*	*	*	*	*	*	*	*	*	*	*	*	*	*	*	*	*	*	*	*v	*v	*	*	*	*	*	*	*	*	*
=45	=45	=45	=45	=45	=45	=45	=45	=45	=45	=45	=45	=45	=45	=45	=45	=45	=45	=45	=45	=45	=45	=45	=45	=45	=45	=45	=45	=45	=45	=45	=45	=45	=45	=45	=45	=45
*	*	*	*	*	*	*	*	*	*	*	*	*	*	*	*	*	*	*	*	*	*	*	*	*	*	*	*	*	*^	*	*	*	*	*	*	*
!	!	!	!	!	!	!	!	!	!	!	!	!	!	!	!LO:TX:a:t=5:problem=dopisane ołówkiem	!	!	!	!	!	!	!	!	!	!	!	!	!	!	!	!	!	!	!	!	!	!
8E\yy	py	4.ryy	.	8ryy	.	8r	.	8r	.	8ryy	8ryy	.	8ryy	.	8ryy	.	8ryy	.	8ryy	.	8ryy	.	8ryy	.	8ryy	.	8ryy	.	(y<32ee/LLLyy	4ryy	.	8r	.	4.ryy	.	(32eee\LLL	.
.	.	.	.	.	.	.	.	.	.	.	.	.	.	.	.	.	.	.	.	.	.	.	.	.	.	.	.	.	32dd/yy	.	.	.	.	.	.	32ddd\	.
.	.	.	.	.	.	.	.	.	.	.	.	.	.	.	.	.	.	.	.	.	.	.	.	.	.	.	.	.	32b/yy	.	.	.	.	.	.	32bb\	.
.	.	.	.	.	.	.	.	.	.	.	.	.	.	.	.	.	.	.	.	.	.	.	.	.	.	.	.	.	32g#/JJJyy	.	.	.	.	.	.	32gg#\JJJ	.
!	!	!	!	!	!	!	!	!	!	!	!	!	!	!	!	!	!	!	!	!	!	!	!	!LO:DY:rj	!	!	!	!	!	!	!	!	!	!	!	!	!
8ryy	.	.	.	8eLyy 8d\yy	.	8g#L 8B/	.	8r	.	8ryy	8rEEyy	.	8ryy	.	8ryy	.	8ryy	.	8ryy	.	8ryy	.	8BLyy 8G#\yy	py	8ryy	.	8eeLyy 8e/yy	.	16e/)yy	.	.	8r	.	.	.	16ee\)	.
.	.	.	.	.	.	.	.	.	.	.	.	.	.	.	.	.	.	.	.	.	.	.	.	.	.	.	.	.	16rffyy	.	.	.	.	.	.	16r	.
8E\yy	sfy	.	.	8eJyy 8d\yy	sfy	8g#J 8B/	sf	8gg# 8b 8e\	.	8Ree/yy	8Ra\yy	.	8E\yy	.	8Byy 8E\yy	.	8d\yy	.	8g#\yy	sfy	8eeyy 8e/yy	.	8BJyy 8G#\yy	.	8byy 8e\yy	.	8eeJyy 8e/yy	.	8ee/yy	8g#\yy	.	8gg# 8dd\	.	.	.	8eee^<\	.
=46	=46	=46	=46	=46	=46	=46	=46	=46	=46	=46	=46	=46	=46	=46	=46	=46	=46	=46	=46	=46	=46	=46	=46	=46	=46	=46	=46	=46	=46	=46	=46	=46	=46	=46	=46	=46	=46
!	!	!	!	!	!	!	!	!	!	!	!	!	!	!	!LO:TX:a:t=6:problem=dopisane ołówkiem	!	!	!	!	!	!	!	!	!	!	!	!	!	!	!	!	!	!	!LO:TX:a:t=Col Flauto//	!	!	!
8AA/	.	4.ryy	.	8r	.	8r	.	8r	.	8r	8ryy	.	8r	.	8r	.	8r	.	8r	.	8r	.	8r	.	8r	.	8r	.	32ff#/LLL	8rA	.	8r	.	(y>32ff#\LLLyy	.	(32fff#\LLL	.
.	.	.	.	.	.	.	.	.	.	.	.	.	.	.	.	.	.	.	.	.	.	.	.	.	.	.	.	.	32ee/	.	.	.	.	32ee\yy	.	32eee\	.
.	.	.	.	.	.	.	.	.	.	.	.	.	.	.	.	.	.	.	.	.	.	.	.	.	.	.	.	.	32cc#/	.	.	.	.	32cc#\yy	.	32ccc#\	.
.	.	.	.	.	.	.	.	.	.	.	.	.	.	.	.	.	.	.	.	.	.	.	.	.	.	.	.	.	32a/JJJ	.	.	.	.	32a\JJJyy	.	32aa\JJJ	.
8r	.	.	.	8eL 8A\	.	8aL 8c#/	.	8r	.	8r	8ryy	.	8r	.	8r	.	8r	.	8r	.	8r	.	8c#L 8A\	.	8r	.	8eeL 8e/	.	16e/	8rA	.	8r	.	16e\)yy	.	16ee\)	.
.	.	.	.	.	.	.	.	.	.	.	.	.	.	.	.	.	.	.	.	.	.	.	.	.	.	.	.	.	16rff	.	.	.	.	16ryy	.	16r	.
8r	.	.	.	8eJ 8A\	.	8aJ 8c#/	.	8aa 8cc# 8e\	.	8Ree/	8Ra\	.	8E\	.	8A 8AA\	.	8c#\	.	8e\	sf	8ee 8e\	.	8c#J 8A\	.	8a 8c#/	.	8eeJ 8e/	sf	8cc#/	8a\	.	8aa 8cc#\	.	8ee\|yy	.	8eee\|	.
*	*	*	*	*	*	*	*	*	*	*v	*v	*	*	*	*	*	*	*	*	*	*	*	*	*	*	*	*	*	*	*	*	*	*	*	*	*	*
=47	=47	=47	=47	=47	=47	=47	=47	=47	=47	=47	=47	=47	=47	=47	=47	=47	=47	=47	=47	=47	=47	=47	=47	=47	=47	=47	=47	=47	=47	=47	=47	=47	=47	=47	=47	=47
*	*	*	*	*	*	*	*	*	*	*	*	*	*	*^	*	*	*	*	*	*	*	*	*	*	*	*	*	*	*	*	*^	*	*	*	*	*
*	*	*	*	*	*	*	*	*Xtuplet	*	*	*	*	*	*	*	*	*	*	*	*	*	*	*	*	*	*	*	*	*	*	*	*	*	*	*	*	*	*
!	!	!	!	!	!	!	!	!	!	!	!	!	!	!	!LO:TX:a:t=7:problem=dopisane ołówkiem	!LO:DY:rj	!	!	!	!LO:DY:rj	!	!	!	!	!	!	!	!	!	!	!	!	!	!	!	!	!	!
8E\	.	4.ryy	.	8r	.	8r	.	24b'\LL	.	4.r	.	4.r	.	(4G#/	4.E\	p	4.d\	.	4.e'\	p	4.r	.	8r	.	4.r	.	8r	.	24b'/LL	4.r	.	[4dd/	4g#\	.	24b'\LLyy	.	24bb'\LL	.
.	.	.	.	.	.	.	.	(24gg#\	.	.	.	.	.	.	.	.	.	.	.	.	.	.	.	.	.	.	.	.	(24gg#/	.	.	.	.	.	(y24gg#\yy	.	(24ggg#\	.
.	.	.	.	.	.	.	.	24ff#\JJ	.	.	.	.	.	.	.	.	.	.	.	.	.	.	.	.	.	.	.	.	24ff#/JJ)	.	.	.	.	.	24ff#\JJ)yy	.	24fff#\JJ)	.
8r	.	.	.	8eL 8d\	.	8g#L 8B/	.	16ee\)	.	.	.	.	.	.	.	.	.	.	.	.	.	.	8dL 8B\	.	.	.	8eeL 8e/	.	16ee/	.	.	.	.	.	16ee\yy	.	16eee\	.
.	.	.	.	.	.	.	.	16r	.	.	.	.	.	.	.	.	.	.	.	.	.	.	.	.	.	.	.	.	16r	.	.	.	.	.	16ryy	.	16r	.
8r	.	.	.	8eJ 8d\	.	8g#J 8B/	.	8g#/	.	.	.	.	.	8B/)	.	.	.	.	.	.	.	.	8dJ 8B\	.	.	.	8eeJ 8e/	.	8g#/	.	.	8dd/]	8b\	.	8g#\yy	.	8gg#\	.
*	*	*	*	*	*	*	*	*	*	*	*	*	*	*v	*v	*	*	*	*	*	*	*	*	*	*	*	*	*	*	*	*	*	*	*	*	*	*	*
!!LO:PB:g=original
=48	=48	=48	=48	=48	=48	=48	=48	=48	=48	=48	=48	=48	=48	=48	=48	=48	=48	=48	=48	=48	=48	=48	=48	=48	=48	=48	=48	=48	=48	=48	=48	=48	=48	=48	=48	=48	=48
*	*	*	*	*	*	*	*	*	*	*^	*	*	*	*	*	*	*	*	*	*	*	*	*	*	*	*	*	*	*	*	*	*	*	*	*	*	*
!	!	!	!	!	!	!	!	!	!	!	!	!	!	!	!LO:TX:a:t=8:problem=dopisane ołówkiem	!	!	!	!	!	!	!	!	!	!	!	!	!	!	!	!	!	!	!	!LO:TX:a:t=//	!	!	!
16A\	.	4.ryy	.	16e 16A\	.	16a 16c#/	.	(32b/KLL	.	8r	8rEEyy	.	8r	.	16A 16AA\	.	16c#\	.	16e\	.	8r	.	16c# 16A\	.	8r	.	16ee 16e/	.	16a/	8r	.	16cc#/	16a\	.	(y32b\KLLyy	.	(32bb\KLL	.
.	.	.	.	.	.	.	.	16a/JJ)	.	.	.	.	.	.	.	.	.	.	.	.	.	.	.	.	.	.	.	.	.	.	.	.	.	.	16a\JJ)yy	.	16aa\JJ)	.
16r	.	.	.	16r	.	16r	.	.	.	.	.	.	.	.	16r	.	16r	.	16r	.	.	.	16r	.	.	.	16r	.	16r	.	.	16r	16rcyy	.	.	.	.	.
.	.	.	.	.	.	.	.	32r	.	.	.	.	.	.	.	.	.	.	.	.	.	.	.	.	.	.	.	.	.	.	.	.	.	.	32ryy	.	32r	.
!	!LO:DY:rj	!	!	!	!	!	!LO:DY:a:rj	!	!	!	!	!	!	!LO:DY:a:rj	!	!	!	!	!	!LO:DY:rj	!	!LO:DY:a:rj	!	!	!	!	!	!LO:DY:rj	!	!	!LO:DY:rj	!	!	!	!	!	!	!LO:DY:rj
8AA/	f	.	.	8a 8e 8A\	.	8a 8c#/	f	8aa 8cc#\	.	8Ree/	8Ra\	.	8E\	f	8A 8AA\	.	8c#\	.	8a\	f	8ee 8e\	f	8A 8AA\	.	8a 8c#/	.	8ee 8e/	f	8a/	8a\	f	8aa 8cc#\	4rcyy	.	8a\yy	.	8aa\	f
8r	.	.	.	8r	.	8r	.	8r	.	8r	8rEEyy	.	8r	.	8r	.	8r	.	8r	.	8r	.	8r	.	8r	.	8r	.	8r	8ryy	.	8r	.	.	8ryy	.	8r	.
*	*	*	*	*	*	*	*	*	*	*	*	*	*	*	*	*	*	*	*	*	*	*	*	*	*	*	*	*	*	*	*	*v	*v	*	*	*	*	*
=49:|!|:	=49:|!|:	=49:|!|:	=49:|!|:	=49:|!|:	=49:|!|:	=49:|!|:	=49:|!|:	=49:|!|:	=49:|!|:	=49:|!|:	=49:|!|:	=49:|!|:	=49:|!|:	=49:|!|:	=49:|!|:	=49:|!|:	=49:|!|:	=49:|!|:	=49:|!|:	=49:|!|:	=49:|!|:	=49:|!|:	=49:|!|:	=49:|!|:	=49:|!|:	=49:|!|:	=49:|!|:	=49:|!|:	=49:|!|:	=49:|!|:	=49:|!|:	=49:|!|:	=49:|!|:	=49:|!|:	=49:|!|:	=49:|!|:	=49:|!|:
*>F	*>F	*>F	*>F	*>F	*>F	*>F	*>F	*>F	*>F	*>F	*>F	*>F	*>F	*>F	*>F	*	*>F	*	*>F	*>F	*>F	*>F	*>F	*>F	*>F	*>F	*>F	*>F	*>F	*>F	*>F	*>F	*>F	*>F	*>F	*>F	*>F
8r	.	4.r	.	8r	.	8r	.	8r	.	8rc	4.rEE	.	4.r	.	16.C#/LL	.	16.c#\LL	.	16.c#\LL	.	16.cc#LL 16.c#/	.	8r	.	16.cc#LL 16.c#/	.	8r	.	8r	8ryy	.	8r	.	4.r	.	4.r	.
.	.	.	.	.	.	.	.	.	.	.	.	.	.	.	32C#/JJk	.	32c#\JJk	.	32c#\JJk	.	32cc#JJk 32c#/	.	.	.	32cc#JJk 32c#/	.	.	.	.	.	.	.	.	.	.	.	.
8r	.	.	.	8r	.	8r	.	8r	.	8rc	.	.	.	.	8C#/L	.	8c#\L	.	8c#\L	.	8cc#L 8c#/	.	8r	.	8cc#L 8c#/	.	8r	.	8r	8rAyy	.	8r	.	.	.	.	.
8C#/	.	.	.	8e#X 8c#\	.	8g# 8c#/	.	8gg# 8cc#'\	.	32Ree/LLL	.	.	.	.	8C#/J	.	8G#\J	.	8c#\J	.	8g#J 8e#X/	.	8G# 8E#X'\	.	8cc#J 8c#/	.	8gg# 8ee#X\	.	8cc#/	8cc#\	.	8gg# 8ee#X'\	.	.	.	.	.
.	.	.	.	.	.	.	.	.	.	32Ree/	.	.	.	.	.	.	.	.	.	.	.	.	.	.	.	.	.	.	.	.	.	.	.	.	.	.	.
.	.	.	.	.	.	.	.	.	.	32Ree/	.	.	.	.	.	.	.	.	.	.	.	.	.	.	.	.	.	.	.	.	.	.	.	.	.	.	.
.	.	.	.	.	.	.	.	.	.	32Ree/JJJ	.	.	.	.	.	.	.	.	.	.	.	.	.	.	.	.	.	.	.	.	.	.	.	.	.	.	.
=50	=50	=50	=50	=50	=50	=50	=50	=50	=50	=50	=50	=50	=50	=50	=50	=50	=50	=50	=50	=50	=50	=50	=50	=50	=50	=50	=50	=50	=50	=50	=50	=50	=50	=50	=50	=50	=50
*	*	*	*	*	*	*	*	*	*	*tremolo	*	*	*	*	*	*	*	*	*tremolo	*	*	*	*	*	*tremolo	*	*	*	*tremolo	*tremolo	*	*	*	*	*	*	*
8F#'^<\L	.	4.r	.	8f#L 8c#'\	.	8aL 8c#^>/	.	8aaL 8cc#'\	.	8Ree/L	8Ra\L	.	4.r	.	8F#\L	.	8A/L	.	8c#\L	.	8aL 8f#'^>/	.	8AL 8F#'\	.	8cc#L 8c#/	.	8aaL 8ff#\	.	8cc#/L	8cc#\L	.	8aa^<L 8ff#'\	.	4.r	.	4.r	.
8C#'^<\	.	.	.	8e#X 8c#'\	.	8g# 8c#^>/	.	8gg# 8cc#'\	.	8Ree/	8Ra\	.	.	.	8C#\	.	8G#/	.	8c#\	.	8g# 8e#X'^>/	.	8G# 8E#X'\	.	8cc# 8c#/	.	8gg# 8ee#X\	.	8cc#/	8cc#\	.	8gg#^< 8ee#X'\	.	.	.	.	.
8F#'^<\J	.	.	.	8f#J 8c#'\	.	8aJ 8c#^>/	.	8aaJ 8cc#'\	.	8Ree/J	8Ra\J	.	.	.	8F#\J	.	8A/J	.	8c#\J	.	8aJ 8f#'^>/	.	8AJ 8F#'\	.	8cc#J 8c#/	.	8aaJ 8ff#\	.	8cc#/J	8cc#\J	.	8aa^<J 8ff#'\	.	.	.	.	.
*	*	*	*	*	*	*	*	*	*	*Xtremolo	*	*	*	*	*	*	*	*	*Xtremolo	*	*	*	*	*	*Xtremolo	*	*	*	*Xtremolo	*Xtremolo	*	*	*	*	*	*	*
=51	=51	=51	=51	=51	=51	=51	=51	=51	=51	=51	=51	=51	=51	=51	=51	=51	=51	=51	=51	=51	=51	=51	=51	=51	=51	=51	=51	=51	=51	=51	=51	=51	=51	=51	=51	=51	=51
8r	.	4.r	.	8r	.	8r	.	8r	.	8rc	4.rEE	.	8r	.	16.E\LL	.	16.e\LL	.	16.e\LL	.	16.eeLL 16.e/	.	8r	.	8r	.	16.eenLL 16.e/	.	8r	8ryy	.	8r	.	4.r	.	4.r	.
.	.	.	.	.	.	.	.	.	.	.	.	.	.	.	32E\JJk	.	32e\JJk	.	32e\JJk	.	32eeJJk 32e/	.	.	.	.	.	32eeJJk 32e/	.	.	.	.	.	.	.	.	.	.
8r	.	.	.	8r	.	8r	.	8r	.	8rc	.	.	8r	.	8E\L	.	8e\L	.	8e\L	.	8eeL 8e/	.	8r	.	8r	.	8eeL 8e/	.	8r	8ryy	.	8r	.	.	.	.	.
8E\	.	.	.	8g# 8B\	.	8b 8e/	.	8bb 8ee\	.	32Ree/LLL	.	.	8E\	.	8E\J	.	8B\J	.	8e\J	.	8bJ 8g#/	.	8B 8G#'\	.	8b 8e/	.	8eeJ 8e/	.	8ee/	8ee\	.	8bb 8gg#\	.	.	.	.	.
.	.	.	.	.	.	.	.	.	.	32Ree/	.	.	.	.	.	.	.	.	.	.	.	.	.	.	.	.	.	.	.	.	.	.	.	.	.	.	.
.	.	.	.	.	.	.	.	.	.	32Ree/	.	.	.	.	.	.	.	.	.	.	.	.	.	.	.	.	.	.	.	.	.	.	.	.	.	.	.
.	.	.	.	.	.	.	.	.	.	32Ree/JJJ	.	.	.	.	.	.	.	.	.	.	.	.	.	.	.	.	.	.	.	.	.	.	.	.	.	.	.
=52	=52	=52	=52	=52	=52	=52	=52	=52	=52	=52	=52	=52	=52	=52	=52	=52	=52	=52	=52	=52	=52	=52	=52	=52	=52	=52	=52	=52	=52	=52	=52	=52	=52	=52	=52	=52	=52
*	*	*	*	*	*	*	*	*	*	*tremolo	*	*	*	*	*	*	*	*	*tremolo	*	*	*	*	*	*	*	*tremolo	*	*tremolo	*tremolo	*	*	*	*	*	*	*
8A'^<\L	.	4.r	.	8aL 8c#\	.	8cc#L 8e^>/	.	8ccc#L 8ee'\	.	8Ree/L	8Ra\L	.	8E\L	.	8AL 8AA/	.	8c#\L	.	8e\L	.	8cc#L 8a'^>/	.	8c#L 8A'\	.	8cc#L 8a\	.	8eeL 8e/	.	8ee/L	8ee\L	.	8ccc#^<L 8aa'\	.	4.r	.	4.r	.
8E'^<\	.	.	.	8g# 8B\	.	8b 8e^>/	.	8bb 8ee'\	.	8Ree/	8Ra\	.	8ET\	.	8E/	.	8B\	.	8e\	.	8b 8g#'^>/	.	8B 8G#'\	.	8b 8e\	.	8ee 8e/	.	8ee/	8ee\	.	8bb^< 8gg#'\	.	.	.	.	.
8A'^<\J	.	.	.	8aJ 8c#\	.	8cc#J 8e^>/	.	8ccc#J 8ee'\	.	8Ree/J	8Ra\J	.	8E\J	.	8AJ 8AA/	.	8c#\J	.	8e\J	.	8cc#J 8a'^>/	.	8c#J 8A'\	.	8cc#J 8a\	.	8eeJ 8e/	.	8ee/J	8ee\J	.	8ccc#^<J 8aa'\	.	.	.	.	.
*	*	*	*	*	*	*	*	*	*	*Xtremolo	*	*	*	*	*	*	*	*	*Xtremolo	*	*	*	*	*	*	*	*Xtremolo	*	*Xtremolo	*Xtremolo	*	*	*	*	*	*	*
!!LO:PB:g=original
=53	=53	=53	=53	=53	=53	=53	=53	=53	=53	=53	=53	=53	=53	=53	=53	=53	=53	=53	=53	=53	=53	=53	=53	=53	=53	=53	=53	=53	=53	=53	=53	=53	=53	=53	=53	=53	=53
*	*	*	*	*	*	*	*	*	*	*	*	*	*	*	*	*	*	*	*	*	*	*	*	*	*^	*	*	*	*	*	*	*	*	*	*	*	*
*	*	*	*	*	*	*	*	*	*	*	*	*	*	*	*	*	*	*	*	*	*	*	*	*	*	*	*	*	*	*tuplet	*	*	*	*	*	*	*	*
!	!	!	!	!	!	!	!	!	!	!	!	!	!	!	!	!	!	!	!	!	!	!	!	!	!	!	!	!	!	!	!	!	!	!	!LO:TX:a:t=Col Flauto	!	!	!
!	!	!	!	!	!	!	!	!	!	!	!	!	!	!	!	!	!	!	!	!	!	!	!	!LO:DY:rj	!	!	!	!	!LO:DY:rj	!LO:TUP:a:problem=klamra łukowa	!	!	!	!	!LO:TUP:a:problem=klamra łukowa	!	!LO:TUP:a:problem=klamra łukowa	!
8BB/	.	16BB\LL	.	8r	.	8r	.	4.r	.	8rc	4.rEE	.	4.r	.	4.r	.	4.r	.	4.r	.	4.r	.	16BB'\LL	p	4.b/	4.a\	.	4.ff# 4.b/	p	24b/LL	4.rA	.	4.r	.	24b\LLyy	.	24bb\LL	.
.	.	.	.	.	.	.	.	.	.	.	.	.	.	.	.	.	.	.	.	.	.	.	.	.	.	.	.	.	.	24cc#/	.	.	.	.	24cc#\yy	.	24ccc#\	.
.	.	16D\	.	.	.	.	.	.	.	.	.	.	.	.	.	.	.	.	.	.	.	.	16D#X'\	.	.	.	.	.	.	.	.	.	.	.	.	.	.	.
.	.	.	.	.	.	.	.	.	.	.	.	.	.	.	.	.	.	.	.	.	.	.	.	.	.	.	.	.	.	24b/JJ	.	.	.	.	24b\JJyy	.	24bb\JJ	.
!	!	!	!	!	!	!	!	!	!	!	!	!LO:DY:a:rj	!	!	!	!	!	!	!	!	!	!	!	!	!	!	!	!	!	!	!	!	!	!	!	!	!	!
8r	.	16F#\	.	8d#X\L	.	8aL 8B/	.	.	.	8Ree/L	.	p	.	.	.	.	.	.	.	.	.	.	16F#'\	.	.	.	.	.	.	8a/L	.	.	.	.	8a\Lyy	.	8aa\L	.
.	.	16B\JJ	.	.	.	.	.	.	.	.	.	.	.	.	.	.	.	.	.	.	.	.	16B'\JJ	.	.	.	.	.	.	.	.	.	.	.	.	.	.	.
8r	.	(32d#X\LLL	.	8d#\J	.	8aJ 8B/	.	.	.	8Ree/J	.	.	.	.	.	.	.	.	.	.	.	.	(32d#X\LLL	.	.	.	.	.	.	16f#/L	.	.	.	.	16f#\Lyy	.	16ff#\L	.
.	.	32c#\J)	.	.	.	.	.	.	.	.	.	.	.	.	.	.	.	.	.	.	.	.	32c#\J)	.	.	.	.	.	.	.	.	.	.	.	.	.	.	.
.	.	16B\JJ	.	.	.	.	.	.	.	.	.	.	.	.	.	.	.	.	.	.	.	.	16B'\JJ	.	.	.	.	.	.	16g#/JJ	.	.	.	.	16g#\JJyy	.	16gg#\JJ	.
*	*	*	*	*	*	*	*	*	*	*	*	*	*	*	*	*	*	*	*	*	*	*	*	*	*v	*v	*	*	*	*	*	*	*	*	*	*	*	*
=54	=54	=54	=54	=54	=54	=54	=54	=54	=54	=54	=54	=54	=54	=54	=54	=54	=54	=54	=54	=54	=54	=54	=54	=54	=54	=54	=54	=54	=54	=54	=54	=54	=54	=54	=54	=54	=54
*	*	*	*	*	*	*	*	*	*	*	*	*	*	*	*	*	*	*	*	*	*	*	*	*	*	*	*^	*	*	*	*	*	*	*	*	*	*
8E\	.	(16E\LL	.	8r	.	8r	.	8r	.	8rc	4.rEE	.	4.r	.	4.r	.	4.r	.	4.r	.	4.r	.	(16E\LL	.	4.b 4.e/	.	4.gg#/	4.ee\	.	8e/	4.rA	.	4.r	.	8e\yy	.	8ee\	.
.	.	16G#\)	.	.	.	.	.	.	.	.	.	.	.	.	.	.	.	.	.	.	.	.	16G#\)	.	.	.	.	.	.	.	.	.	.	.	.	.	.	.
8r	.	16B'\	.	8e\L	.	8g#L 8B/	.	8r	.	8Ree/	.	.	.	.	.	.	.	.	.	.	.	.	16B'\	.	.	.	.	.	.	8rff	.	.	.	.	8ryy	.	8r	.
.	.	16B'\	.	.	.	.	.	.	.	.	.	.	.	.	.	.	.	.	.	.	.	.	16B'\	.	.	.	.	.	.	.	.	.	.	.	.	.	.	.
8r	.	16G#'\	.	8e\J	.	8g#J 8B/	.	(32ee\LLL	.	8rc	.	.	.	.	.	.	.	.	.	.	.	.	16G#'\	.	.	.	.	.	.	(<32e/LLL	.	.	.	.	(y32e\LLLyy	.	(32ee\LLL	.
.	.	.	.	.	.	.	.	32ff#\J	.	.	.	.	.	.	.	.	.	.	.	.	.	.	.	.	.	.	.	.	.	32f#/J	.	.	.	.	32f#\Jyy	.	32ff#\J	.
.	.	16E'\JJ	.	.	.	.	.	16gg#\JJ)	.	.	.	.	.	.	.	.	.	.	.	.	.	.	16E'\JJ	.	.	.	.	.	.	16g#/JJ)	.	.	.	.	16g#\JJ)yy	.	16gg#\JJ)	.
*	*	*	*	*	*	*	*	*	*	*	*	*	*	*	*	*	*	*	*	*	*	*	*	*	*	*	*v	*v	*	*	*	*	*	*	*	*	*	*
=55	=55	=55	=55	=55	=55	=55	=55	=55	=55	=55	=55	=55	=55	=55	=55	=55	=55	=55	=55	=55	=55	=55	=55	=55	=55	=55	=55	=55	=55	=55	=55	=55	=55	=55	=55	=55	=55
*	*	*	*	*	*	*	*	*	*	*	*	*	*	*	*	*	*	*	*	*	*	*	*	*	*^	*	*	*	*	*	*	*	*	*	*	*	*
!	!	!	!	!	!	!	!	!	!	!	!	!	!	!	!	!	!	!	!	!	!	!	!	!	!	!	!	!	!	!LO:TUP:a:problem=klamra łukowa	!	!	!	!	!LO:TUP:a:problem=klamra łukowa	!	!LO:TUP:a:problem=klamra łukowa	!
8BB/	.	16BB\LL	.	8r	.	8r	.	4.r	.	8rc	4.rEE	.	4.r	.	4.r	.	4.r	.	4.r	.	4.r	.	16BB'\LL	.	4.b/	4.a\	.	4.ff# 4.b/	.	24b/LL	4.rA	.	4.r	.	24b\LLyy	.	24bb\LL	.
.	.	.	.	.	.	.	.	.	.	.	.	.	.	.	.	.	.	.	.	.	.	.	.	.	.	.	.	.	.	24cc#/	.	.	.	.	24cc#\yy	.	24ccc#\	.
.	.	16D\	.	.	.	.	.	.	.	.	.	.	.	.	.	.	.	.	.	.	.	.	16D#X'\	.	.	.	.	.	.	.	.	.	.	.	.	.	.	.
.	.	.	.	.	.	.	.	.	.	.	.	.	.	.	.	.	.	.	.	.	.	.	.	.	.	.	.	.	.	24b/JJ	.	.	.	.	24b\JJyy	.	24bb\JJ	.
8r	.	16F#'\	.	8d#X\L	.	8aL 8B/	.	.	.	8Ree/L	.	.	.	.	.	.	.	.	.	.	.	.	16F#'\	.	.	.	.	.	.	8a/L	.	.	.	.	8a\Lyy	.	8aa\L	.
.	.	16B'\	.	.	.	.	.	.	.	.	.	.	.	.	.	.	.	.	.	.	.	.	16B'\JJ	.	.	.	.	.	.	.	.	.	.	.	.	.	.	.
8r	.	(32d#X\L	.	8d#\J	.	8aJ 8B/	.	.	.	8Ree/J	.	.	.	.	.	.	.	.	.	.	.	.	(32d#X\LLL	.	.	.	.	.	.	16f#/L	.	.	.	.	16f#\Lyy	.	16ff#\L	.
.	.	32c#\J)	.	.	.	.	.	.	.	.	.	.	.	.	.	.	.	.	.	.	.	.	32c#\J)	.	.	.	.	.	.	.	.	.	.	.	.	.	.	.
.	.	16B\JJ	.	.	.	.	.	.	.	.	.	.	.	.	.	.	.	.	.	.	.	.	16B'\JJ	.	.	.	.	.	.	16g#/JJ	.	.	.	.	16g#\JJyy	.	16gg#\JJ	.
*	*	*	*	*	*	*	*	*	*	*	*	*	*	*	*	*	*	*	*	*	*	*	*	*	*v	*v	*	*	*	*	*	*	*	*	*	*	*	*
=56	=56	=56	=56	=56	=56	=56	=56	=56	=56	=56	=56	=56	=56	=56	=56	=56	=56	=56	=56	=56	=56	=56	=56	=56	=56	=56	=56	=56	=56	=56	=56	=56	=56	=56	=56	=56	=56
*	*	*	*	*	*	*	*	*	*	*	*	*	*	*	*	*	*	*	*	*	*	*	*	*	*	*	*^	*	*	*	*	*^	*	*	*	*	*
16E\	.	16e\	.	16e\	.	16g# 16B/	.	8r	.	8rc	8rEE	.	8r	.	8r	.	8r	.	8r	.	8r	.	16e\	.	16b 16e/	.	16gg#/	16ee\	.	16e/	8rAyy	.	8r	8rcyy	.	16e\yy	.	16ee\	.
16r	.	16r	.	16r	.	16r	.	.	.	.	.	.	.	.	.	.	.	.	.	.	.	.	16r	.	16r	.	16r	16reyy	.	16rff	.	.	.	.	.	16ryy	.	16r	.
!	!	!	!	!	!	!	!	!	!	!	!	!	!	!LO:DY:rj	!	!LO:DY:rj	!	!	!	!LO:DY:rj	!	!	!	!	!	!LO:DY:rj	!	!	!	!	!	!LO:DY:rj	!	!	!	!	!	!	!
8E^<\	.	8E\|<	.	8B 8E/	.	8ee 8g#^\	.	8eee 8ee\	.	8Ree/	8Ra\	.	8E\	f	8B 8E\	f	8G#/	.	8e\	f	16.r	.	16.E\LL	.	8b 8e/	f	8gg#/	8ee\	.	8ee/	8g#\	f	16.ee'/LL	16.g#\LL	.	8ee^<\yy	.	8eee^<\	.
.	.	.	.	.	.	.	.	.	.	.	.	.	.	.	.	.	.	.	.	.	32ddKLL 32b/|>	.	32dK 32B\|	.	.	.	.	.	.	.	.	.	32dd'/K	32b\K	.	.	.	.	.
8r	.	8r	.	8r	.	8r	.	8r	.	8r	8rEEyy	.	8r	.	8r	.	8r	.	8r	.	16.cc# 16.a/|>	.	16.c# 16.A\|	.	8r	.	8r	8reyy	.	8rff	8rAyy	.	16.cc#'/	16.a\	.	8ryy	.	8r	.
.	.	.	.	.	.	.	.	.	.	.	.	.	.	.	.	.	.	.	.	.	32bJJk 32e/|>	.	32BJJk 32E\|	.	.	.	.	.	.	.	.	.	32b'/JJk	32e\JJk	.	.	.	.	.
*	*	*	*	*	*	*	*	*	*	*	*	*	*	*	*	*	*	*	*	*	*	*	*	*	*	*	*v	*v	*	*	*	*	*v	*v	*	*	*	*	*
*	*	*	*	*	*	*	*	*	*	*	*	*	*	*	*	*	*	*	*	*	*	*	*	*	*	*	*	*	*v	*v	*	*	*	*	*	*	*
=57	=57	=57	=57	=57	=57	=57	=57	=57	=57	=57	=57	=57	=57	=57	=57	=57	=57	=57	=57	=57	=57	=57	=57	=57	=57	=57	=57	=57	=57	=57	=57	=57	=57	=57	=57	=57
!LO:TX:b:t=pizz.	!	!	!	!	!	!	!LO:DY:rj	!	!	!	!	!	!	!	!	!	!	!	!	!	!	!	!	!	!	!	!	!	!	!	!	!	!	!	!LO:TX:t=P:problem=takty 58-64 zapisane odnośnikami 1-8 do wcześniejszych taktów (zapis ołówkiem)	!
8AA/yy	.	16.c#LLyy 16.Eyy 16.AA\yy	.	16.A/LLyy	.	16.aLLyy 16.eyy 16.c#/yy	mfy	16.cc#LL 16.e 16.A/	.	16.Ree/LLyy	4.rEEyy	.	4.ryy	.	4.ryy	.	4.ryy	.	4.ryy	.	16.aLLyy 16.c#/yy	.	16.c#LLyy 16.A\yy	.	16.eLLyy 16.A/yy	.	4.ryy	.	4.ryy	.	16.cc#LLyy 16.a\yy	.	4.ryy	.	4.ryy	.
.	.	32c#JJkyy 32E\yy	.	32A/JJkyy	.	32a/JJkyy	.	32cc#JJk 32e/	.	32Ree/JJkyy	.	.	.	.	.	.	.	.	.	.	32aJJkyy 32c#/yy	.	32c#JJkyy 32A\yy	.	32eJJkyy 32A/yy	.	.	.	.	.	32cc#JJkyy 32a\yy	.	.	.	.	.
8ryy	.	8c#Lyy 8E\yy	.	8A/Lyy	.	8a/Lyy	.	8cc#L 8e/	.	8Ree/Lyy	.	.	.	.	.	.	.	.	.	.	8aLyy 8c#/yy	.	8c#Lyy 8A\yy	.	8eLyy 8A/yy	.	.	.	.	.	8cc#Lyy 8a\yy	.	.	.	.	.
8ryy	.	8c#Jyy 8E\yy	.	8A/Jyy	.	8a/Jyy	.	8cc#J 8e/	.	8Ree/Jyy	.	.	.	.	.	.	.	.	.	.	8aJyy 8c#/yy	.	8c#Jyy 8A\yy	.	8eJyy 8A/yy	.	.	.	.	.	8cc#Jyy 8a\yy	.	.	.	.	.
!!LO:PB:g=original
=58	=58	=58	=58	=58	=58	=58	=58	=58	=58	=58	=58	=58	=58	=58	=58	=58	=58	=58	=58	=58	=58	=58	=58	=58	=58	=58	=58	=58	=58	=58	=58	=58	=58	=58	=58	=58
*	*	*	*	*	*	*	*	*	*	*tremoloy	*	*	*	*	*	*	*	*	*	*	*	*	*	*	*	*	*	*	*	*	*	*	*	*	*	*
!	!	!	!	!	!	!	!	!	!	!	!	!	!	!	!	!	!	!	!	!	!	!	!	!	!	!	!	!	!	!	!	!	!	!	!	!
8AA/yy	.	4eyy 4E\yy	.	4c#/yy	.	4cc#\yy	.	(>4ee 4e/	.	8Ree/Lyy	4.rEEyy	.	4.ryy	.	4.ryy	.	4.ryy	.	4.ryy	.	4cc#yy 4e/yy	.	4c#yy 4A\yy	.	4eyy 4A/yy	.	4.ryy	.	4.ryy	.	4eeyy 4cc#\yy	.	4.ryy	.	4.ryy	.
!LO:TX:b:t=l'arco	!	!	!	!	!	!	!	!	!	!	!	!	!	!	!	!	!	!	!	!	!	!	!	!	!	!	!	!	!	!	!	!	!	!	!	!
8ryy	.	.	.	.	.	.	.	.	.	8Ree/yy	.	.	.	.	.	.	.	.	.	.	.	.	.	.	.	.	.	.	.	.	.	.	.	.	.	.
8ryy	.	8c#yy 8E\yy	.	8A/yy	.	8a\yy	.	8cc# 8e/)	.	8Ree/Jyy	.	.	.	.	.	.	.	.	.	.	8ayy 8c#/yy	.	8c#yy 8A\yy	.	8eyy 8A/yy	.	.	.	.	.	8cc#yy 8a\yy	.	.	.	.	.
=59	=59	=59	=59	=59	=59	=59	=59	=59	=59	=59	=59	=59	=59	=59	=59	=59	=59	=59	=59	=59	=59	=59	=59	=59	=59	=59	=59	=59	=59	=59	=59	=59	=59	=59	=59	=59
*	*	*	*	*	*	*	*	*	*	*	*	*	*	*	*	*	*	*	*	*	*	*	*	*	*tremoloy	*	*	*	*	*	*	*	*	*	*	*
!	!	!	!	!	!	!	!	!	!LO:DY:rj	!	!	!LO:DY:rj	!	!	!	!LO:DY:rj	!	!LO:DY:a:rj	!	!LO:DY:rj	!	!	!	!	!	!LO:DY:rj	!	!LO:DY:rj	!	!	!LO:TUP:a:problem=klamra łukowa, kropka zamiast numeru	!LO:DY:a:rj	!	!	!	!
8AA/yy	fy	24d\LLyy	.	24f#\LLyy	.	24f#/LLyy	.	(24dd\LL	f	32Ree/LLLyy	8Ra\yy	fy	8ryy	.	16Ayy 16AA\yy	fy	16F#/yy	fy	16d\yy	fy	16ddyy 16f#/yy	.	16dyy 16F#\yy	.	8aLyy 8A/yy	fy	8ff#\Lyy	fy	8a\Lyy	.	24dd\LLyy	fy	4.ryy	.	4.ryy	.
.	.	.	.	.	.	.	.	.	.	32Ree/yy	.	.	.	.	.	.	.	.	.	.	.	.	.	.	.	.	.	.	.	.	.	.	.	.	.	.
.	.	24e\yy	.	24e\yy	.	24e/yy	.	24ee\	.	.	.	.	.	.	.	.	.	.	.	.	.	.	.	.	.	.	.	.	.	.	24eeyy 24cc#\yy	.	.	.	.	.
.	.	.	.	.	.	.	.	.	.	32Ree/yy	.	.	.	.	16ryy	.	16ryy	.	16ryy	.	16ryy	.	16ryy	.	.	.	.	.	.	.	.	.	.	.	.	.
.	.	24f#\JJyy	.	24d\JJyy	.	24d/JJyy	.	24ff#\JJ	.	.	.	.	.	.	.	.	.	.	.	.	.	.	.	.	.	.	.	.	.	.	24ff#JJyy 24dd\yy	.	.	.	.	.
.	.	.	.	.	.	.	.	.	.	32Ree/JJyy	.	.	.	.	.	.	.	.	.	.	.	.	.	.	.	.	.	.	.	.	.	.	.	.	.	.
*	*	*	*	*	*	*	*	*	*	*Xtremolo	*	*	*	*	*	*	*	*	*	*	*	*	*	*	*	*	*	*	*	*	*	*	*	*	*	*
8ryy	.	8e\Lyy	.	8c#\yy	.	8c#/yy	.	8ee\)L	.	8Ree/yy	8rEEyy	.	8E\yy	.	8ALyy 8AA\yy	.	8E/Lyy	.	8c#\Lyy	.	8cc#Lyy 8e/yy	.	8c#Lyy 8E\yy	.	8ayy 8A/yy	.	8ee\yy	.	8a\yy	.	8eeLyy 8cc#\yy	.	.	.	.	.
8AA/yy	.	8d#X\Jyy	.	8B#X\yy	.	8B#X/yy	.	8dd#X'\J	.	8Ree/Jyy	8Ra\yy	.	8ryy	.	8AJyy 8AA\yy	.	8D#X/Jyy	.	8B#X\Jyy	.	8b#XJyy 8d#X/yy	.	8B#XJyy 8F#\yy	.	8aJyy 8A/yy	.	8ff#Jyy 8dd\yy	.	8a\Jyy	.	8dd#XJyy 8b#X\yy	.	.	.	.	.
*	*	*	*	*	*	*	*	*	*	*	*	*	*	*	*	*	*	*	*	*	*	*	*	*	*Xtremolo	*	*	*	*	*	*	*	*	*	*	*
=60	=60	=60	=60	=60	=60	=60	=60	=60	=60	=60	=60	=60	=60	=60	=60	=60	=60	=60	=60	=60	=60	=60	=60	=60	=60	=60	=60	=60	=60	=60	=60	=60	=60	=60	=60	=60
*	*	*	*	*	*	*	*	*	*	*	*	*	*	*	*	*	*	*	*	*	*	*	*	*	*	*	*^	*	*	*	*	*	*	*	*	*
*	*	*	*	*	*	*	*	*	*	*tremoloy	*	*	*	*	*	*	*	*	*	*	*	*	*	*	*	*	*	*	*	*	*	*	*	*	*	*	*
!	!	!	!	!	!	!	!	!	!	!	!	!	!	!	!	!	!	!	!	!	!	!	!	!	!	!	!	!	!	!	!	!LO:S:s=2:note:problem=note-level slur	!	!	!	!	!
8AA/yy	.	(y4e\yy	.	(y>4c#yy 4E/yy	.	(y4c#/yy	.	(4ee\	.	(y32Ree/LLLyy	8Ra\yy	.	8E\yy	.	4Ayy 4AA\yy	.	4E/yy	.	4c#\yy	.	4cc#yy 4e/yy	.	4c#yy 4E\yy	.	4ayy 4A/yy	.	4ee/yy	4ee\yy	.	(y4a\yy	.	(y4eeyy (y>4cc#\yy	.	4.ryy	.	4.ryy	.
.	.	.	.	.	.	.	.	.	.	32Ree/yy	.	.	.	.	.	.	.	.	.	.	.	.	.	.	.	.	.	.	.	.	.	.	.	.	.	.	.
.	.	.	.	.	.	.	.	.	.	32Ree/yy	.	.	.	.	.	.	.	.	.	.	.	.	.	.	.	.	.	.	.	.	.	.	.	.	.	.	.
.	.	.	.	.	.	.	.	.	.	32Ree/JJyy	.	.	.	.	.	.	.	.	.	.	.	.	.	.	.	.	.	.	.	.	.	.	.	.	.	.	.
*	*	*	*	*	*	*	*	*	*	*Xtremolo	*	*	*	*	*	*	*	*	*	*	*	*	*	*	*	*	*	*	*	*	*	*	*	*	*	*	*
8ryy	.	.	.	.	.	.	.	.	.	8Ree/)yy	8rEEyy	.	8ryy	.	.	.	.	.	.	.	.	.	.	.	.	.	.	.	.	.	.	.	.	.	.	.	.
8ryy	.	8c#\)yy	.	8Ayy 8E/)yy	.	8A/)yy	.	8cc#\)	.	8Ree/Jyy	8rEEyy	.	8ryy	.	8Ayy 8AA\yy	.	8E/yy	.	8c#\yy	.	8ayy 8c#/yy	.	8c#yy 8E\yy	.	8ayy 8A/yy	.	8ee/yy	8ee\yy	.	8cc#yy 8a\)yy	.	8cc#)yy 8a\)yy	.	.	.	.	.
*	*	*	*	*	*	*	*	*	*	*	*	*	*	*	*	*	*	*	*	*	*	*	*	*	*	*	*v	*v	*	*	*	*	*	*	*	*	*
=61	=61	=61	=61	=61	=61	=61	=61	=61	=61	=61	=61	=61	=61	=61	=61	=61	=61	=61	=61	=61	=61	=61	=61	=61	=61	=61	=61	=61	=61	=61	=61	=61	=61	=61	=61	=61
*	*	*	*	*	*	*	*	*	*	*	*	*	*	*	*	*	*	*	*	*	*	*	*	*	*	*	*	*	*^	*	*	*	*	*	*	*
8E\yy	py	4.ryy	.	8ryy	.	8ryy	.	8r	.	8ryy	8ryy	.	8ryy	.	8ryy	.	8ryy	.	8ryy	.	8ryy	.	8ryy	.	8ryy	.	8ryy	.	(y32ee/LLLyy	4ryy	.	8ryy	.	4.ryy	.	(y32eee\LLLyy	.
.	.	.	.	.	.	.	.	.	.	.	.	.	.	.	.	.	.	.	.	.	.	.	.	.	.	.	.	.	32dd/yy	.	.	.	.	.	.	32ddd\yy	.
.	.	.	.	.	.	.	.	.	.	.	.	.	.	.	.	.	.	.	.	.	.	.	.	.	.	.	.	.	32b/yy	.	.	.	.	.	.	32bb\yy	.
.	.	.	.	.	.	.	.	.	.	.	.	.	.	.	.	.	.	.	.	.	.	.	.	.	.	.	.	.	32g#/JJJyy	.	.	.	.	.	.	32gg#\JJJyy	.
!	!	!	!	!	!	!	!	!	!	!	!	!	!	!	!	!	!	!	!	!	!	!	!	!LO:DY:rj	!	!	!	!	!	!	!	!	!	!	!	!	!
8ryy	.	.	.	8eLyy 8d\yy	.	8g#Lyy 8B/yy	.	8r	.	8ryy	8rEEyy	.	8ryy	.	8ryy	.	8ryy	.	8ryy	.	8ryy	.	8BLyy 8G#\yy	py	8ryy	.	8eeLyy 8e/yy	.	16e/)yy	.	.	8ryy	.	.	.	16ee\)yy	.
.	.	.	.	.	.	.	.	.	.	.	.	.	.	.	.	.	.	.	.	.	.	.	.	.	.	.	.	.	16rffyy	.	.	.	.	.	.	16ryy	.
8E\yy	sfy	.	.	8eJyy 8d\yy	sfy	8g#Jyy 8B/yy	sfy	8gg# 8b 8e\	.	8Ree/yy	8Ra\yy	.	8E\yy	.	8Byy 8E\yy	.	8d\yy	.	8g#\yy	sfy	8eeyy 8e/yy	.	8BJyy 8G#\yy	.	8byy 8e\yy	.	8eeJyy 8e/yy	.	8ee/yy	8g#\yy	.	8gg#yy 8dd\yy	.	.	.	8eee^<\yy	.
=62	=62	=62	=62	=62	=62	=62	=62	=62	=62	=62	=62	=62	=62	=62	=62	=62	=62	=62	=62	=62	=62	=62	=62	=62	=62	=62	=62	=62	=62	=62	=62	=62	=62	=62	=62	=62	=62
!	!	!	!	!	!	!	!	!	!	!	!	!	!	!	!	!	!	!	!	!	!	!	!	!	!	!	!	!	!	!	!	!	!	!LO:TX:a:t=Col Flauto//	!	!	!
8AA/yy	.	4.ryy	.	8ryy	.	8ryy	.	8r	.	8ryy	8ryy	.	8ryy	.	8ryy	.	8ryy	.	8ryy	.	8ryy	.	8ryy	.	8ryy	.	8ryy	.	32ff#/LLLyy	8ryy	.	8ryy	.	(y32ff#\LLLyy	.	(y32fff#\LLLyy	.
.	.	.	.	.	.	.	.	.	.	.	.	.	.	.	.	.	.	.	.	.	.	.	.	.	.	.	.	.	32ee/yy	.	.	.	.	32ee\yy	.	32eee\yy	.
.	.	.	.	.	.	.	.	.	.	.	.	.	.	.	.	.	.	.	.	.	.	.	.	.	.	.	.	.	32cc#/yy	.	.	.	.	32cc#\yy	.	32ccc#\yy	.
.	.	.	.	.	.	.	.	.	.	.	.	.	.	.	.	.	.	.	.	.	.	.	.	.	.	.	.	.	32a/JJJyy	.	.	.	.	32a\JJJyy	.	32aa\JJJyy	.
8ryy	.	.	.	8eLyy 8A\yy	.	8aLyy 8c#/yy	.	8r	.	8ryy	8rEEyy	.	8ryy	.	8ryy	.	8ryy	.	8ryy	.	8ryy	.	8c#Lyy 8A\yy	.	8ryy	.	8eeLyy 8e/yy	.	16e/yy	8ryy	.	8ryy	.	16e\)yy	.	16ee\)yy	.
.	.	.	.	.	.	.	.	.	.	.	.	.	.	.	.	.	.	.	.	.	.	.	.	.	.	.	.	.	16rffyy	.	.	.	.	16ryy	.	16ryy	.
8ryy	.	.	.	8eJyy 8A\yy	.	8aJyy 8c#/yy	sfy	8aa 8cc# 8e\	.	8Ree/yy	8Ra\yy	.	8E\yy	.	8Ayy 8AA\yy	.	8c#\yy	.	8e\yy	sfy	8eeyy 8e\yy	.	8c#Jyy 8A\yy	.	8ayy 8c#/yy	.	8eeJyy 8e/yy	sfy	8cc#/yy	8a\yy	.	8aayy 8cc#\yy	.	8ee\|yy	.	8eee\|yy	.
*	*	*	*	*	*	*	*	*	*	*v	*v	*	*	*	*	*	*	*	*	*	*	*	*	*	*	*	*	*	*	*	*	*	*	*	*	*	*
=63	=63	=63	=63	=63	=63	=63	=63	=63	=63	=63	=63	=63	=63	=63	=63	=63	=63	=63	=63	=63	=63	=63	=63	=63	=63	=63	=63	=63	=63	=63	=63	=63	=63	=63	=63	=63
*	*	*	*	*	*	*	*	*	*	*	*	*	*	*^	*	*	*	*	*	*	*	*	*	*	*	*	*	*	*	*	*^	*	*	*	*	*
*	*	*	*	*	*	*	*	*	*	*	*	*	*	*	*	*	*	*	*	*	*	*	*	*	*	*	*	*	*Xtuplet	*	*	*	*	*	*	*	*	*
!	!	!	!	!	!	!	!	!	!	!	!	!	!	!	!	!LO:DY:rj	!	!	!	!	!	!	!	!	!	!	!	!	!	!	!	!	!	!	!	!	!	!
8E\yy	.	4.ryy	.	8ryy	.	8ryy	.	24b'\LL	.	4.ryy	.	4.ryy	.	(y4G#/yy	4.E\yy	py	4.d\yy	.	4.e\yy	py	4.ryy	.	8ryy	.	4.ryy	.	8ryy	.	24b'/LLyy	4.ryy	.	[y4dd/yy	4g#\yy	.	24b'\LLyy	.	24bb'\LLyy	.
.	.	.	.	.	.	.	.	(24gg#\	.	.	.	.	.	.	.	.	.	.	.	.	.	.	.	.	.	.	.	.	24gg#/yy	.	.	.	.	.	(y24gg#\yy	.	(y24ggg#\yy	.
.	.	.	.	.	.	.	.	24ff#\JJ	.	.	.	.	.	.	.	.	.	.	.	.	.	.	.	.	.	.	.	.	24ff#/JJyy	.	.	.	.	.	24ff#\JJ)yy	.	24fff#\JJ)yy	.
8ryy	.	.	.	8eLyy 8d\yy	.	8g#Lyy 8B/yy	.	16ee\)	.	.	.	.	.	.	.	.	.	.	.	.	.	.	8dLyy 8B\yy	.	.	.	8eeLyy 8e/yy	.	16ee/yy	.	.	.	.	.	16ee\yy	.	16eee\yy	.
.	.	.	.	.	.	.	.	16r	.	.	.	.	.	.	.	.	.	.	.	.	.	.	.	.	.	.	.	.	16rffyy	.	.	.	.	.	16ryy	.	16ryy	.
8ryy	.	.	.	8eJyy 8d\yy	.	8g#Jyy 8B/yy	.	8g#/	.	.	.	.	.	8B/)yy	.	.	.	.	.	.	.	.	8dJyy 8B\yy	.	.	.	8eeJyy 8e/yy	.	8g#/yy	.	.	8dd/]yy	8b\yy	.	8g#\yy	.	8gg#\yy	.
*	*	*	*	*	*	*	*	*	*	*	*	*	*	*v	*v	*	*	*	*	*	*	*	*	*	*	*	*	*	*	*	*	*	*	*	*	*	*	*
=64	=64	=64	=64	=64	=64	=64	=64	=64	=64	=64	=64	=64	=64	=64	=64	=64	=64	=64	=64	=64	=64	=64	=64	=64	=64	=64	=64	=64	=64	=64	=64	=64	=64	=64	=64	=64	=64
*	*	*	*	*	*	*	*	*	*	*^	*	*	*	*	*	*	*	*	*	*	*	*	*	*	*	*	*	*	*	*	*	*	*	*	*	*	*
16A\yy	.	4.ryy	.	16eyy 16A\yy	.	16ayy 16c#/yy	.	(32b/KLL	.	8ryy	8rEEyy	.	8ryy	.	16Ayy 16AA\yy	.	16c#\yy	.	16e\yy	.	8ryy	.	16c#yy 16A\yy	.	8ryy	.	16eeyy 16e/yy	.	16a/yy	8ryy	.	16cc#/yy	16a\yy	.	(y32b\KLLyy	.	(y32bb\KLLyy	.
.	.	.	.	.	.	.	.	16a/JJ)	.	.	.	.	.	.	.	.	.	.	.	.	.	.	.	.	.	.	.	.	.	.	.	.	.	.	16a\JJ)yy	.	16aa\JJ)yy	.
16ryy	.	.	.	16ryy	.	16ryy	.	.	.	.	.	.	.	.	16ryy	.	16ryy	.	16ryy	.	.	.	16ryy	.	.	.	16ryy	.	16rffyy	.	.	16ryy	16ryy	.	.	.	.	.
.	.	.	.	.	.	.	.	32r	.	.	.	.	.	.	.	.	.	.	.	.	.	.	.	.	.	.	.	.	.	.	.	.	.	.	32ryy	.	32ryy	.
!	!LO:DY:rj	!	!	!	!	!	!LO:DY:a:rj	!	!	!	!	!	!	!LO:DY:a:rj	!	!	!	!	!	!LO:DY:rj	!	!LO:DY:a:rj	!	!	!	!	!	!LO:DY:rj	!	!	!LO:DY:rj	!	!	!	!	!LO:DY:rj	!	!LO:DY:rj
8AA/yy	fy	.	.	8ayy 8eyy 8A\yy	.	8ayy 8c#/yy	fy	8aa 8cc#\	.	8Ree/yy	8Ra\yy	.	8E\yy	fy	8Ayy 8AA\yy	.	8c#\yy	.	8a\yy	fy	8eeyy 8e\yy	fy	8Ayy 8AA\yy	.	8ayy 8c#/yy	.	8eeyy 8e/yy	fy	8a/yy	8a\yy	fy	8aayy 8cc#\yy	4ryy	.	8a\yy	fy	8aa\yy	fy
!LO:TX:t=P:problem=na końcu rękopisu fragment jakiegoś utworu	!	!	!	!	!	!	!	!	!	!	!	!	!	!	!	!	!	!	!	!	!	!	!	!	!	!	!	!	!	!	!	!	!	!	!	!	!	!
8ryy	.	.	.	8ryy	.	8ryy	.	8r	.	8ryy	8rEEyy	.	8ryy	.	8ryy	.	8ryy	.	8ryy	.	8ryy	.	8ryy	.	8ryy	.	8ryy	.	8rffyy	8rAyy	.	8ryy	.	.	8ryy	.	8ryy	.
*	*	*	*	*	*	*	*	*	*	*	*	*	*	*	*	*	*	*	*	*	*	*	*	*	*	*	*	*	*v	*v	*	*	*	*	*	*	*	*
*	*	*	*	*	*	*	*	*	*	*v	*v	*	*	*	*	*	*	*	*	*	*	*	*	*	*	*	*	*	*	*	*v	*v	*	*	*	*	*
=:|!	=:|!	=:|!	=:|!	=:|!	=:|!	=:|!	=:|!	=:|!	=:|!	=:|!	=:|!	=:|!	=:|!	=:|!	=:|!	=:|!	=:|!	=:|!	=:|!	=:|!	=:|!	=:|!	=:|!	=:|!	=:|!	=:|!	=:|!	=:|!	=:|!	=:|!	=:|!	=:|!	=:|!	=:|!	=:|!
*-	*-	*-	*-	*-	*-	*-	*-	*-	*-	*-	*-	*-	*-	*-	*-	*-	*-	*-	*-	*-	*-	*-	*-	*-	*-	*-	*-	*-	*-	*-	*-	*-	*-	*-	*-
!!!system-decoration: [({s1,s2}s3,s4{s5,s6}s7,s8{g1}s12,s13{g2,s16}{s17,s18})]
!!!RDF**kern: > = above
!!!RDF**kern: < = below
!!!RDF**kern: | = vertical stroke
!!!ENC: Marta Lawrence
!!!END: 2021-07-06
!!!ENC: Mateusz Solarz
!!!END: 2021-05-05
